;FLAVOR:Marlin
;TIME:12943
;Filament used: 9.69214m
;Layer height: 0.16
;MINX:104.999
;MINY:127.754
;MINZ:0.28
;MAXX:194.999
;MAXY:177.233
;MAXZ:15.92
;Generated with Cura_SteamEngine 4.13.1
M140 S95
M105
M190 S95
M104 S220
M105
M109 S220
M82 ;absolute extrusion mode
G28 ; home all axes
 M117 Purge extruder
 G92 E0 ; reset extruder
 G1 Z1.0 F3000 ; move z up little to prevent scratching of surface
 G1 X2 Y20 Z0.3 F5000.0 ; move to start-line position
 G1 X2 Y200.0 Z0.3 F1500.0 E15 ; draw 1st line
 G1 X2 Y200.0 Z0.4 F5000.0 ; move to side a little
 G1 X2 Y20 Z0.4 F1500.0 E30 ; draw 2nd line
 G92 E0 ; reset extruder
 G1 Z1.0 F3000 ; move z up little to prevent scratching of surface
G92 E0
G92 E0
G1 F1500 E-5
;LAYER_COUNT:91
;LAYER:0
M107
G1 F300 Z0.48
G0 F6000 X108.96 Y134.866 Z0.48
;TYPE:SKIRT
G1 F300 Z0.28
G1 F1500 E0
G1 F1200 X119.659 Y134.866 E0.85489
G1 X119.68 Y135.159 E0.87837
G1 X119.799 Y135.709 E0.92333
G1 X119.995 Y136.236 E0.96826
G1 X120.263 Y136.73 E1.01317
G1 X120.599 Y137.182 E1.05817
G1 X120.8 Y137.398 E1.08174
G1 X121.111 Y137.709 E1.11689
G1 X121.536 Y138.078 E1.16186
G1 X122.009 Y138.382 E1.20679
G1 X122.52 Y138.617 E1.25173
G1 X123.059 Y138.776 E1.29663
G1 X123.616 Y138.858 E1.34162
G1 X123.911 Y138.869 E1.36521
G1 X140.435 Y138.868 E2.68554
G1 X140.996 Y138.828 E2.73048
G1 X141.546 Y138.709 E2.77545
G1 X142.073 Y138.513 E2.82038
G1 X142.568 Y138.245 E2.86535
G1 X143.019 Y137.909 E2.91029
G1 X143.235 Y137.708 E2.93387
G1 X143.546 Y137.397 E2.96901
G1 X143.915 Y136.972 E3.01398
G1 X144.219 Y136.499 E3.05891
G1 X144.454 Y135.988 E3.10385
G1 X144.613 Y135.449 E3.14876
G1 X144.695 Y134.892 E3.19374
G1 X144.696 Y134.866 E3.19582
G1 X153.744 Y134.866 E3.91879
G1 X153.928 Y135.113 E3.9434
G1 X154.129 Y135.329 E3.96698
G1 X154.44 Y135.64 E4.00212
G1 X154.865 Y136.009 E4.0471
G1 X155.338 Y136.313 E4.09202
G1 X155.849 Y136.548 E4.13697
G1 X156.225 Y136.659 E4.16829
G1 X156.263 Y136.729 E4.17466
G1 X156.599 Y137.181 E4.21966
G1 X156.8 Y137.397 E4.24324
G1 X157.111 Y137.708 E4.27838
G1 X157.536 Y138.077 E4.32335
G1 X158.009 Y138.381 E4.36828
G1 X158.52 Y138.616 E4.41322
G1 X159.059 Y138.775 E4.45812
G1 X159.616 Y138.857 E4.50311
G1 X159.911 Y138.868 E4.5267
G1 X175.922 Y138.868 E5.80604
G1 X176.483 Y138.828 E5.85098
G1 X177.033 Y138.709 E5.89595
G1 X177.447 Y138.563 E5.93103
G1 X177.852 Y138.394 E5.96609
G1 X178.354 Y138.141 E6.01101
G1 X178.816 Y137.819 E6.05601
G1 X179.148 Y137.518 E6.09181
G1 X180.54 Y136.105 E6.2503
G1 X180.905 Y135.677 E6.29525
G1 X181.206 Y135.202 E6.34018
G1 X181.357 Y134.866 E6.36962
G1 X191.04 Y134.866 E7.14333
G1 X191.04 Y173.273 E10.21221
G1 X160.684 Y173.273 E12.63778
G1 X160.973 Y172.824 E12.68044
G1 X161.208 Y172.313 E12.72539
G1 X161.367 Y171.774 E12.77029
G1 X161.449 Y171.217 E12.81528
G1 X161.46 Y170.922 E12.83886
G1 X161.46 Y151.544 E14.38725
G1 X161.42 Y150.983 E14.43219
G1 X161.301 Y150.433 E14.47715
G1 X161.105 Y149.906 E14.52208
G1 X160.837 Y149.412 E14.56699
G1 X160.501 Y148.96 E14.61199
G1 X160.3 Y148.744 E14.63556
G1 X159.989 Y148.433 E14.67071
G1 X159.564 Y148.064 E14.71568
G1 X159.091 Y147.76 E14.76061
G1 X158.58 Y147.525 E14.80555
G1 X158.041 Y147.366 E14.85045
G1 X157.484 Y147.284 E14.89544
G1 X157.189 Y147.273 E14.91903
G1 X142.811 Y147.273 E16.06789
G1 X142.25 Y147.313 E16.11283
G1 X141.7 Y147.432 E16.15779
G1 X141.173 Y147.628 E16.20272
G1 X140.679 Y147.896 E16.24763
G1 X140.227 Y148.232 E16.29263
G1 X140.011 Y148.433 E16.31621
G1 X139.7 Y148.744 E16.35135
G1 X139.331 Y149.169 E16.39632
G1 X139.027 Y149.642 E16.44125
G1 X138.792 Y150.153 E16.48619
G1 X138.633 Y150.692 E16.5311
G1 X138.551 Y151.249 E16.57608
G1 X138.54 Y151.544 E16.59967
G1 X138.54 Y170.922 E18.14805
G1 X138.58 Y171.483 E18.19299
G1 X138.699 Y172.033 E18.23796
G1 X138.895 Y172.56 E18.28288
G1 X139.163 Y173.054 E18.32779
G1 X139.326 Y173.273 E18.34961
G1 X108.96 Y173.273 E20.77597
G1 X108.96 Y134.866 E23.84485
G0 F6000 X108.432 Y134.338
G1 F1200 X120.168 Y134.338 E24.78261
G1 X120.168 Y134.598 E24.80338
G1 X120.208 Y135.12 E24.84522
G1 X120.327 Y135.63 E24.88706
G1 X120.522 Y136.116 E24.9289
G1 X120.789 Y136.566 E24.97071
G1 X121.173 Y137.025 E25.01853
G1 X121.484 Y137.336 E25.05368
G1 X121.882 Y137.677 E25.09555
G1 X122.326 Y137.953 E25.13733
G1 X122.808 Y138.159 E25.17921
G1 X123.315 Y138.289 E25.22103
G1 X123.911 Y138.341 E25.26884
G1 X140.435 Y138.34 E26.58917
G1 X140.957 Y138.3 E26.63101
G1 X141.467 Y138.181 E26.67285
G1 X141.953 Y137.986 E26.71469
G1 X142.404 Y137.719 E26.75657
G1 X142.862 Y137.335 E26.80433
G1 X143.173 Y137.024 E26.83947
G1 X143.514 Y136.626 E26.88135
G1 X143.79 Y136.182 E26.92312
G1 X143.996 Y135.7 E26.96501
G1 X144.126 Y135.193 E27.00683
G1 X144.178 Y134.597 E27.05463
G1 X144.178 Y134.338 E27.07533
G1 X154.024 Y134.338 E27.86206
G1 X154.118 Y134.497 E27.87682
G1 X154.502 Y134.956 E27.92464
G1 X154.813 Y135.267 E27.95979
G1 X155.211 Y135.608 E28.00166
G1 X155.655 Y135.884 E28.04344
G1 X156.137 Y136.09 E28.08532
G1 X156.574 Y136.202 E28.12137
G1 X156.789 Y136.565 E28.15508
G1 X157.173 Y137.024 E28.2029
G1 X157.484 Y137.335 E28.23804
G1 X157.882 Y137.676 E28.27992
G1 X158.326 Y137.952 E28.32169
G1 X158.808 Y138.158 E28.36358
G1 X159.315 Y138.288 E28.4054
G1 X159.911 Y138.34 E28.4532
G1 X175.922 Y138.34 E29.73255
G1 X176.444 Y138.3 E29.77438
G1 X176.954 Y138.181 E29.81622
G1 X177.244 Y138.075 E29.8409
G1 X177.649 Y137.906 E29.87596
G1 X178.115 Y137.668 E29.91777
G1 X178.54 Y137.362 E29.95962
G1 X178.772 Y137.148 E29.98484
G1 X180.164 Y135.735 E30.14333
G1 X180.502 Y135.335 E30.18517
G1 X180.775 Y134.888 E30.22702
G1 X180.977 Y134.405 E30.26886
G1 X180.994 Y134.338 E30.27438
G1 X191.568 Y134.338 E31.11929
G1 X191.568 Y173.801 E34.27254
G1 X159.447 Y173.801 E36.83914
G1 X159.616 Y173.66 E36.85673
G1 X159.927 Y173.349 E36.89187
G1 X160.268 Y172.951 E36.93375
G1 X160.544 Y172.507 E36.97553
G1 X160.75 Y172.025 E37.01741
G1 X160.88 Y171.518 E37.05923
G1 X160.932 Y170.922 E37.10704
G1 X160.932 Y151.544 E38.65542
G1 X160.892 Y151.022 E38.69725
G1 X160.773 Y150.512 E38.7391
G1 X160.578 Y150.026 E38.78094
G1 X160.311 Y149.576 E38.82275
G1 X159.927 Y149.117 E38.87057
G1 X159.616 Y148.806 E38.90571
G1 X159.218 Y148.465 E38.94759
G1 X158.774 Y148.189 E38.98936
G1 X158.292 Y147.983 E39.03125
G1 X157.785 Y147.853 E39.07307
G1 X157.189 Y147.801 E39.12087
G1 X142.811 Y147.801 E40.26973
G1 X142.289 Y147.841 E40.31156
G1 X141.779 Y147.96 E40.35341
G1 X141.293 Y148.155 E40.39525
G1 X140.843 Y148.422 E40.43706
G1 X140.384 Y148.806 E40.48488
G1 X140.073 Y149.117 E40.52002
G1 X139.732 Y149.515 E40.5619
G1 X139.456 Y149.959 E40.60368
G1 X139.25 Y150.441 E40.64556
G1 X139.12 Y150.948 E40.68738
G1 X139.068 Y151.544 E40.73519
G1 X139.068 Y170.922 E42.28357
G1 X139.108 Y171.444 E42.3254
G1 X139.227 Y171.954 E42.36725
G1 X139.422 Y172.44 E42.40909
G1 X139.689 Y172.89 E42.4509
G1 X140.073 Y173.349 E42.49872
G1 X140.384 Y173.66 E42.53386
G1 X140.549 Y173.801 E42.5512
G1 X108.432 Y173.801 E45.11748
G1 X108.432 Y134.338 E48.27074
G0 F6000 X107.904 Y133.81
G1 F1200 X120.696 Y133.81 E49.29288
G1 X120.696 Y134.598 E49.35584
G1 X120.736 Y135.078 E49.39433
G1 X120.855 Y135.545 E49.43283
G1 X121.049 Y135.985 E49.47126
G1 X121.313 Y136.388 E49.50975
G1 X121.547 Y136.651 E49.53788
G1 X121.858 Y136.962 E49.57303
G1 X122.225 Y137.274 E49.61152
G1 X122.639 Y137.52 E49.65
G1 X123.088 Y137.694 E49.68847
G1 X123.56 Y137.792 E49.72699
G1 X123.911 Y137.813 E49.75509
G1 X140.435 Y137.812 E51.07542
G1 X140.915 Y137.772 E51.11391
G1 X141.382 Y137.653 E51.15242
G1 X141.822 Y137.459 E51.19084
G1 X142.225 Y137.195 E51.22934
G1 X142.488 Y136.961 E51.25747
G1 X142.799 Y136.65 E51.29261
G1 X143.111 Y136.283 E51.3311
G1 X143.357 Y135.869 E51.36958
G1 X143.531 Y135.42 E51.40806
G1 X143.629 Y134.948 E51.44657
G1 X143.65 Y134.597 E51.47467
G1 X143.65 Y133.81 E51.53756
G1 X154.331 Y133.81 E52.39101
G1 X154.378 Y133.916 E52.40028
G1 X154.642 Y134.319 E52.43877
G1 X154.876 Y134.582 E52.4669
G1 X155.187 Y134.893 E52.50204
G1 X155.554 Y135.205 E52.54053
G1 X155.968 Y135.451 E52.57901
G1 X156.417 Y135.625 E52.61749
G1 X156.889 Y135.723 E52.65601
G1 X156.935 Y135.726 E52.65969
G1 X157.049 Y135.984 E52.68223
G1 X157.313 Y136.387 E52.72073
G1 X157.547 Y136.65 E52.74886
G1 X157.858 Y136.961 E52.784
G1 X158.225 Y137.273 E52.82249
G1 X158.639 Y137.519 E52.86097
G1 X159.088 Y137.693 E52.89945
G1 X159.56 Y137.791 E52.93796
G1 X159.911 Y137.812 E52.96606
G1 X175.922 Y137.812 E54.24541
G1 X176.402 Y137.772 E54.28389
G1 X177.04 Y137.588 E54.33695
G1 X177.445 Y137.419 E54.37202
G1 X177.873 Y137.197 E54.41054
G1 X178.396 Y136.777 E54.46414
G1 X179.788 Y135.364 E54.62263
G1 X180.096 Y134.994 E54.66109
G1 X180.339 Y134.578 E54.69959
G1 X180.51 Y134.128 E54.73806
G1 X180.573 Y133.81 E54.76396
G1 X192.096 Y133.81 E55.68469
G1 X192.096 Y174.329 E58.92233
G1 X107.904 Y174.329 E65.64962
G1 X107.904 Y133.81 E68.88726
G0 F6000 X107.376 Y133.282
G1 F1200 X121.224 Y133.282 E69.99377
G1 X121.224 Y134.598 E70.09892
G1 X121.264 Y135.032 E70.13375
G1 X121.382 Y135.451 E70.16853
G1 X121.575 Y135.841 E70.2033
G1 X121.92 Y136.278 E70.24779
G1 X122.231 Y136.589 E70.28293
G1 X122.566 Y136.868 E70.31777
G1 X122.946 Y137.08 E70.35254
G1 X123.358 Y137.22 E70.38731
G1 X123.911 Y137.285 E70.4318
G1 X140.435 Y137.284 E71.75213
G1 X140.869 Y137.244 E71.78696
G1 X141.288 Y137.126 E71.82174
G1 X141.678 Y136.933 E71.85651
G1 X142.115 Y136.588 E71.901
G1 X142.426 Y136.277 E71.93614
G1 X142.705 Y135.942 E71.97098
G1 X142.917 Y135.562 E72.00575
G1 X143.057 Y135.15 E72.04052
G1 X143.122 Y134.597 E72.08501
G1 X143.122 Y133.282 E72.19008
G1 X154.683 Y133.282 E73.11385
G1 X154.711 Y133.382 E73.12215
G1 X154.904 Y133.772 E73.15692
G1 X155.249 Y134.209 E73.20141
G1 X155.56 Y134.52 E73.23655
G1 X155.895 Y134.799 E73.27139
G1 X156.275 Y135.011 E73.30616
G1 X156.687 Y135.151 E73.34093
G1 X157.24 Y135.216 E73.38542
G1 X157.316 Y135.216 E73.39149
G1 X157.382 Y135.45 E73.41092
G1 X157.575 Y135.84 E73.44569
G1 X157.92 Y136.277 E73.49018
G1 X158.231 Y136.588 E73.52532
G1 X158.566 Y136.867 E73.56015
G1 X158.946 Y137.079 E73.59492
G1 X159.358 Y137.219 E73.62969
G1 X159.911 Y137.284 E73.67418
G1 X175.922 Y137.284 E74.95353
G1 X176.356 Y137.244 E74.98836
G1 X176.837 Y137.101 E75.02845
G1 X177.242 Y136.932 E75.06352
G1 X177.627 Y136.728 E75.09833
G1 X178.02 Y136.406 E75.13893
G1 X179.412 Y134.993 E75.29742
G1 X179.688 Y134.656 E75.33222
G1 X179.897 Y134.275 E75.36695
G1 X180.034 Y133.861 E75.40179
G1 X180.095 Y133.326 E75.44482
G1 X180.095 Y133.282 E75.44833
G1 X192.624 Y133.282 E76.44945
G1 X192.624 Y174.857 E79.77147
G1 X107.376 Y174.857 E86.58314
G1 X107.376 Y133.282 E89.90515
G0 F6000 X106.848 Y132.754
G1 F1200 X121.752 Y132.754 E91.09604
G1 X121.752 Y134.598 E91.24339
G1 X121.792 Y134.98 E91.27408
G1 X121.91 Y135.345 E91.30473
G1 X122.101 Y135.678 E91.3354
G1 X122.293 Y135.905 E91.35916
G1 X122.604 Y136.216 E91.3943
G1 X122.903 Y136.458 E91.42504
G1 X123.244 Y136.633 E91.45566
G1 X123.615 Y136.733 E91.48637
G1 X123.911 Y136.757 E91.51009
G1 X140.435 Y136.756 E92.83043
G1 X140.817 Y136.716 E92.86112
G1 X141.182 Y136.598 E92.89177
G1 X141.516 Y136.407 E92.92252
G1 X141.742 Y136.215 E92.94621
G1 X142.053 Y135.904 E92.98135
G1 X142.295 Y135.605 E93.01209
G1 X142.47 Y135.264 E93.04272
G1 X142.57 Y134.893 E93.07342
G1 X142.594 Y134.597 E93.09715
G1 X142.594 Y132.754 E93.24441
G1 X155.105 Y132.754 E94.24409
G1 X155.121 Y132.911 E94.2567
G1 X155.239 Y133.276 E94.28735
G1 X155.43 Y133.609 E94.31803
G1 X155.622 Y133.836 E94.34178
G1 X155.933 Y134.147 E94.37693
G1 X156.232 Y134.389 E94.40766
G1 X156.573 Y134.564 E94.43829
G1 X156.944 Y134.664 E94.46899
G1 X157.24 Y134.688 E94.49272
G1 X157.762 Y134.688 E94.53443
G1 X157.792 Y134.979 E94.55781
G1 X157.91 Y135.344 E94.58846
G1 X158.101 Y135.677 E94.61913
G1 X158.293 Y135.904 E94.64289
G1 X158.604 Y136.215 E94.67803
G1 X158.903 Y136.457 E94.70877
G1 X159.244 Y136.632 E94.73939
G1 X159.615 Y136.732 E94.7701
G1 X159.911 Y136.756 E94.79383
G1 X175.922 Y136.756 E96.07317
G1 X176.304 Y136.716 E96.10386
G1 X176.634 Y136.613 E96.13148
G1 X177.039 Y136.444 E96.16655
G1 X177.376 Y136.261 E96.19719
G1 X177.643 Y136.036 E96.22509
G1 X179.035 Y134.623 E96.38358
G1 X179.275 Y134.323 E96.41428
G1 X179.447 Y133.98 E96.44494
G1 X179.545 Y133.608 E96.47568
G1 X179.567 Y133.326 E96.49828
G1 X179.567 Y132.754 E96.54398
G1 X193.152 Y132.754 E97.62948
G1 X193.152 Y175.385 E101.03588
G1 X106.848 Y175.385 E107.93192
G1 X106.848 Y132.754 E111.33832
G0 F6000 X106.32 Y132.226
G1 F1200 X122.28 Y132.226 E112.61359
G1 X122.28 Y134.598 E112.80312
G1 X122.32 Y134.92 E112.82905
G1 X122.437 Y135.222 E112.85493
G1 X122.667 Y135.531 E112.8857
G1 X122.978 Y135.842 E112.92085
G1 X123.233 Y136.042 E112.94674
G1 X123.53 Y136.173 E112.97268
G1 X123.911 Y136.229 E113.00345
G1 X140.435 Y136.228 E114.32379
G1 X140.757 Y136.188 E114.34971
G1 X141.059 Y136.071 E114.37559
G1 X141.368 Y135.841 E114.40637
G1 X141.679 Y135.53 E114.44152
G1 X141.879 Y135.275 E114.46741
G1 X142.01 Y134.978 E114.49335
G1 X142.066 Y134.597 E114.52412
G1 X142.066 Y132.226 E114.71357
G1 X155.609 Y132.226 E115.79571
G1 X155.609 Y132.529 E115.81992
G1 X155.649 Y132.851 E115.84585
G1 X155.766 Y133.153 E115.87173
G1 X155.996 Y133.462 E115.90251
G1 X156.307 Y133.773 E115.93765
G1 X156.562 Y133.973 E115.96355
G1 X156.859 Y134.104 E115.98948
G1 X157.24 Y134.16 E116.02026
G1 X158.28 Y134.16 E116.10336
G1 X158.28 Y134.597 E116.13827
G1 X158.32 Y134.919 E116.1642
G1 X158.437 Y135.221 E116.19008
G1 X158.667 Y135.53 E116.22086
G1 X158.978 Y135.841 E116.256
G1 X159.233 Y136.041 E116.2819
G1 X159.53 Y136.172 E116.30783
G1 X159.911 Y136.228 E116.33861
G1 X175.922 Y136.228 E117.61795
G1 X176.244 Y136.188 E117.64388
G1 X176.43 Y136.126 E117.65954
G1 X176.835 Y135.957 E117.69461
G1 X177.117 Y135.796 E117.72056
G1 X177.267 Y135.665 E117.73647
G1 X178.659 Y134.252 E117.89496
G1 X178.857 Y133.995 E117.92088
G1 X178.986 Y133.697 E117.94683
G1 X179.039 Y133.326 E117.97677
G1 X179.039 Y132.226 E118.06467
G1 X193.68 Y132.226 E119.23454
G1 X193.68 Y175.913 E122.72532
G1 X106.32 Y175.913 E129.70574
G1 X106.32 Y132.226 E133.19652
G0 F6000 X105.792 Y131.698
G1 F1200 X122.808 Y131.698 E134.55616
G1 X122.808 Y134.598 E134.78789
G1 X122.848 Y134.846 E134.80796
G1 X123.04 Y135.158 E134.83723
G1 X123.351 Y135.469 E134.87237
G1 X123.554 Y135.616 E134.8924
G1 X123.911 Y135.701 E134.92172
G1 X140.435 Y135.7 E136.24206
G1 X140.683 Y135.66 E136.26213
G1 X140.995 Y135.468 E136.29141
G1 X141.306 Y135.157 E136.32655
G1 X141.453 Y134.954 E136.34658
G1 X141.538 Y134.597 E136.3759
G1 X141.538 Y131.698 E136.60754
G1 X156.137 Y131.698 E137.77406
G1 X156.137 Y132.529 E137.84046
G1 X156.177 Y132.777 E137.86053
G1 X156.369 Y133.089 E137.88981
G1 X156.68 Y133.4 E137.92495
G1 X156.883 Y133.547 E137.94498
G1 X157.24 Y133.632 E137.9743
G1 X158.808 Y133.632 E138.09959
G1 X158.808 Y134.597 E138.1767
G1 X158.848 Y134.845 E138.19677
G1 X159.04 Y135.157 E138.22604
G1 X159.351 Y135.468 E138.26119
G1 X159.554 Y135.615 E138.28121
G1 X159.911 Y135.7 E138.31054
G1 X175.922 Y135.7 E139.58988
G1 X176.227 Y135.639 E139.61473
G1 X176.632 Y135.47 E139.6498
G1 X176.891 Y135.295 E139.67478
G1 X178.283 Y133.882 E139.83327
G1 X178.429 Y133.677 E139.85338
G1 X178.511 Y133.326 E139.88218
G1 X178.511 Y131.698 E140.01226
G1 X194.208 Y131.698 E141.26652
G1 X194.208 Y176.441 E144.84167
G1 X105.792 Y176.441 E151.90647
G1 X105.792 Y131.698 E155.48162
G0 F6000 X105.264 Y131.17
G1 F1200 X123.336 Y131.17 E156.92565
G1 X123.336 Y134.598 E157.19956
G1 X123.413 Y134.785 E157.21572
G1 X123.724 Y135.096 E157.25087
G1 X123.911 Y135.173 E157.26703
G1 X140.435 Y135.172 E158.58736
G1 X140.622 Y135.095 E158.60352
G1 X140.933 Y134.784 E158.63866
G1 X141.01 Y134.597 E158.65482
G1 X141.01 Y131.17 E158.92866
G1 X156.665 Y131.17 E160.17955
G1 X156.665 Y132.529 E160.28814
G1 X156.742 Y132.716 E160.3043
G1 X157.053 Y133.027 E160.33945
G1 X157.24 Y133.104 E160.35561
G1 X159.336 Y133.104 E160.52309
G1 X159.336 Y134.597 E160.64238
G1 X159.413 Y134.784 E160.65854
G1 X159.724 Y135.095 E160.69369
