;FLAVOR:Marlin
;TIME:14968
;Filament used: 9.80687m
;Layer height: 0.16
;MINX:104.999
;MINY:128.004
;MINZ:0.28
;MAXX:194.999
;MAXY:177.233
;MAXZ:19.64
;Generated with Cura_SteamEngine 4.13.1
M140 S95
M105
M190 S95
M104 S220
M105
M109 S220
M82 ;absolute extrusion mode
G28 ; home all axes
 M117 Purge extruder
 G92 E0 ; reset extruder
 G1 Z1.0 F3000 ; move z up little to prevent scratching of surface
 G1 X2 Y20 Z0.3 F5000.0 ; move to start-line position
 G1 X2 Y200.0 Z0.3 F1500.0 E15 ; draw 1st line
 G1 X2 Y200.0 Z0.4 F5000.0 ; move to side a little
 G1 X2 Y20 Z0.4 F1500.0 E30 ; draw 2nd line
 G92 E0 ; reset extruder
 G1 Z1.0 F3000 ; move z up little to prevent scratching of surface
G92 E0
G92 E0
G1 F1500 E-5
;LAYER_COUNT:128
;LAYER:0
M107
G1 F300 Z0.48
G0 F6000 X108.96 Y139.593 Z0.48
;TYPE:SKIRT
G1 F300 Z0.28
G1 F1500 E0
G1 F1200 X191.04 Y139.593 E6.55853
G1 X191.04 Y173.273 E9.2497
G1 X163.441 Y173.273 E11.45498
G1 X163.449 Y173.217 E11.4595
G1 X163.46 Y172.922 E11.48309
G1 X163.46 Y148.544 E13.43099
G1 X163.42 Y147.983 E13.47593
G1 X163.301 Y147.433 E13.52089
G1 X163.105 Y146.906 E13.56582
G1 X162.837 Y146.412 E13.61073
G1 X162.501 Y145.96 E13.65573
G1 X162.3 Y145.744 E13.67931
G1 X161.989 Y145.433 E13.71445
G1 X161.564 Y145.064 E13.75942
G1 X161.091 Y144.76 E13.80435
G1 X160.58 Y144.525 E13.84929
G1 X160.041 Y144.366 E13.8942
G1 X159.484 Y144.284 E13.93918
G1 X159.189 Y144.273 E13.96277
G1 X143.127 Y144.273 E15.24619
G1 X142.566 Y144.313 E15.29113
G1 X142.016 Y144.432 E15.3361
G1 X141.489 Y144.628 E15.38102
G1 X140.932 Y144.937 E15.43192
G1 X140.567 Y145.18 E15.46696
G1 X140.123 Y145.524 E15.51184
G1 X139.731 Y145.928 E15.55682
G1 X139.4 Y146.383 E15.60178
G1 X139.103 Y146.961 E15.6537
G1 X138.282 Y148.944 E15.82519
G1 X138.104 Y149.478 E15.87017
G1 X138.004 Y150.031 E15.91507
G1 X137.983 Y150.593 E15.96001
G1 X138.057 Y151.229 E16.01117
G1 X138.142 Y151.658 E16.04612
G1 X138.29 Y152.2 E16.09101
G1 X138.513 Y152.716 E16.13593
G1 X138.808 Y153.196 E16.18095
G1 X139.226 Y153.688 E16.23253
G1 X139.54 Y154.002 E16.26801
G1 X139.54 Y164.49 E17.10605
G1 X139.173 Y164.626 E17.13732
G1 X138.679 Y164.894 E17.18223
G1 X138.227 Y165.23 E17.22723
G1 X138.011 Y165.431 E17.25081
G1 X137.7 Y165.742 E17.28595
G1 X137.331 Y166.167 E17.33093
G1 X137.027 Y166.64 E17.37585
G1 X136.792 Y167.151 E17.42079
G1 X136.633 Y167.69 E17.4657
G1 X136.551 Y168.247 E17.51068
G1 X136.54 Y168.542 E17.53427
G1 X136.54 Y172.922 E17.88425
G1 X136.565 Y173.273 E17.91237
G1 X108.96 Y173.273 E20.11812
G1 X108.96 Y139.593 E22.8093
G0 F6000 X108.432 Y139.065
G1 F1200 X191.568 Y139.065 E29.45221
G1 X191.568 Y173.801 E32.22776
G1 X162.807 Y173.801 E34.52588
G1 X162.88 Y173.518 E34.54923
G1 X162.932 Y172.922 E34.59704
G1 X162.932 Y148.544 E36.54494
G1 X162.892 Y148.022 E36.58677
G1 X162.773 Y147.512 E36.62862
G1 X162.578 Y147.026 E36.67046
G1 X162.311 Y146.576 E36.71227
G1 X161.927 Y146.117 E36.76009
G1 X161.616 Y145.806 E36.79523
G1 X161.218 Y145.465 E36.83711
G1 X160.774 Y145.189 E36.87888
G1 X160.292 Y144.983 E36.92077
G1 X159.785 Y144.853 E36.96259
G1 X159.189 Y144.801 E37.01039
G1 X143.127 Y144.801 E38.29381
G1 X142.605 Y144.841 E38.33565
G1 X142.095 Y144.96 E38.37749
G1 X141.609 Y145.155 E38.41933
G1 X141.225 Y145.376 E38.45474
G1 X140.86 Y145.619 E38.48977
G1 X140.448 Y145.942 E38.53161
G1 X140.089 Y146.323 E38.57343
G1 X139.793 Y146.755 E38.61528
G1 X139.591 Y147.163 E38.65166
G1 X138.77 Y149.146 E38.82315
G1 X138.607 Y149.644 E38.86502
G1 X138.522 Y150.16 E38.90681
G1 X138.516 Y150.684 E38.94868
G1 X138.574 Y151.126 E38.9843
G1 X138.659 Y151.555 E39.01924
G1 X138.8 Y152.059 E39.06106
G1 X139.016 Y152.536 E39.1029
G1 X139.302 Y152.975 E39.14477
G1 X139.599 Y153.315 E39.18084
G1 X140.068 Y153.784 E39.23384
G1 X140.068 Y164.891 E40.12133
G1 X139.779 Y164.958 E40.14504
G1 X139.293 Y165.153 E40.18688
G1 X138.843 Y165.42 E40.22869
G1 X138.384 Y165.804 E40.27651
G1 X138.073 Y166.115 E40.31165
G1 X137.732 Y166.513 E40.35353
G1 X137.456 Y166.957 E40.3953
G1 X137.25 Y167.439 E40.43719
G1 X137.12 Y167.946 E40.47901
G1 X137.068 Y168.542 E40.52681
G1 X137.068 Y172.922 E40.87679
G1 X137.108 Y173.444 E40.91862
G1 X137.191 Y173.801 E40.94791
G1 X108.432 Y173.801 E43.24587
G1 X108.432 Y139.065 E46.02143
G0 F6000 X107.904 Y138.537
G1 F1200 X192.096 Y138.537 E52.74872
G1 X192.096 Y174.329 E55.60864
G1 X162.031 Y174.329 E58.01096
G1 X162.111 Y174.194 E58.0235
G1 X162.285 Y173.745 E58.06198
G1 X162.383 Y173.273 E58.1005
G1 X162.404 Y172.922 E58.12859
G1 X162.404 Y148.544 E60.0765
G1 X162.364 Y148.064 E60.11498
G1 X162.245 Y147.597 E60.15349
G1 X162.051 Y147.157 E60.19192
G1 X161.787 Y146.754 E60.23041
G1 X161.553 Y146.491 E60.25854
G1 X161.242 Y146.18 E60.29368
G1 X160.875 Y145.868 E60.33217
G1 X160.461 Y145.622 E60.37065
G1 X160.012 Y145.448 E60.40913
G1 X159.54 Y145.35 E60.44765
G1 X159.189 Y145.329 E60.47574
G1 X143.127 Y145.329 E61.75917
G1 X142.647 Y145.369 E61.79765
G1 X142.18 Y145.488 E61.83616
G1 X141.74 Y145.682 E61.87458
G1 X141.518 Y145.816 E61.8953
G1 X141.153 Y146.059 E61.93034
G1 X140.775 Y146.358 E61.96885
G1 X140.453 Y146.715 E62.00727
G1 X140.193 Y147.121 E62.04579
G1 X140.079 Y147.365 E62.06731
G1 X139.258 Y149.348 E62.2388
G1 X139.111 Y149.807 E62.27731
G1 X139.042 Y150.283 E62.31574
G1 X139.053 Y150.765 E62.35427
G1 X139.092 Y151.023 E62.37512
G1 X139.177 Y151.452 E62.41006
G1 X139.31 Y151.915 E62.44855
G1 X139.517 Y152.35 E62.48705
G1 X139.793 Y152.745 E62.52555
G1 X139.973 Y152.941 E62.54682
G1 X140.596 Y153.564 E62.61721
G1 X140.596 Y165.345 E63.55857
G1 X140.331 Y165.367 E63.57981
G1 X139.864 Y165.486 E63.61832
G1 X139.424 Y165.68 E63.65674
G1 X139.021 Y165.944 E63.69524
G1 X138.758 Y166.178 E63.72337
G1 X138.447 Y166.489 E63.75851
G1 X138.135 Y166.856 E63.797
G1 X137.889 Y167.27 E63.83548
G1 X137.715 Y167.719 E63.87396
G1 X137.617 Y168.191 E63.91248
G1 X137.596 Y168.542 E63.94057
G1 X137.596 Y172.922 E64.29055
G1 X137.636 Y173.402 E64.32904
G1 X137.755 Y173.869 E64.36755
G1 X137.949 Y174.309 E64.40597
G1 X137.962 Y174.329 E64.40788
G1 X107.904 Y174.329 E66.80964
G1 X107.904 Y138.537 E69.66957
G0 F6000 X107.376 Y138.009
G1 F1200 X192.624 Y138.009 E76.48124
G1 X192.624 Y174.857 E79.42554
G1 X160.925 Y174.857 E81.95842
G1 X161.18 Y174.602 E81.98724
G1 X161.459 Y174.267 E82.02208
G1 X161.671 Y173.887 E82.05684
G1 X161.811 Y173.475 E82.09161
G1 X161.876 Y172.922 E82.13611
G1 X161.876 Y148.544 E84.08401
G1 X161.836 Y148.11 E84.11883
G1 X161.718 Y147.691 E84.15362
G1 X161.525 Y147.301 E84.18839
G1 X161.18 Y146.864 E84.23287
G1 X160.869 Y146.553 E84.26802
G1 X160.534 Y146.274 E84.30285
G1 X160.154 Y146.062 E84.33762
G1 X159.742 Y145.922 E84.37239
G1 X159.189 Y145.857 E84.41688
G1 X143.127 Y145.857 E85.7003
G1 X142.693 Y145.897 E85.73513
G1 X142.274 Y146.015 E85.76991
G1 X141.81 Y146.255 E85.81165
G1 X141.445 Y146.498 E85.84669
G1 X141.106 Y146.772 E85.88152
G1 X140.823 Y147.103 E85.91632
G1 X140.567 Y147.567 E85.95866
G1 X139.746 Y149.55 E86.13015
G1 X139.617 Y149.966 E86.16495
G1 X139.566 Y150.399 E86.19979
G1 X139.61 Y150.921 E86.24165
G1 X139.695 Y151.35 E86.2766
G1 X139.819 Y151.767 E86.31136
G1 X140.016 Y152.156 E86.3462
G1 X140.346 Y152.568 E86.38838
G1 X141.124 Y153.346 E86.47629
G1 X141.124 Y165.855 E87.47581
G1 X140.811 Y165.855 E87.50082
G1 X140.377 Y165.895 E87.53565
G1 X139.958 Y166.013 E87.57043
G1 X139.568 Y166.206 E87.6052
G1 X139.131 Y166.551 E87.64969
G1 X138.82 Y166.862 E87.68483
G1 X138.541 Y167.197 E87.71967
G1 X138.329 Y167.577 E87.75444
G1 X138.189 Y167.989 E87.78921
G1 X138.124 Y168.542 E87.8337
G1 X138.124 Y172.922 E88.18368
G1 X138.164 Y173.356 E88.2185
G1 X138.282 Y173.775 E88.25329
G1 X138.475 Y174.165 E88.28806
G1 X138.82 Y174.602 E88.33254
G1 X139.075 Y174.857 E88.36136
G1 X107.376 Y174.857 E90.89424
G1 X107.376 Y138.009 E93.83855
G0 F6000 X106.848 Y137.481
G1 F1200 X193.152 Y137.481 E100.7346
G1 X193.152 Y175.385 E103.76328
G1 X106.848 Y175.385 E110.65933
G1 X106.848 Y137.481 E113.68802
G0 F6000 X106.32 Y136.953
G1 F1200 X193.68 Y136.953 E120.66844
G1 X193.68 Y175.913 E123.78151
G1 X106.32 Y175.913 E130.76194
G1 X106.32 Y136.953 E133.875
G0 F6000 X105.792 Y136.425
G1 F1200 X194.208 Y136.425 E140.93981
G1 X194.208 Y176.441 E144.13725
G1 X105.792 Y176.441 E151.20206
G1 X105.792 Y136.425 E154.3995
G0 F6000 X105.264 Y135.897
G1 F1200 X194.736 Y135.897 E161.54868
G1 X194.736 Y176.969 E164.83051
G1 X105.264 Y176.969 E171.97969
G1 X105.264 Y135.897 E175.26152
G1 F1500 E170.26152
G1 F300 Z0.48
G0 F6000 X140.234 Y149.752 Z0.48
G1 F300 Z0.28
G1 F1500 E175.26152
G1 F1200 X140.124 Y150.12 E175.29221
G1 X140.094 Y150.503 E175.3229
G1 X140.128 Y150.818 E175.34822
G1 X140.213 Y151.247 E175.38316
G1 X140.327 Y151.614 E175.41387
G1 X140.513 Y151.95 E175.44456
G1 X140.719 Y152.195 E175.47013
G1 X141.652 Y153.128 E175.57557
G1 X141.652 Y166.383 E176.63469
G1 X140.811 Y166.383 E176.70189
G1 X140.429 Y166.423 E176.73258
G1 X140.064 Y166.541 E176.76324
G1 X139.731 Y166.732 E176.79391
G1 X139.504 Y166.924 E176.81767
G1 X139.193 Y167.235 E176.85281
G1 X138.951 Y167.534 E176.88355
G1 X138.776 Y167.875 E176.91417
G1 X138.676 Y168.246 E176.94487
G1 X138.652 Y168.542 E176.9686
G1 X138.652 Y172.922 E177.31858
G1 X138.692 Y173.304 E177.34927
G1 X138.81 Y173.669 E177.37992
G1 X139.001 Y174.002 E177.4106
G1 X139.193 Y174.229 E177.43436
G1 X139.504 Y174.54 E177.4695
G1 X139.803 Y174.782 E177.50023
G1 X140.144 Y174.957 E177.53086
G1 X140.515 Y175.057 E177.56156
G1 X140.811 Y175.081 E177.58529
G1 X159.189 Y175.081 E179.05377
G1 X159.571 Y175.041 E179.08446
G1 X159.936 Y174.923 E179.11511
G1 X160.269 Y174.732 E179.14579
G1 X160.496 Y174.54 E179.16954
G1 X160.807 Y174.229 E179.20469
G1 X161.049 Y173.93 E179.23542
G1 X161.224 Y173.589 E179.26605
G1 X161.324 Y173.218 E179.29675
G1 X161.348 Y172.922 E179.32048
G1 X161.348 Y148.544 E181.26838
G1 X161.308 Y148.162 E181.29907
G1 X161.19 Y147.797 E181.32973
G1 X160.999 Y147.464 E181.3604
G1 X160.807 Y147.237 E181.38416
G1 X160.496 Y146.926 E181.4193
G1 X160.197 Y146.684 E181.45004
G1 X159.856 Y146.509 E181.48066
G1 X159.485 Y146.409 E181.51136
G1 X159.189 Y146.385 E181.53509
G1 X143.127 Y146.385 E182.81851
G1 X142.745 Y146.425 E182.8492
G1 X142.38 Y146.543 E182.87985
G1 X142.103 Y146.695 E182.9051
G1 X141.738 Y146.938 E182.94014
G1 X141.442 Y147.183 E182.97084
G1 X141.203 Y147.483 E183.00149
G1 X141.055 Y147.769 E183.02722
G1 X140.234 Y149.752 E183.19871
G0 F6000 X140.721 Y149.954
G1 F1200 X140.635 Y150.267 E183.22465
G1 X140.646 Y150.716 E183.26054
G1 X140.731 Y151.145 E183.29548
G1 X140.833 Y151.453 E183.32141
G1 X141.093 Y151.821 E183.35741
G1 X142.18 Y152.908 E183.48024
G1 X142.18 Y166.911 E184.59914
G1 X140.811 Y166.911 E184.70853
G1 X140.489 Y166.951 E184.73446
G1 X140.187 Y167.068 E184.76034
G1 X139.878 Y167.298 E184.79112
G1 X139.567 Y167.609 E184.82626
G1 X139.367 Y167.864 E184.85215
G1 X139.236 Y168.161 E184.87809
G1 X139.18 Y168.542 E184.90886
G1 X139.18 Y172.922 E185.25884
G1 X139.22 Y173.244 E185.28477
G1 X139.337 Y173.546 E185.31065
G1 X139.567 Y173.855 E185.34143
G1 X139.878 Y174.166 E185.37657
G1 X140.133 Y174.366 E185.40247
G1 X140.43 Y174.497 E185.4284
G1 X140.811 Y174.553 E185.45917
G1 X159.189 Y174.553 E186.92765
G1 X159.511 Y174.513 E186.95358
G1 X159.813 Y174.396 E186.97946
G1 X160.122 Y174.166 E187.01024
G1 X160.433 Y173.855 E187.04538
G1 X160.633 Y173.6 E187.07128
G1 X160.764 Y173.303 E187.09721
G1 X160.82 Y172.922 E187.12798
G1 X160.82 Y148.544 E189.07589
G1 X160.78 Y148.222 E189.10181
G1 X160.663 Y147.92 E189.12769
G1 X160.433 Y147.611 E189.15847
G1 X160.122 Y147.3 E189.19362
G1 X159.867 Y147.1 E189.21951
G1 X159.57 Y146.969 E189.24545
G1 X159.189 Y146.913 E189.27622
G1 X143.127 Y146.913 E190.55964
G1 X142.805 Y146.953 E190.58557
G1 X142.395 Y147.134 E190.62138
G1 X142.03 Y147.377 E190.65641
G1 X141.785 Y147.589 E190.6823
G1 X141.542 Y147.971 E190.71848
G1 X140.721 Y149.954 E190.88997
G0 F6000 X141.209 Y150.156
G1 F1200 X141.151 Y150.4 E190.91001
G1 X141.164 Y150.613 E190.92706
G1 X141.249 Y151.042 E190.96201
G1 X141.336 Y151.277 E190.98203
G1 X141.466 Y151.448 E190.99919
G1 X142.708 Y152.69 E191.13954
G1 X142.708 Y167.439 E192.31805
G1 X140.811 Y167.439 E192.46963
G1 X140.563 Y167.479 E192.4897
G1 X140.251 Y167.671 E192.51897
G1 X139.94 Y167.982 E192.55411
G1 X139.793 Y168.185 E192.57414
G1 X139.708 Y168.542 E192.60346
G1 X139.708 Y172.922 E192.95345
G1 X139.748 Y173.17 E192.97352
G1 X139.94 Y173.482 E193.00279
G1 X140.251 Y173.793 E193.03793
G1 X140.454 Y173.94 E193.05796
G1 X140.811 Y174.025 E193.08728
G1 X159.189 Y174.025 E194.55576
G1 X159.437 Y173.985 E194.57583
G1 X159.749 Y173.793 E194.60511
G1 X160.06 Y173.482 E194.64025
G1 X160.207 Y173.279 E194.66028
G1 X160.292 Y172.922 E194.6896
G1 X160.292 Y148.544 E196.6375
G1 X160.252 Y148.296 E196.65758
G1 X160.06 Y147.984 E196.68685
G1 X159.749 Y147.673 E196.72199
G1 X159.546 Y147.526 E196.74202
G1 X159.189 Y147.441 E196.77134
G1 X143.127 Y147.441 E198.05476
G1 X142.879 Y147.481 E198.07483
G1 X142.688 Y147.574 E198.09181
G1 X142.323 Y147.817 E198.12685
G1 X142.139 Y147.987 E198.14686
G1 X142.03 Y148.173 E198.16409
G1 X141.209 Y150.156 E198.33558
G0 F6000 X141.697 Y150.358
G1 F1200 X141.682 Y150.51 E198.34779
G1 X141.767 Y150.939 E198.38273
G1 X141.839 Y151.075 E198.39503
G1 X143.236 Y152.472 E198.55289
G1 X143.236 Y167.967 E199.79101
G1 X140.811 Y167.967 E199.98477
G1 X140.624 Y168.044 E200.00093
G1 X140.313 Y168.355 E200.03608
G1 X140.236 Y168.542 E200.05224
G1 X140.236 Y172.922 E200.40222
G1 X140.313 Y173.109 E200.41837
G1 X140.624 Y173.42 E200.45352
G1 X140.811 Y173.497 E200.46968
G1 X159.189 Y173.497 E201.93816
G1 X159.376 Y173.42 E201.95432
G1 X159.687 Y173.109 E201.98946
G1 X159.764 Y172.922 E202.00562
G1 X159.764 Y148.544 E203.95352
G1 X159.687 Y148.357 E203.96968
G1 X159.376 Y148.046 E204.00482
G1 X159.189 Y147.969 E204.02098
G1 X143.127 Y147.969 E205.3044
G1 X142.981 Y148.013 E205.31659
G1 X142.616 Y148.256 E205.35162
G1 X142.518 Y148.375 E205.36394
G1 X141.697 Y150.358 E205.53544
G1 F1500 E200.53544
G1 F300 Z0.48
G0 F6000 X140.8 Y140.121 Z0.48
;TYPE:SUPPORT
G1 F300 Z0.28
G1 F1500 E205.53544
G1 F1200 X140.8 Y144.391 E205.87663
G1 X140.906 Y144.32 E205.88682
G1 X109.487 Y144.32 E208.39733
G1 X109.487 Y147.84 E208.67859
G1 X138.167 Y147.84 E210.97024
G1 X137.28 Y149.984 E211.15564
G1 X137.28 Y140.121 E211.94373
G1 X144.32 Y140.121 E212.50626
G1 X144.32 Y143.745 E212.79583
G1 X147.84 Y143.745 E213.07709
G1 X147.84 Y140.121 E213.36667
G1 X151.36 Y140.121 E213.64793
G1 X151.36 Y143.745 E213.9375
G1 X154.88 Y143.745 E214.21877
G1 X154.88 Y140.121 E214.50834
G1 X158.4 Y140.121 E214.7896
G1 X158.4 Y143.745 E215.07917
G1 X161.048 Y143.745 E215.29076
G1 X161.623 Y144.32 E215.35574
G1 X190.512 Y144.32 E217.66409
G1 X190.512 Y140.8 E217.94535
G1 X109.487 Y140.8 E224.41958
G1 X109.488 Y140.121 E224.47384
G1 X112.64 Y140.121 E224.7257
G1 X112.64 Y172.745 E227.33249
G1 X116.16 Y172.745 E227.61375
G1 X116.16 Y140.121 E230.22054
G1 X119.68 Y140.121 E230.50181
G1 X119.68 Y172.745 E233.1086
G1 X123.2 Y172.745 E233.38986
G1 X123.2 Y140.121 E235.99665
G1 X126.72 Y140.121 E236.27792
G1 X126.72 Y172.745 E238.88471
G1 X130.24 Y172.745 E239.16597
G1 X130.24 Y140.121 E241.77277
G1 X133.76 Y140.121 E242.05403
G1 X133.76 Y172.745 E244.66082
G1 X136.012 Y172.745 E244.84077
G1 X136.012 Y172.48 E244.86194
G1 X109.487 Y172.48 E246.9814
G1 X109.487 Y168.96 E247.26266
G1 X136.012 Y168.96 E249.38212
G1 X136.012 Y166.683 E249.56406
G1 X137.255 Y165.44 E249.70452
G1 X109.487 Y165.44 E251.9233
G1 X109.487 Y161.92 E252.20456
G1 X139.012 Y161.92 E254.56373
G1 X139.012 Y163.743 E254.7094
G1 X138.952 Y163.743 E254.71419
G1 X137.28 Y165.415 E254.90313
G1 X137.28 Y150.029 E256.13253
G1 X137.545 Y151.36 E256.24097
G1 X109.487 Y151.36 E258.48293
G1 X109.487 Y158.4 E259.04545
G1 X139.012 Y158.4 E261.40462
G1 X139.012 Y154.88 E261.68588
G1 X109.487 Y154.88 E264.04505
G1 F1500 E259.04505
G1 F300 Z0.48
G0 F6000 X163.988 Y168.96 Z0.48
G1 F300 Z0.28
G1 F1500 E264.04505
G1 F1200 X190.512 Y168.96 E266.16443
G1 X190.512 Y172.48 E266.44569
