;FLAVOR:Marlin
;TIME:2016
;Filament used: 1.27324m
;Layer height: 0.16
;MINX:162.705
;MINY:105.219
;MINZ:0.28
;MAXX:208.426
;MAXY:152.335
;MAXZ:19.96
;Generated with Cura_SteamEngine 4.13.1
M140 S95
M105
M190 S95
M104 S220
M105
M109 S220
M82 ;absolute extrusion mode
G28 ; home all axes
 M117 Purge extruder
 G92 E0 ; reset extruder
 G1 Z1.0 F3000 ; move z up little to prevent scratching of surface
 G1 X2 Y20 Z0.3 F5000.0 ; move to start-line position
 G1 X2 Y200.0 Z0.3 F1500.0 E15 ; draw 1st line
 G1 X2 Y200.0 Z0.4 F5000.0 ; move to side a little
 G1 X2 Y20 Z0.4 F1500.0 E30 ; draw 2nd line
 G92 E0 ; reset extruder
 G1 Z1.0 F3000 ; move z up little to prevent scratching of surface
G92 E0
G92 E0
G1 F1500 E-5
;LAYER_COUNT:111
;LAYER:0
M107
G0 F6000 X163.678 Y107.994 Z0.28
;TYPE:SKIRT
G1 F1500 E0
G1 F1200 X164.089 Y107.432 E0.05563
G1 X164.562 Y106.92 E0.11133
G1 X165.091 Y106.466 E0.16703
G1 X165.668 Y106.076 E0.22268
G1 X166.286 Y105.754 E0.27836
G1 X166.936 Y105.505 E0.33398
G1 X167.611 Y105.332 E0.38966
G1 X168.301 Y105.238 E0.4453
G1 X168.777 Y105.219 E0.48337
G1 X183.777 Y105.219 E1.68193
G1 X184.473 Y105.259 E1.73763
G1 X185.159 Y105.378 E1.79327
G1 X185.827 Y105.576 E1.84894
G1 X186.468 Y105.848 E1.90458
G1 X187.074 Y106.192 E1.96026
G1 X187.636 Y106.603 E2.01589
G1 X188.148 Y107.076 E2.07159
G1 X188.602 Y107.605 E2.12729
G1 X188.992 Y108.182 E2.18294
G1 X189.314 Y108.8 E2.23862
G1 X189.563 Y109.45 E2.29424
G1 X189.736 Y110.125 E2.34992
G1 X189.83 Y110.815 E2.40556
G1 X189.849 Y111.291 E2.44362
G1 X189.849 Y115.551 E2.78401
G1 X190.064 Y115.226 E2.81515
G1 X190.265 Y114.945 E2.84276
G1 X190.386 Y114.786 E2.85872
G1 X190.582 Y114.542 E2.88373
G1 X190.73 Y114.367 E2.90204
G1 X191.042 Y114.025 E2.93903
G1 X191.318 Y113.745 E2.97045
G1 X191.761 Y113.338 E3.01852
G1 X192.063 Y113.087 E3.0499
G1 X192.533 Y112.734 E3.09686
G1 X192.857 Y112.514 E3.12816
G1 X193.375 Y112.199 E3.1766
G1 X193.72 Y112.012 E3.20796
G1 X194.133 Y111.808 E3.24476
G1 X194.314 Y111.727 E3.26061
G1 X194.697 Y111.571 E3.29365
G1 X195.072 Y111.433 E3.32558
G1 X195.574 Y111.272 E3.3677
G1 X195.765 Y111.22 E3.38352
G1 X196.058 Y111.148 E3.40763
G1 X196.304 Y111.094 E3.42775
G1 X196.656 Y111.026 E3.4564
G1 X197.059 Y110.966 E3.48896
G1 X197.492 Y110.92 E3.52375
G1 X197.641 Y110.908 E3.53569
G1 X197.991 Y110.89 E3.5637
G1 X198.213 Y110.885 E3.58144
G1 X198.617 Y110.889 E3.61372
G1 X198.981 Y110.905 E3.64284
G1 X199.549 Y110.957 E3.68841
G1 X199.938 Y111.011 E3.71979
G1 X200.539 Y111.125 E3.76867
G1 X200.921 Y111.218 E3.80009
G1 X201.436 Y111.368 E3.84295
G1 X201.719 Y111.464 E3.86683
G1 X202.158 Y111.632 E3.90438
G1 X202.478 Y111.769 E3.9322
G1 X202.84 Y111.939 E3.96415
G1 X203.017 Y112.029 E3.98002
G1 X203.339 Y112.205 E4.00934
G1 X203.54 Y112.323 E4.02797
G1 X203.923 Y112.567 E4.06425
G1 X204.245 Y112.79 E4.09555
G1 X204.713 Y113.149 E4.14268
G1 X205.014 Y113.404 E4.1742
G1 X205.437 Y113.798 E4.22039
G1 X205.71 Y114.078 E4.25164
G1 X206.129 Y114.556 E4.30243
G1 X206.372 Y114.864 E4.33378
G1 X206.713 Y115.342 E4.38069
G1 X206.927 Y115.675 E4.41232
G1 X207.216 Y116.176 E4.45854
G1 X207.399 Y116.531 E4.49045
G1 X207.588 Y116.932 E4.52587
G1 X207.666 Y117.115 E4.54177
G1 X207.803 Y117.467 E4.57195
G1 X207.881 Y117.687 E4.5906
G1 X208 Y118.062 E4.62204
G1 X208.094 Y118.394 E4.64961
G1 X208.194 Y118.797 E4.68279
G1 X208.234 Y118.987 E4.6983
G1 X208.299 Y119.353 E4.728
G1 X208.332 Y119.577 E4.7461
G1 X208.376 Y119.961 E4.77698
G1 X208.406 Y120.323 E4.806
G1 X208.426 Y120.917 E4.85349
G1 X208.42 Y121.31 E4.8849
G1 X208.381 Y121.913 E4.93318
G1 X208.336 Y122.303 E4.96455
G1 X208.267 Y122.751 E5.00077
G1 X208.22 Y122.996 E5.02071
G1 X208.129 Y123.396 E5.05348
G1 X208.013 Y123.819 E5.08853
G1 X207.955 Y124.009 E5.1044
G1 X207.848 Y124.328 E5.13129
G1 X207.779 Y124.516 E5.14729
G1 X207.626 Y124.893 E5.1798
G1 X207.472 Y125.239 E5.21006
G1 X207.277 Y125.639 E5.24562
G1 X207.173 Y125.833 E5.26321
G1 X206.928 Y126.248 E5.30172
G1 X206.728 Y126.559 E5.33126
G1 X206.394 Y127.028 E5.37727
G1 X206.151 Y127.337 E5.40868
G1 X205.841 Y127.701 E5.44688
G1 X205.674 Y127.882 E5.46656
G1 X205.331 Y128.226 E5.50538
G1 X205.043 Y128.492 E5.5367
G1 X204.61 Y128.855 E5.58185
G1 X204.296 Y129.095 E5.61343
G1 X203.9 Y129.374 E5.65214
G1 X203.731 Y129.483 E5.66821
G1 X203.469 Y129.643 E5.69274
G1 X203.297 Y129.742 E5.70859
G1 X202.983 Y129.91 E5.73705
G1 X202.757 Y130.023 E5.75724
G1 X202.424 Y130.179 E5.78662
G1 X202.075 Y130.325 E5.81685
G1 X201.863 Y130.406 E5.83498
G1 X201.458 Y130.545 E5.8692
G1 X201.082 Y130.659 E5.90059
G1 X200.551 Y130.794 E5.94437
G1 X200.213 Y130.864 E5.97195
G1 X199.634 Y130.955 E6.01878
G1 X199.245 Y130.997 E6.05005
G1 X198.811 Y131.028 E6.08481
G1 X198.616 Y131.035 E6.10041
G1 X198.3 Y131.038 E6.12566
G1 X198.053 Y131.034 E6.1454
G1 X197.667 Y131.016 E6.17627
G1 X197.249 Y130.978 E6.20981
G1 X197.103 Y130.961 E6.22155
G1 X196.807 Y130.919 E6.24544
G1 X196.579 Y130.881 E6.26391
G1 X196.296 Y130.827 E6.28693
G1 X196.507 Y131.137 E6.3169
G1 X196.673 Y131.397 E6.34155
G1 X196.825 Y131.649 E6.36506
G1 X196.968 Y131.898 E6.388
G1 X197.108 Y132.157 E6.41153
G1 X197.246 Y132.428 E6.43583
G1 X197.373 Y132.694 E6.45938
G1 X197.497 Y132.973 E6.48378
G1 X197.61 Y133.244 E6.50724
G1 X197.709 Y133.496 E6.52887
G1 X197.811 Y133.775 E6.55261
G1 X197.914 Y134.083 E6.57856
G1 X198 Y134.364 E6.60204
G1 X198.081 Y134.654 E6.6261
G1 X198.153 Y134.939 E6.64959
G1 X198.212 Y135.196 E6.67066
G1 X198.272 Y135.486 E6.69432
G1 X198.33 Y135.811 E6.7207
G1 X198.374 Y136.103 E6.7443
G1 X198.41 Y136.387 E6.76717
G1 X198.44 Y136.679 E6.79062
G1 X198.464 Y136.992 E6.81571
G1 X198.479 Y137.287 E6.83931
G1 X198.487 Y137.574 E6.86225
G1 X198.488 Y137.868 E6.88574
G1 X198.482 Y138.156 E6.90876
G1 X198.469 Y138.451 E6.93236
G1 X198.448 Y138.76 E6.9571
G1 X198.42 Y139.054 E6.9807
G1 X198.385 Y139.345 E7.00412
G1 X198.343 Y139.636 E7.02761
G1 X198.295 Y139.92 E7.05063
G1 X198.239 Y140.21 E7.07423
G1 X198.166 Y140.537 E7.101
G1 X198.094 Y140.824 E7.12464
G1 X198.023 Y141.085 E7.14626
G1 X197.939 Y141.366 E7.16969
G1 X197.843 Y141.658 E7.19425
G1 X197.744 Y141.937 E7.21791
G1 X197.644 Y142.2 E7.24039
G1 X197.533 Y142.472 E7.26386
G1 X197.402 Y142.769 E7.2898
G1 X197.276 Y143.036 E7.31339
G1 X197.157 Y143.276 E7.3348
G1 X197.02 Y143.536 E7.35828
G1 X196.858 Y143.823 E7.38461
G1 X196.706 Y144.077 E7.40826
G1 X196.567 Y144.299 E7.42919
G1 X196.307 Y144.69 E7.46671
G1 X194.555 Y147.19 E7.71064
G1 X194.292 Y147.549 E7.7462
G1 X194.101 Y147.794 E7.77103
G1 X193.91 Y148.027 E7.7951
G1 X193.716 Y148.252 E7.81884
G1 X193.516 Y148.473 E7.84265
G1 X193.308 Y148.693 E7.86685
G1 X193.095 Y148.906 E7.89092
G1 X192.876 Y149.113 E7.91499
G1 X192.654 Y149.314 E7.93892
G1 X192.426 Y149.511 E7.963
G1 X192.194 Y149.701 E7.98696
G1 X191.945 Y149.894 E8.01213
G1 X191.703 Y150.072 E8.03614
G1 X191.468 Y150.236 E8.05904
G1 X191.22 Y150.401 E8.08284
G1 X190.945 Y150.574 E8.1088
G1 X190.686 Y150.727 E8.13283
G1 X190.443 Y150.863 E8.15508
G1 X190.179 Y151.003 E8.17896
G1 X189.879 Y151.152 E8.20573
G1 X189.606 Y151.278 E8.22975
G1 X189.362 Y151.384 E8.25101
G1 X189.086 Y151.497 E8.27484
G1 X188.777 Y151.614 E8.30124
G1 X188.492 Y151.713 E8.32535
G1 X188.206 Y151.805 E8.34935
G1 X187.919 Y151.889 E8.37325
G1 X187.618 Y151.968 E8.39811
G1 X187.328 Y152.037 E8.42193
G1 X187.067 Y152.093 E8.44326
G1 X186.77 Y152.15 E8.46743
G1 X186.439 Y152.204 E8.49423
G1 X186.143 Y152.244 E8.51809
G1 X185.856 Y152.276 E8.54117
G1 X185.557 Y152.302 E8.56515
G1 X185.253 Y152.321 E8.58949
G1 X184.953 Y152.332 E8.61347
G1 X184.629 Y152.335 E8.63936
G1 X184.331 Y152.33 E8.66318
G1 X184.047 Y152.319 E8.68589
G1 X183.749 Y152.3 E8.70975
G1 X183.449 Y152.273 E8.73382
G1 X183.15 Y152.239 E8.75786
G1 X182.844 Y152.196 E8.78255
G1 X182.548 Y152.147 E8.80653
G1 X182.268 Y152.094 E8.8293
G1 X181.974 Y152.031 E8.85332
G1 X181.64 Y151.95 E8.88078
G1 X181.352 Y151.871 E8.90465
G1 X181.087 Y151.791 E8.92676
G1 X180.803 Y151.699 E8.95062
G1 X180.513 Y151.598 E8.97516
G1 X180.232 Y151.491 E8.99918
G1 X179.957 Y151.378 E9.02294
G1 X179.683 Y151.258 E9.04684
G1 X179.412 Y151.131 E9.07075
G1 X179.143 Y150.997 E9.09477
G1 X178.862 Y150.848 E9.12018
G1 X178.602 Y150.701 E9.14405
G1 X178.359 Y150.556 E9.16666
G1 X178.106 Y150.397 E9.19053
G1 X177.831 Y150.213 E9.21697
G1 X177.585 Y150.039 E9.24105
G1 X177.358 Y149.871 E9.26361
G1 X177.122 Y149.687 E9.28753
G1 X176.865 Y149.475 E9.31415
G1 X176.639 Y149.278 E9.3381
G1 X176.428 Y149.085 E9.36095
G1 X176.212 Y148.878 E9.38486
G1 X176.006 Y148.671 E9.40819
G1 X174.66 Y147.251 E9.56453
G1 X174.457 Y147.026 E9.58874
G1 X173.183 Y145.54 E9.74514
G1 X172.997 Y145.312 E9.76866
G1 X171.798 Y143.768 E9.92486
G1 X171.622 Y143.529 E9.94857
G1 X170.499 Y141.927 E10.1049
G1 X170.335 Y141.681 E10.12852
G1 X169.292 Y140.027 E10.28477
G1 X169.138 Y139.769 E10.30878
G1 X168.177 Y138.064 E10.46516
G1 X168.04 Y137.806 E10.4885
G1 X167.163 Y136.058 E10.64477
G1 X167.035 Y135.787 E10.66872
G1 X166.245 Y133.997 E10.82506
G1 X166.132 Y133.722 E10.84881
G1 X165.431 Y131.897 E11.00503
G1 X165.332 Y131.621 E11.02846
G1 X164.719 Y129.761 E11.18494
G1 X164.632 Y129.473 E11.20898
G1 X164.113 Y127.589 E11.36513
G1 X164.042 Y127.302 E11.38875
G1 X163.615 Y125.394 E11.54498
G1 X163.557 Y125.101 E11.56884
G1 X163.224 Y123.172 E11.72526
G1 X163.18 Y122.881 E11.74878
G1 X162.941 Y120.939 E11.90512
G1 X162.912 Y120.641 E11.92904
G1 X162.769 Y118.691 E12.08528
G1 X162.755 Y118.396 E12.10887
G1 X162.707 Y116.441 E12.26513
G1 X162.705 Y116.292 E12.27704
G1 X162.705 Y111.291 E12.67664
G1 X162.745 Y110.595 E12.73235
G1 X162.864 Y109.909 E12.78798
G1 X163.062 Y109.241 E12.84365
G1 X163.334 Y108.6 E12.89929
G1 X163.678 Y107.994 E12.95497
G0 F6000 X164.204 Y108.157
G1 F1200 X164.612 Y107.632 E13.0081
G1 X165.081 Y107.159 E13.06132
G1 X165.603 Y106.746 E13.11451
G1 X166.17 Y106.398 E13.16767
G1 X166.775 Y106.121 E13.22083
G1 X167.41 Y105.918 E13.2741
G1 X168.063 Y105.793 E13.32723
G1 X168.777 Y105.747 E13.3844
G1 X183.777 Y105.747 E14.58296
G1 X184.441 Y105.787 E14.63611
G1 X185.096 Y105.906 E14.68931
G1 X185.732 Y106.103 E14.74251
G1 X186.34 Y106.375 E14.79573
G1 X186.911 Y106.718 E14.84895
G1 X187.436 Y107.126 E14.90208
G1 X187.909 Y107.595 E14.95531
G1 X188.322 Y108.117 E15.00849
G1 X188.67 Y108.684 E15.06165
G1 X188.947 Y109.289 E15.11482
G1 X189.15 Y109.924 E15.16809
G1 X189.275 Y110.577 E15.22121
G1 X189.321 Y111.291 E15.27838
G1 X189.321 Y116.239 E15.67375
G1 X189.345 Y117.214 E15.75168
G1 X189.379 Y117.69 E15.78981
G1 X189.402 Y117.624 E15.79539
G1 X189.568 Y117.212 E15.83089
G1 X189.729 Y116.855 E15.86218
G1 X189.922 Y116.468 E15.89673
G1 X190.018 Y116.293 E15.91268
G1 X190.167 Y116.038 E15.93628
G1 X190.389 Y115.687 E15.96947
G1 X190.501 Y115.521 E15.98547
G1 X190.685 Y115.265 E16.01066
G1 X190.806 Y115.106 E16.02662
G1 X190.985 Y114.883 E16.04947
G1 X191.133 Y114.708 E16.06779
G1 X191.418 Y114.396 E16.10155
G1 X191.694 Y114.116 E16.13297
G1 X192.098 Y113.744 E16.17685
G1 X192.4 Y113.493 E16.20823
G1 X192.83 Y113.17 E16.2512
G1 X193.154 Y112.95 E16.28249
G1 X193.626 Y112.663 E16.32663
G1 X193.971 Y112.476 E16.35799
G1 X194.348 Y112.29 E16.39158
G1 X194.529 Y112.209 E16.40742
G1 X194.879 Y112.066 E16.43763
G1 X195.254 Y111.928 E16.46956
G1 X195.713 Y111.782 E16.50805
G1 X195.904 Y111.73 E16.52387
G1 X196.171 Y111.664 E16.54584
G1 X196.417 Y111.61 E16.56597
G1 X196.751 Y111.545 E16.59315
G1 X197.119 Y111.49 E16.62289
G1 X197.534 Y111.446 E16.65623
G1 X197.683 Y111.434 E16.66818
G1 X198.003 Y111.417 E16.69378
G1 X198.225 Y111.412 E16.71153
G1 X198.593 Y111.416 E16.74093
G1 X198.957 Y111.432 E16.77004
G1 X199.476 Y111.48 E16.81169
G1 X199.865 Y111.534 E16.84307
G1 X200.414 Y111.638 E16.88772
G1 X200.796 Y111.731 E16.91914
G1 X201.266 Y111.868 E16.95825
G1 X201.549 Y111.964 E16.98213
G1 X201.95 Y112.117 E17.01643
G1 X202.27 Y112.254 E17.04424
G1 X202.601 Y112.409 E17.07344
G1 X202.778 Y112.499 E17.08931
G1 X203.072 Y112.66 E17.11609
G1 X203.273 Y112.778 E17.13472
G1 X203.622 Y113.001 E17.16781
G1 X203.944 Y113.224 E17.19911
G1 X204.372 Y113.552 E17.2422
G1 X204.673 Y113.807 E17.27372
G1 X205.059 Y114.167 E17.31589
G1 X205.332 Y114.447 E17.34714
G1 X205.714 Y114.883 E17.39346
G1 X205.957 Y115.191 E17.42481
G1 X206.269 Y115.628 E17.46771
G1 X206.483 Y115.961 E17.49934
G1 X206.747 Y116.418 E17.54151
G1 X206.93 Y116.773 E17.57342
G1 X207.102 Y117.139 E17.60574
G1 X207.18 Y117.322 E17.62163
G1 X207.305 Y117.643 E17.64916
G1 X207.383 Y117.863 E17.66781
G1 X207.492 Y118.206 E17.69657
G1 X207.586 Y118.538 E17.72414
G1 X207.677 Y118.906 E17.75443
G1 X207.717 Y119.096 E17.76994
G1 X207.777 Y119.43 E17.79706
G1 X207.81 Y119.654 E17.81515
G1 X207.85 Y120.004 E17.8433
G1 X207.88 Y120.366 E17.87232
G1 X207.898 Y120.909 E17.91573
G1 X207.892 Y121.302 E17.94714
G1 X207.856 Y121.852 E17.99118
G1 X207.811 Y122.242 E18.02255
G1 X207.749 Y122.651 E18.0556
G1 X207.702 Y122.896 E18.07554
G1 X207.619 Y123.262 E18.10553
G1 X207.508 Y123.665 E18.13893
G1 X207.45 Y123.855 E18.1548
G1 X207.353 Y124.146 E18.17931
G1 X207.284 Y124.334 E18.19531
G1 X207.144 Y124.678 E18.22499
G1 X206.99 Y125.024 E18.25525
G1 X206.811 Y125.389 E18.28773
G1 X206.707 Y125.583 E18.30532
G1 X206.484 Y125.963 E18.34053
G1 X206.284 Y126.274 E18.37007
G1 X205.979 Y126.702 E18.41207
G1 X205.736 Y127.011 E18.44348
G1 X205.453 Y127.343 E18.47833
G1 X205.286 Y127.524 E18.49801
G1 X204.973 Y127.838 E18.53344
G1 X204.685 Y128.104 E18.56476
G1 X204.29 Y128.436 E18.60599
G1 X203.976 Y128.676 E18.63757
G1 X203.614 Y128.93 E18.67291
G1 X203.445 Y129.039 E18.68898
G1 X203.206 Y129.185 E18.71136
G1 X203.034 Y129.284 E18.72721
G1 X202.747 Y129.438 E18.75324
G1 X202.521 Y129.551 E18.77343
G1 X202.205 Y129.699 E18.80131
G1 X201.887 Y129.832 E18.82885
G1 X201.675 Y129.913 E18.84699
G1 X201.305 Y130.04 E18.87825
G1 X200.929 Y130.154 E18.90964
G1 X200.444 Y130.277 E18.94962
G1 X200.106 Y130.347 E18.9772
G1 X199.577 Y130.43 E19.01999
G1 X199.188 Y130.472 E19.05125
G1 X198.792 Y130.5 E19.08297
G1 X198.597 Y130.507 E19.09856
G1 X198.308 Y130.51 E19.12166
G1 X198.061 Y130.506 E19.1414
G1 X197.709 Y130.489 E19.16955
G1 X197.31 Y130.454 E19.20156
G1 X197.164 Y130.437 E19.2133
G1 X196.894 Y130.399 E19.23509
G1 X196.666 Y130.361 E19.25356
G1 X196.392 Y130.308 E19.27586
G1 X196.2 Y130.266 E19.29156
G1 X195.878 Y130.185 E19.31809
G1 X195.662 Y130.124 E19.33603
G1 X195.393 Y130.041 E19.35852
G1 X195.189 Y129.972 E19.37573
G1 X194.794 Y129.821 E19.40952
G1 X195.035 Y130.084 E19.43802
G1 X195.214 Y130.289 E19.45977
G1 X195.402 Y130.516 E19.48332
G1 X195.569 Y130.729 E19.50495
G1 X195.745 Y130.964 E19.52841
G1 X195.904 Y131.186 E19.55023
G1 X196.07 Y131.432 E19.57394
G1 X196.221 Y131.67 E19.59646
G1 X196.373 Y131.922 E19.61998
G1 X196.503 Y132.149 E19.64088
G1 X196.643 Y132.408 E19.6644
G1 X196.769 Y132.655 E19.68656
G1 X196.896 Y132.921 E19.71011
G1 X197.01 Y133.176 E19.73243
G1 X197.123 Y133.447 E19.75589
G1 X197.213 Y133.677 E19.77563
G1 X197.315 Y133.956 E19.79936
G1 X197.409 Y134.238 E19.82312
G1 X197.495 Y134.519 E19.8466
G1 X197.569 Y134.783 E19.8685
G1 X197.641 Y135.068 E19.89199
G1 X197.695 Y135.303 E19.91126
G1 X197.755 Y135.593 E19.93492
G1 X197.808 Y135.89 E19.95903
G1 X197.852 Y136.182 E19.98262
G1 X197.885 Y136.441 E20.00349
G1 X197.915 Y136.733 E20.02694
G1 X197.937 Y137.018 E20.04978
G1 X197.952 Y137.313 E20.07338
G1 X197.959 Y137.576 E20.09441
G1 X197.96 Y137.87 E20.1179
G1 X197.955 Y138.133 E20.13892
G1 X197.942 Y138.428 E20.16251
G1 X197.922 Y138.71 E20.1851
G1 X197.894 Y139.004 E20.2087
G1 X197.862 Y139.27 E20.23011
G1 X197.82 Y139.561 E20.2536
G1 X197.776 Y139.82 E20.27459
G1 X197.72 Y140.11 E20.29819
G1 X197.654 Y140.408 E20.32258
G1 X197.582 Y140.695 E20.34622
G1 X197.517 Y140.934 E20.36601
G1 X197.433 Y141.215 E20.38945
G1 X197.346 Y141.481 E20.41181
G1 X197.247 Y141.76 E20.43547
G1 X197.155 Y142.001 E20.45608
G1 X197.044 Y142.273 E20.47955
G1 X196.925 Y142.544 E20.5032
G1 X196.799 Y142.811 E20.52679
G1 X196.69 Y143.029 E20.54627
G1 X196.553 Y143.289 E20.56975
G1 X196.405 Y143.552 E20.59387
