;FLAVOR:Marlin
;TIME:19267
;Filament used: 11.2327m
;Layer height: 0.16
;MINX:103.152
;MINY:132.609
;MINZ:0.28
;MAXX:196.848
;MAXY:190.498
;MAXZ:41.76
;Generated with Cura_SteamEngine 4.12.1
M140 S95
M105
M190 S95
M104 S220
M105
M109 S220
M82 ;absolute extrusion mode
G28 ; home all axes
 M117 Purge extruder
 G92 E0 ; reset extruder
 G1 Z1.0 F3000 ; move z up little to prevent scratching of surface
 G1 X2 Y20 Z0.3 F5000.0 ; move to start-line position
 G1 X2 Y200.0 Z0.3 F1500.0 E15 ; draw 1st line
 G1 X2 Y200.0 Z0.4 F5000.0 ; move to side a little
 G1 X2 Y20 Z0.4 F1500.0 E30 ; draw 2nd line
 G92 E0 ; reset extruder
 G1 Z1.0 F3000 ; move z up little to prevent scratching of surface
G92 E0
G92 E0
G1 F1500 E-5
;LAYER_COUNT:293
;LAYER:0
M107
G1 F300 Z0.48
G0 F6000 X109.848 Y176.298 Z0.48
;TYPE:SKIRT
G1 F300 Z0.28
G1 F1500 E0
G1 F1200 X109.848 Y183.802 E0.5996
G1 X113.249 Y183.802 E0.87135
G1 X113.631 Y183.842 E0.90205
G1 X113.996 Y183.96 E0.9327
G1 X114.243 Y184.101 E0.95542
G1 X114.584 Y183.926 E0.98605
G1 X114.955 Y183.826 E1.01675
G1 X115.251 Y183.802 E1.04048
G1 X131.626 Y183.802 E2.34891
G1 X131.699 Y183.687 E2.35979
G1 X131.968 Y183.413 E2.39048
G1 X132.288 Y183.2 E2.42119
G1 X132.645 Y183.058 E2.45189
G1 X133.146 Y182.989 E2.4923
G1 X166.853 Y182.989 E5.18563
G1 X167.235 Y183.029 E5.21632
G1 X167.6 Y183.147 E5.24697
G1 X167.933 Y183.338 E5.27765
G1 X168.22 Y183.593 E5.30832
G1 X168.373 Y183.802 E5.32902
G1 X184.749 Y183.802 E6.63753
G1 X185.131 Y183.842 E6.66822
G1 X185.496 Y183.96 E6.69887
G1 X185.743 Y184.101 E6.7216
G1 X186.084 Y183.926 E6.75222
G1 X186.455 Y183.826 E6.78292
G1 X186.751 Y183.802 E6.80665
G1 X190.152 Y183.802 E7.07841
G1 X190.152 Y176.298 E7.67801
G1 X186.751 Y176.298 E7.94976
G1 X186.369 Y176.258 E7.98045
G1 X186.004 Y176.14 E8.0111
G1 X185.758 Y175.999 E8.03376
G1 X185.417 Y176.174 E8.06439
G1 X185.046 Y176.274 E8.09509
G1 X184.75 Y176.298 E8.11882
G1 X168.162 Y176.298 E9.44427
G1 X167.78 Y176.258 E9.47496
G1 X167.415 Y176.14 E9.50561
G1 X167.315 Y176.083 E9.51481
G1 X167.092 Y176.184 E9.53437
G1 X166.717 Y176.267 E9.56506
G1 X166.507 Y176.279 E9.58186
G1 X133.494 Y176.279 E12.21974
G1 X133.112 Y176.239 E12.25043
G1 X132.747 Y176.121 E12.28108
G1 X132.682 Y176.084 E12.28706
G1 X132.506 Y176.174 E12.30285
G1 X132.135 Y176.274 E12.33356
G1 X131.839 Y176.298 E12.35728
G1 X115.251 Y176.298 E13.68273
G1 X114.869 Y176.258 E13.71342
G1 X114.504 Y176.14 E13.74408
G1 X114.257 Y175.999 E13.7668
G1 X113.916 Y176.174 E13.79743
G1 X113.545 Y176.274 E13.82813
G1 X113.249 Y176.298 E13.85186
G1 X109.848 Y176.298 E14.12361
G0 F6000 X109.32 Y175.77
G1 F1200 X109.32 Y184.33 E14.80759
G1 X113.249 Y184.33 E15.12154
G1 X113.571 Y184.37 E15.14746
G1 X113.873 Y184.487 E15.17334
G1 X114.182 Y184.717 E15.20412
G1 X114.25 Y184.785 E15.21181
G1 X114.318 Y184.717 E15.21949
G1 X114.573 Y184.517 E15.24538
G1 X114.87 Y184.386 E15.27132
G1 X115.251 Y184.33 E15.30209
G1 X131.838 Y184.33 E16.62746
G1 X131.93 Y184.341 E16.63487
G1 X131.955 Y184.267 E16.64111
G1 X132.13 Y183.994 E16.66702
G1 X132.366 Y183.772 E16.69291
G1 X132.65 Y183.614 E16.71888
G1 X132.963 Y183.53 E16.74477
G1 X133.146 Y183.517 E16.75943
G1 X166.853 Y183.517 E19.45276
G1 X167.175 Y183.557 E19.47869
G1 X167.477 Y183.674 E19.50456
G1 X167.742 Y183.861 E19.53048
G1 X167.953 Y184.108 E19.55644
G1 X168.071 Y184.343 E19.57745
G1 X168.161 Y184.33 E19.58472
G1 X184.749 Y184.33 E20.91017
G1 X185.071 Y184.37 E20.93609
G1 X185.373 Y184.487 E20.96197
G1 X185.682 Y184.717 E20.99275
G1 X185.75 Y184.785 E21.00043
G1 X185.818 Y184.717 E21.00812
G1 X186.073 Y184.517 E21.03401
G1 X186.37 Y184.386 E21.05995
G1 X186.751 Y184.33 E21.09072
G1 X190.68 Y184.33 E21.40466
G1 X190.68 Y175.77 E22.08864
G1 X186.751 Y175.77 E22.40259
G1 X186.429 Y175.73 E22.42851
G1 X186.127 Y175.613 E22.45439
G1 X185.818 Y175.383 E22.48517
G1 X185.751 Y175.316 E22.49274
G1 X185.683 Y175.383 E22.50037
G1 X185.428 Y175.583 E22.52627
G1 X185.131 Y175.714 E22.5522
G1 X184.75 Y175.77 E22.58297
G1 X168.162 Y175.77 E23.90842
G1 X167.84 Y175.73 E23.93435
G1 X167.538 Y175.613 E23.96023
G1 X167.326 Y175.455 E23.98136
G1 X167.237 Y175.531 E23.99071
G1 X166.946 Y175.676 E24.01669
G1 X166.507 Y175.751 E24.05227
G1 X133.494 Y175.751 E26.69015
G1 X133.172 Y175.711 E26.71608
G1 X132.87 Y175.594 E26.74195
G1 X132.677 Y175.458 E26.76082
G1 X132.517 Y175.583 E26.77704
G1 X132.22 Y175.714 E26.80298
G1 X131.839 Y175.77 E26.83375
G1 X115.251 Y175.77 E28.1592
G1 X114.929 Y175.73 E28.18513
G1 X114.627 Y175.613 E28.21101
G1 X114.318 Y175.383 E28.24179
G1 X114.25 Y175.315 E28.24947
G1 X114.182 Y175.383 E28.25716
G1 X113.927 Y175.583 E28.28305
G1 X113.63 Y175.714 E28.30899
G1 X113.249 Y175.77 E28.33976
G1 X109.32 Y175.77 E28.6537
G0 F6000 X108.792 Y175.242
G1 F1200 X108.792 Y184.858 E29.42206
G1 X113.249 Y184.858 E29.77819
G1 X113.497 Y184.898 E29.79827
G1 X113.809 Y185.09 E29.82754
G1 X113.964 Y185.245 E29.84505
G1 X114.111 Y185.448 E29.86508
G1 X114.196 Y185.805 E29.8944
G1 X114.196 Y188.495 E30.10934
G1 X114.156 Y188.743 E30.12942
G1 X113.964 Y189.055 E30.15869
G1 X113.809 Y189.21 E30.1762
G1 X113.606 Y189.357 E30.19623
G1 X113.249 Y189.442 E30.22555
G1 X105.155 Y189.442 E30.8723
G1 X104.907 Y189.402 E30.89237
G1 X104.595 Y189.21 E30.92164
G1 X104.44 Y189.055 E30.93916
G1 X104.293 Y188.852 E30.95919
G1 X104.208 Y188.495 E30.98851
G1 X104.208 Y136.405 E35.15072
G1 X104.248 Y136.157 E35.17079
G1 X104.44 Y135.845 E35.20006
G1 X104.595 Y135.69 E35.21758
G1 X104.798 Y135.543 E35.2376
G1 X104.882 Y135.523 E35.2445
G1 X104.752 Y135.502 E35.25502
G1 X104.529 Y135.387 E35.27507
G1 X104.354 Y135.208 E35.29508
G1 X104.243 Y134.983 E35.31512
G1 X104.208 Y134.587 E35.34689
G1 X104.248 Y134.339 E35.36696
G1 X104.44 Y134.027 E35.39623
G1 X104.569 Y133.898 E35.41081
G1 X104.772 Y133.751 E35.43084
G1 X105.129 Y133.666 E35.46016
G1 X122.271 Y133.666 E36.82988
G1 X122.519 Y133.706 E36.84995
G1 X122.831 Y133.898 E36.87922
G1 X122.96 Y134.027 E36.8938
G1 X123.107 Y134.23 E36.91383
G1 X123.192 Y134.587 E36.94315
G1 X123.192 Y134.75 E36.95617
G1 X123.152 Y134.998 E36.97625
G1 X123.037 Y135.221 E36.99629
G1 X122.858 Y135.396 E37.0163
G1 X122.732 Y135.458 E37.02752
G1 X131.838 Y135.458 E37.75512
G1 X132.086 Y135.498 E37.7752
G1 X132.398 Y135.69 E37.80447
G1 X132.553 Y135.845 E37.82198
G1 X132.7 Y136.048 E37.84201
G1 X132.72 Y136.132 E37.84891
G1 X132.741 Y136.002 E37.85943
G1 X132.856 Y135.78 E37.87941
G1 X133.035 Y135.604 E37.89947
G1 X133.26 Y135.493 E37.91952
G1 X133.493 Y135.458 E37.93834
G1 X140.808 Y135.458 E38.52284
G1 X140.808 Y134.587 E38.59244
G1 X140.848 Y134.339 E38.61251
G1 X141.04 Y134.027 E38.64178
G1 X141.169 Y133.898 E38.65636
G1 X141.372 Y133.751 E38.67639
G1 X141.729 Y133.666 E38.70571
G1 X158.271 Y133.665 E40.02748
G1 X158.519 Y133.705 E40.04756
G1 X158.831 Y133.897 E40.07683
G1 X158.96 Y134.026 E40.09141
G1 X159.107 Y134.229 E40.11143
G1 X159.192 Y134.586 E40.14076
G1 X159.192 Y135.458 E40.21043
G1 X166.506 Y135.458 E40.79485
G1 X166.754 Y135.498 E40.81492
G1 X166.977 Y135.613 E40.83497
G1 X167.152 Y135.792 E40.85498
G1 X167.263 Y136.017 E40.87502
G1 X167.278 Y136.118 E40.88318
G1 X167.446 Y135.845 E40.90879
G1 X167.601 Y135.69 E40.92631
G1 X167.804 Y135.543 E40.94634
G1 X168.161 Y135.458 E40.97566
G1 X184.749 Y135.458 E42.30111
G1 X184.997 Y135.498 E42.32118
G1 X185.309 Y135.69 E42.35045
G1 X185.464 Y135.845 E42.36797
G1 X185.611 Y136.048 E42.388
G1 X185.696 Y136.405 E42.41732
G1 X185.696 Y139.095 E42.63226
G1 X185.656 Y139.343 E42.65233
G1 X185.475 Y139.637 E42.67992
G1 X185.632 Y139.587 E42.69309
G1 X185.883 Y139.589 E42.71314
G1 X186.023 Y139.637 E42.72497
G1 X185.889 Y139.452 E42.74322
G1 X185.804 Y139.095 E42.77255
G1 X185.804 Y136.405 E42.98749
G1 X185.844 Y136.157 E43.00756
G1 X186.036 Y135.845 E43.03683
G1 X186.191 Y135.69 E43.05435
G1 X186.394 Y135.543 E43.07437
G1 X186.751 Y135.458 E43.1037
G1 X194.845 Y135.458 E43.75044
G1 X195.093 Y135.498 E43.77051
G1 X195.405 Y135.69 E43.79979
G1 X195.56 Y135.845 E43.8173
G1 X195.707 Y136.048 E43.83733
G1 X195.792 Y136.405 E43.86665
G1 X195.792 Y188.495 E48.02886
G1 X195.752 Y188.743 E48.04893
G1 X195.56 Y189.055 E48.0782
G1 X195.405 Y189.21 E48.09572
G1 X195.202 Y189.357 E48.11575
G1 X194.845 Y189.442 E48.14507
G1 X186.751 Y189.442 E48.79181
G1 X186.503 Y189.402 E48.81188
G1 X186.191 Y189.21 E48.84116
G1 X186.036 Y189.055 E48.85867
G1 X185.889 Y188.852 E48.8787
G1 X185.804 Y188.495 E48.90802
G1 X185.804 Y185.805 E49.12296
G1 X185.844 Y185.557 E49.14304
G1 X186.036 Y185.245 E49.17231
G1 X186.191 Y185.09 E49.18982
G1 X186.394 Y184.943 E49.20985
G1 X186.751 Y184.858 E49.23917
G1 X191.208 Y184.858 E49.59531
G1 X191.208 Y175.242 E50.36367
G1 X186.751 Y175.242 E50.7198
G1 X186.503 Y175.202 E50.73987
G1 X186.191 Y175.01 E50.76914
G1 X186.036 Y174.855 E50.78666
G1 X185.889 Y174.652 E50.80669
G1 X185.804 Y174.295 E50.83601
G1 X185.804 Y165.605 E51.53038
G1 X185.844 Y165.357 E51.55045
G1 X186.025 Y165.063 E51.57803
G1 X185.868 Y165.113 E51.5912
G1 X185.617 Y165.111 E51.61126
G1 X185.477 Y165.063 E51.62308
G1 X185.611 Y165.248 E51.64134
G1 X185.696 Y165.605 E51.67066
G1 X185.697 Y174.295 E52.36503
G1 X185.657 Y174.543 E52.3851
G1 X185.465 Y174.855 E52.41437
G1 X185.31 Y175.01 E52.43189
G1 X185.107 Y175.157 E52.45191
G1 X184.75 Y175.242 E52.48124
G1 X168.162 Y175.242 E53.80669
G1 X167.914 Y175.202 E53.82676
G1 X167.602 Y175.01 E53.85603
G1 X167.447 Y174.855 E53.87355
G1 X167.3 Y174.652 E53.89357
G1 X167.278 Y174.56 E53.90113
G1 X167.259 Y174.679 E53.91076
G1 X167.144 Y174.902 E53.93081
G1 X166.965 Y175.077 E53.95081
G1 X166.74 Y175.188 E53.97086
G1 X166.507 Y175.223 E53.98968
G1 X133.494 Y175.223 E56.62756
G1 X133.246 Y175.183 E56.64763
G1 X133.023 Y175.068 E56.66768
G1 X132.848 Y174.889 E56.68768
G1 X132.737 Y174.664 E56.70773
G1 X132.724 Y174.578 E56.71468
G1 X132.554 Y174.855 E56.74065
G1 X132.399 Y175.01 E56.75817
G1 X132.196 Y175.157 E56.77819
G1 X131.839 Y175.242 E56.80752
G1 X115.251 Y175.242 E58.13297
G1 X115.003 Y175.202 E58.15304
G1 X114.691 Y175.01 E58.18231
G1 X114.536 Y174.855 E58.19983
G1 X114.389 Y174.652 E58.21985
G1 X114.304 Y174.295 E58.24918
G1 X114.303 Y165.605 E58.94354
G1 X114.343 Y165.357 E58.96361
G1 X114.523 Y165.064 E58.99109
G1 X114.369 Y165.113 E59.004
G1 X114.118 Y165.111 E59.02406
G1 X113.977 Y165.063 E59.03596
G1 X114.111 Y165.248 E59.05422
G1 X114.196 Y165.605 E59.08354
G1 X114.196 Y174.295 E59.77791
G1 X114.156 Y174.543 E59.79798
G1 X113.964 Y174.855 E59.82725
G1 X113.809 Y175.01 E59.84477
G1 X113.606 Y175.157 E59.86479
G1 X113.249 Y175.242 E59.89412
G1 X108.792 Y175.242 E60.25025
G0 F6000 X108.264 Y174.714
G1 F1200 X108.264 Y185.386 E61.10299
G1 X113.249 Y185.386 E61.50131
G1 X113.436 Y185.463 E61.51747
G1 X113.591 Y185.618 E61.53498
G1 X113.668 Y185.805 E61.55114
G1 X113.668 Y188.495 E61.76608
G1 X113.591 Y188.682 E61.78224
G1 X113.436 Y188.837 E61.79976
G1 X113.249 Y188.914 E61.81592
G1 X105.155 Y188.914 E62.46266
G1 X104.968 Y188.837 E62.47882
G1 X104.813 Y188.682 E62.49634
G1 X104.736 Y188.495 E62.51249
G1 X104.736 Y136.405 E66.6747
G1 X104.813 Y136.218 E66.69086
G1 X104.968 Y136.063 E66.70838
G1 X105.155 Y135.986 E66.72454
G1 X113.249 Y135.986 E67.37128
G1 X113.436 Y136.063 E67.38744
G1 X113.591 Y136.218 E67.40495
G1 X113.668 Y136.405 E67.42111
G1 X113.669 Y139.095 E67.63606
G1 X113.592 Y139.282 E67.65221
G1 X113.437 Y139.437 E67.66973
G1 X113.25 Y139.514 E67.68589
G1 X108.264 Y139.514 E68.08429
G1 X108.264 Y165.186 E70.13559
G1 X113.249 Y165.186 E70.53391
G1 X113.436 Y165.263 E70.55007
G1 X113.591 Y165.418 E70.56759
G1 X113.668 Y165.605 E70.58375
G1 X113.668 Y174.295 E71.27811
G1 X113.591 Y174.482 E71.29427
G1 X113.436 Y174.637 E71.31179
G1 X113.249 Y174.714 E71.32795
G1 X108.264 Y174.714 E71.72627
G1 F1500 E66.72627
G1 F300 Z0.48
G0 F6000 X114.832 Y174.295 Z0.48
G1 F300 Z0.28
G1 F1500 E71.72627
G1 F1200 X114.831 Y165.605 E72.42064
G1 X114.908 Y165.418 E72.4368
G1 X115.063 Y165.263 E72.45431
G1 X115.25 Y165.186 E72.47047
G1 X131.838 Y165.186 E73.79592
G1 X132.025 Y165.263 E73.81208
G1 X132.18 Y165.418 E73.82959
G1 X132.257 Y165.605 E73.84575
G1 X132.258 Y174.295 E74.54012
G1 X132.181 Y174.482 E74.55628
G1 X132.026 Y174.637 E74.5738
G1 X131.839 Y174.714 E74.58995
G1 X115.251 Y174.714 E75.9154
G1 X115.064 Y174.637 E75.93156
G1 X114.909 Y174.482 E75.94908
G1 X114.832 Y174.295 E75.96524
G1 F1500 E70.96524
G1 F300 Z0.48
G0 F6000 X114.894 Y184.943 Z0.48
G1 F300 Z0.28
G1 F1500 E75.96524
G1 F1200 X115.251 Y184.858 E75.99456
G1 X131.838 Y184.858 E77.31993
G1 X132.086 Y184.898 E77.34
G1 X132.398 Y185.09 E77.36928
G1 X132.363 Y184.955 E77.38042
G1 X132.365 Y184.704 E77.40048
G1 X132.446 Y184.466 E77.42057
G1 X132.597 Y184.266 E77.44059
G1 X132.803 Y184.123 E77.46063
G1 X133.146 Y184.045 E77.48873
G1 X166.853 Y184.045 E80.18206
G1 X167.101 Y184.085 E80.20213
G1 X167.324 Y184.2 E80.22218
G1 X167.499 Y184.379 E80.24219
G1 X167.61 Y184.604 E80.26223
G1 X167.645 Y184.853 E80.28232
G1 X167.602 Y185.089 E80.30149
G1 X167.804 Y184.943 E80.32141
G1 X168.161 Y184.858 E80.35073
G1 X184.749 Y184.858 E81.67618
G1 X184.997 Y184.898 E81.69625
G1 X185.309 Y185.09 E81.72553
G1 X185.464 Y185.245 E81.74304
G1 X185.611 Y185.448 E81.76307
G1 X185.696 Y185.805 E81.79239
G1 X185.696 Y188.495 E82.00733
G1 X185.656 Y188.743 E82.02741
G1 X185.464 Y189.055 E82.05668
G1 X185.309 Y189.21 E82.07419
G1 X185.106 Y189.357 E82.09422
G1 X184.749 Y189.442 E82.12354
G1 X168.162 Y189.442 E83.44891
G1 X167.914 Y189.402 E83.46899
G1 X167.602 Y189.21 E83.49826
G1 X167.447 Y189.055 E83.51577
G1 X167.3 Y188.852 E83.5358
G1 X167.28 Y188.768 E83.5427
G1 X167.259 Y188.898 E83.55322
G1 X167.144 Y189.12 E83.5732
G1 X166.965 Y189.296 E83.59326
G1 X166.74 Y189.407 E83.6133
G1 X166.507 Y189.442 E83.63213
G1 X133.493 Y189.442 E86.27009
G1 X133.245 Y189.402 E86.29016
G1 X133.022 Y189.287 E86.31021
G1 X132.847 Y189.108 E86.33021
G1 X132.736 Y188.883 E86.35026
G1 X132.721 Y188.782 E86.35842
G1 X132.553 Y189.055 E86.38403
G1 X132.398 Y189.21 E86.40154
G1 X132.195 Y189.357 E86.42157
G1 X131.838 Y189.442 E86.45089
G1 X115.251 Y189.442 E87.77627
G1 X115.003 Y189.402 E87.79634
G1 X114.691 Y189.21 E87.82561
G1 X114.536 Y189.055 E87.84313
G1 X114.389 Y188.852 E87.86315
G1 X114.304 Y188.495 E87.89248
G1 X114.304 Y185.805 E88.10742
G1 X114.344 Y185.557 E88.12749
G1 X114.536 Y185.245 E88.15676
G1 X114.691 Y185.09 E88.17428
G1 X114.894 Y184.943 E88.1943
G0 F6000 X115.064 Y185.463
G1 F1200 X115.251 Y185.386 E88.21046
G1 X131.838 Y185.386 E89.53583
G1 X132.025 Y185.463 E89.55199
G1 X132.18 Y185.618 E89.56951
G1 X132.257 Y185.805 E89.58567
G1 X132.257 Y188.495 E89.80061
G1 X132.18 Y188.682 E89.81677
G1 X132.025 Y188.837 E89.83428
G1 X131.838 Y188.914 E89.85044
G1 X115.251 Y188.914 E91.17581
G1 X115.064 Y188.837 E91.19197
G1 X114.909 Y188.682 E91.20949
G1 X114.832 Y188.495 E91.22565
G1 X114.832 Y185.805 E91.44059
G1 X114.909 Y185.618 E91.45675
G1 X115.064 Y185.463 E91.47426
G1 F1500 E86.47426
G1 F300 Z0.48
G0 F6000 X103.68 Y188.495 Z0.48
G1 F300 Z0.28
G1 F1500 E91.47426
G1 F1200 X103.68 Y136.405 E95.63647
G1 X103.72 Y136.083 E95.6624
G1 X103.837 Y135.781 E95.68828
G1 X103.986 Y135.58 E95.70827
G1 X103.9 Y135.479 E95.71887
G1 X103.755 Y135.189 E95.74478
G1 X103.68 Y134.75 E95.78036
G1 X103.68 Y134.587 E95.79339
G1 X103.72 Y134.265 E95.81931
G1 X103.837 Y133.963 E95.84519
G1 X104.067 Y133.654 E95.87597
G1 X104.196 Y133.525 E95.89055
G1 X104.451 Y133.325 E95.91644
G1 X104.748 Y133.194 E95.94238
G1 X105.129 Y133.138 E95.97315
G1 X122.271 Y133.138 E97.34287
G1 X122.593 Y133.178 E97.36879
G1 X122.895 Y133.295 E97.39467
G1 X123.204 Y133.525 E97.42545
G1 X123.333 Y133.654 E97.44003
G1 X123.533 Y133.909 E97.46592
G1 X123.664 Y134.206 E97.49186
G1 X123.72 Y134.587 E97.52263
G1 X123.698 Y134.93 E97.5501
G1 X131.838 Y134.93 E98.20052
G1 X132.16 Y134.97 E98.22644
G1 X132.462 Y135.087 E98.25232
G1 X132.662 Y135.236 E98.27225
G1 X132.763 Y135.15 E98.28285
G1 X133.054 Y135.005 E98.30883
G1 X133.493 Y134.93 E98.34441
G1 X140.28 Y134.93 E98.88672
G1 X140.28 Y134.587 E98.91413
G1 X140.32 Y134.265 E98.94006
