;FLAVOR:Marlin
;TIME:19202
;Filament used: 11.0689m
;Layer height: 0.16
;MINX:104.999
;MINY:133.02
;MINZ:0.28
;MAXX:194.78
;MAXY:188.43
;MAXZ:41.76
;Generated with Cura_SteamEngine 4.13.1
M140 S95
M105
M190 S95
M104 S220
M105
M109 S220
M82 ;absolute extrusion mode
G28 ; home all axes
 M117 Purge extruder
 G92 E0 ; reset extruder
 G1 Z1.0 F3000 ; move z up little to prevent scratching of surface
 G1 X2 Y20 Z0.3 F5000.0 ; move to start-line position
 G1 X2 Y200.0 Z0.3 F1500.0 E15 ; draw 1st line
 G1 X2 Y200.0 Z0.4 F5000.0 ; move to side a little
 G1 X2 Y20 Z0.4 F1500.0 E30 ; draw 2nd line
 G92 E0 ; reset extruder
 G1 Z1.0 F3000 ; move z up little to prevent scratching of surface
G92 E0
G92 E0
G1 F1500 E-5
;LAYER_COUNT:293
;LAYER:0
M107
G1 F300 Z0.48
G0 F6000 X112.96 Y144.21 Z0.48
;TYPE:SKIRT
G1 F300 Z0.28
G1 F1500 E0
G1 F1200 X113.664 Y144.21 E0.05625
G1 X114.225 Y144.17 E0.10119
G1 X114.274 Y144.159 E0.10521
G1 X114.542 Y144.199 E0.12686
G1 X114.837 Y144.21 E0.15044
G1 X132.253 Y144.21 E1.54206
G1 X132.814 Y144.17 E1.587
G1 X133.364 Y144.051 E1.63196
G1 X133.891 Y143.855 E1.67689
G1 X134.385 Y143.587 E1.72179
G1 X134.837 Y143.251 E1.7668
G1 X135.053 Y143.05 E1.79037
G1 X135.794 Y142.309 E1.87411
G1 X136.163 Y141.884 E1.91908
G1 X136.467 Y141.411 E1.96401
G1 X136.702 Y140.9 E2.00895
G1 X136.861 Y140.361 E2.05385
G1 X136.883 Y140.21 E2.06605
G1 X141.289 Y140.21 E2.4181
G1 X141.85 Y140.17 E2.46304
G1 X142.4 Y140.051 E2.50801
G1 X142.927 Y139.855 E2.55294
G1 X143.421 Y139.587 E2.59784
G1 X143.873 Y139.251 E2.64284
G1 X144.089 Y139.05 E2.66642
G1 X144.4 Y138.739 E2.70156
G1 X144.679 Y138.418 E2.73555
G1 X155.32 Y138.417 E3.58581
G1 X155.399 Y138.523 E3.59637
G1 X155.6 Y138.739 E3.61995
G1 X155.911 Y139.05 E3.65509
G1 X156.336 Y139.419 E3.70006
G1 X156.809 Y139.723 E3.74499
G1 X157.32 Y139.958 E3.78993
G1 X157.859 Y140.117 E3.83484
G1 X158.416 Y140.199 E3.87982
G1 X158.711 Y140.21 E3.90341
G1 X163.117 Y140.21 E4.25547
G1 X163.206 Y140.621 E4.28907
G1 X163.402 Y141.148 E4.334
G1 X163.671 Y141.642 E4.37894
G1 X164.007 Y142.094 E4.42395
G1 X164.207 Y142.309 E4.44741
G1 X164.948 Y143.05 E4.53114
G1 X165.373 Y143.419 E4.57612
G1 X165.846 Y143.723 E4.62104
G1 X166.357 Y143.958 E4.66599
G1 X166.896 Y144.117 E4.71089
G1 X167.453 Y144.199 E4.75587
G1 X167.748 Y144.21 E4.77946
G1 X185.163 Y144.21 E6.17099
G1 X185.724 Y144.17 E6.21593
G1 X185.773 Y144.159 E6.21995
G1 X186.042 Y144.199 E6.24168
G1 X186.337 Y144.21 E6.26526
G1 X187.04 Y144.21 E6.32144
G1 X187.04 Y160.49 E7.62228
G1 X186.337 Y160.49 E7.67845
G1 X185.776 Y160.53 E7.72339
G1 X185.727 Y160.541 E7.7274
G1 X185.458 Y160.501 E7.74913
G1 X185.163 Y160.49 E7.77272
G1 X167.747 Y160.49 E9.16433
G1 X167.186 Y160.53 E9.20927
G1 X166.636 Y160.649 E9.25424
G1 X166.109 Y160.845 E9.29916
G1 X165.615 Y161.113 E9.34407
G1 X165.163 Y161.449 E9.38907
G1 X164.947 Y161.65 E9.41265
G1 X164.206 Y162.391 E9.49638
G1 X163.837 Y162.816 E9.54136
G1 X163.533 Y163.289 E9.58628
G1 X163.298 Y163.8 E9.63123
G1 X163.139 Y164.339 E9.67613
G1 X163.057 Y164.896 E9.72112
G1 X163.046 Y165.191 E9.7447
G1 X163.047 Y170.49 E10.16812
G1 X136.954 Y170.49 E12.25305
G1 X136.953 Y165.191 E12.67647
G1 X136.913 Y164.63 E12.72141
G1 X136.794 Y164.08 E12.76637
G1 X136.598 Y163.552 E12.81137
G1 X136.33 Y163.058 E12.85628
G1 X135.994 Y162.607 E12.90122
G1 X135.793 Y162.391 E12.92479
G1 X135.052 Y161.65 E13.00853
G1 X134.627 Y161.281 E13.0535
G1 X134.154 Y160.977 E13.09843
G1 X133.643 Y160.742 E13.14337
G1 X133.104 Y160.583 E13.18827
G1 X132.547 Y160.501 E13.23326
G1 X132.252 Y160.49 E13.25685
G1 X114.836 Y160.49 E14.64846
G1 X114.275 Y160.53 E14.6934
G1 X114.226 Y160.541 E14.69741
G1 X113.958 Y160.501 E14.71906
G1 X113.663 Y160.49 E14.74265
G1 X112.96 Y160.49 E14.79882
G1 X112.96 Y144.21 E16.09966
G0 F6000 X112.432 Y143.682
G1 F1200 X113.664 Y143.682 E16.19811
G1 X114.186 Y143.642 E16.23994
G1 X114.241 Y143.63 E16.24444
G1 X114.837 Y143.682 E16.29224
G1 X132.253 Y143.682 E17.68385
G1 X132.775 Y143.642 E17.72568
G1 X133.285 Y143.523 E17.76753
G1 X133.771 Y143.328 E17.80937
G1 X134.221 Y143.061 E17.85118
G1 X134.68 Y142.677 E17.899
G1 X135.421 Y141.936 E17.98273
G1 X135.762 Y141.538 E18.02461
G1 X136.038 Y141.094 E18.06638
G1 X136.244 Y140.612 E18.10827
G1 X136.374 Y140.105 E18.15009
G1 X136.411 Y139.682 E18.18402
G1 X141.289 Y139.682 E18.57379
G1 X141.811 Y139.642 E18.61562
G1 X142.321 Y139.523 E18.65747
G1 X142.807 Y139.328 E18.69931
G1 X143.257 Y139.061 E18.74112
G1 X143.716 Y138.677 E18.78894
G1 X144.027 Y138.366 E18.82408
G1 X144.368 Y137.968 E18.86596
G1 X144.417 Y137.89 E18.87332
G1 X155.578 Y137.889 E19.76513
G1 X155.589 Y137.907 E19.76682
G1 X155.973 Y138.366 E19.81464
G1 X156.284 Y138.677 E19.84978
G1 X156.682 Y139.018 E19.89166
G1 X157.126 Y139.294 E19.93343
G1 X157.608 Y139.5 E19.97531
G1 X158.115 Y139.63 E20.01714
G1 X158.711 Y139.682 E20.06494
G1 X163.588 Y139.682 E20.45463
G1 X163.615 Y140.032 E20.48268
G1 X163.734 Y140.542 E20.52453
G1 X163.929 Y141.028 E20.56637
G1 X164.196 Y141.478 E20.60818
G1 X164.58 Y141.936 E20.65594
G1 X165.321 Y142.677 E20.73967
G1 X165.719 Y143.018 E20.78155
G1 X166.163 Y143.294 E20.82332
G1 X166.645 Y143.5 E20.86521
G1 X167.152 Y143.63 E20.90703
G1 X167.748 Y143.682 E20.95483
G1 X185.163 Y143.682 E22.34636
G1 X185.685 Y143.642 E22.3882
G1 X185.741 Y143.63 E22.39277
G1 X186.337 Y143.682 E22.44058
G1 X187.568 Y143.682 E22.53894
G1 X187.568 Y161.018 E23.92416
G1 X186.337 Y161.018 E24.02252
G1 X185.815 Y161.058 E24.06435
G1 X185.759 Y161.07 E24.06893
G1 X185.163 Y161.018 E24.11673
G1 X167.747 Y161.018 E25.50834
G1 X167.225 Y161.058 E25.55017
G1 X166.715 Y161.177 E25.59202
G1 X166.229 Y161.372 E25.63386
G1 X165.779 Y161.639 E25.67567
G1 X165.32 Y162.023 E25.72349
G1 X164.579 Y162.764 E25.80722
G1 X164.238 Y163.162 E25.8491
G1 X163.962 Y163.606 E25.89088
G1 X163.756 Y164.088 E25.93276
G1 X163.626 Y164.595 E25.97458
G1 X163.574 Y165.191 E26.02238
G1 X163.575 Y171.018 E26.48799
G1 X136.426 Y171.018 E28.6573
G1 X136.425 Y165.191 E29.12291
G1 X136.385 Y164.669 E29.16474
G1 X136.266 Y164.159 E29.20658
G1 X136.071 Y163.673 E29.24843
G1 X135.804 Y163.222 E29.2903
G1 X135.42 Y162.764 E29.33806
G1 X134.679 Y162.023 E29.4218
G1 X134.281 Y161.682 E29.46367
G1 X133.837 Y161.406 E29.50545
G1 X133.355 Y161.2 E29.54733
G1 X132.848 Y161.07 E29.58915
G1 X132.252 Y161.018 E29.63696
G1 X114.836 Y161.018 E31.02857
G1 X114.314 Y161.058 E31.0704
G1 X114.259 Y161.07 E31.0749
G1 X113.663 Y161.018 E31.1227
G1 X112.432 Y161.018 E31.22106
G1 X112.432 Y143.682 E32.60628
G0 F6000 X113.664 Y143.154
G1 F1200 X114.144 Y143.114 E32.64477
G1 X114.256 Y143.085 E32.65401
G1 X114.486 Y143.133 E32.67279
G1 X114.837 Y143.154 E32.70088
G1 X132.253 Y143.154 E34.09249
G1 X132.733 Y143.114 E34.13098
G1 X133.2 Y142.995 E34.16949
G1 X133.64 Y142.801 E34.20791
G1 X134.043 Y142.537 E34.24641
G1 X134.306 Y142.303 E34.27454
G1 X135.047 Y141.562 E34.35827
G1 X135.359 Y141.195 E34.39676
G1 X135.605 Y140.781 E34.43524
G1 X135.779 Y140.332 E34.47372
G1 X135.877 Y139.86 E34.51224
G1 X135.898 Y139.508 E34.54041
G1 X135.898 Y139.154 E34.5687
G1 X141.289 Y139.154 E34.99946
G1 X141.769 Y139.114 E35.03795
G1 X142.236 Y138.995 E35.07646
G1 X142.676 Y138.801 E35.11488
G1 X143.079 Y138.537 E35.15338
G1 X143.342 Y138.303 E35.1815
G1 X143.653 Y137.992 E35.21665
G1 X143.965 Y137.625 E35.25514
G1 X144.121 Y137.362 E35.27957
G1 X155.872 Y137.361 E36.21852
G1 X156.113 Y137.729 E36.25367
G1 X156.347 Y137.992 E36.2818
G1 X156.658 Y138.303 E36.31695
G1 X157.025 Y138.615 E36.35544
G1 X157.439 Y138.861 E36.39391
G1 X157.888 Y139.035 E36.43239
G1 X158.36 Y139.133 E36.47091
G1 X158.711 Y139.154 E36.49901
G1 X164.103 Y139.154 E36.92985
G1 X164.103 Y139.51 E36.9583
G1 X164.143 Y139.99 E36.99678
G1 X164.262 Y140.456 E37.03521
G1 X164.456 Y140.897 E37.07371
G1 X164.721 Y141.3 E37.11225
G1 X164.954 Y141.562 E37.14027
G1 X165.695 Y142.303 E37.224
G1 X166.062 Y142.615 E37.26249
G1 X166.476 Y142.861 E37.30097
G1 X166.925 Y143.035 E37.33945
G1 X167.397 Y143.133 E37.37796
G1 X167.748 Y143.154 E37.40606
G1 X185.163 Y143.154 E38.79759
G1 X185.643 Y143.114 E38.83608
G1 X185.756 Y143.085 E38.8454
G1 X185.986 Y143.133 E38.86417
G1 X186.337 Y143.154 E38.89227
G1 X188.096 Y143.154 E39.03282
G1 X188.096 Y161.546 E40.50242
G1 X186.337 Y161.546 E40.64297
G1 X185.857 Y161.586 E40.68146
G1 X185.744 Y161.615 E40.69078
G1 X185.514 Y161.567 E40.70955
G1 X185.163 Y161.546 E40.73765
G1 X167.747 Y161.546 E42.12926
G1 X167.267 Y161.586 E42.16775
G1 X166.8 Y161.705 E42.20626
G1 X166.36 Y161.899 E42.24468
G1 X165.957 Y162.163 E42.28317
G1 X165.694 Y162.397 E42.3113
G1 X164.953 Y163.138 E42.39504
G1 X164.641 Y163.505 E42.43353
G1 X164.395 Y163.919 E42.47201
G1 X164.221 Y164.368 E42.51048
G1 X164.123 Y164.84 E42.549
G1 X164.102 Y165.191 E42.5771
G1 X164.103 Y171.546 E43.08489
G1 X135.898 Y171.546 E45.33859
G1 X135.897 Y165.191 E45.84638
G1 X135.857 Y164.711 E45.88486
G1 X135.738 Y164.244 E45.92337
G1 X135.544 Y163.803 E45.96187
G1 X135.28 Y163.401 E46.0003
G1 X135.046 Y163.138 E46.02843
G1 X134.305 Y162.397 E46.11216
G1 X133.938 Y162.085 E46.15065
G1 X133.524 Y161.839 E46.18913
G1 X133.075 Y161.665 E46.22761
G1 X132.603 Y161.567 E46.26612
G1 X132.252 Y161.546 E46.29422
G1 X114.836 Y161.546 E47.68583
G1 X114.356 Y161.586 E47.72432
G1 X114.244 Y161.615 E47.73356
G1 X114.014 Y161.567 E47.75234
G1 X113.663 Y161.546 E47.78043
G1 X111.904 Y161.546 E47.92099
G1 X111.904 Y143.154 E49.39058
G1 X113.664 Y143.154 E49.53121
G0 F6000 X113.664 Y142.626
G1 F1200 X114.098 Y142.586 E49.56604
G1 X114.284 Y142.561 E49.58103
G1 X114.837 Y142.626 E49.62553
G1 X132.253 Y142.626 E51.01714
G1 X132.687 Y142.586 E51.05196
G1 X133.106 Y142.468 E51.08674
G1 X133.496 Y142.275 E51.12151
G1 X133.933 Y141.93 E51.166
G1 X134.674 Y141.189 E51.24974
G1 X134.953 Y140.854 E51.28457
G1 X135.165 Y140.474 E51.31934
G1 X135.305 Y140.062 E51.35411
G1 X135.37 Y139.508 E51.39868
G1 X135.37 Y138.626 E51.46916
G1 X141.289 Y138.626 E51.94211
G1 X141.723 Y138.586 E51.97693
G1 X142.142 Y138.468 E52.01172
G1 X142.532 Y138.275 E52.04649
G1 X142.969 Y137.93 E52.09097
G1 X143.28 Y137.619 E52.12612
G1 X143.559 Y137.284 E52.16095
G1 X143.771 Y136.904 E52.19572
G1 X143.795 Y136.834 E52.20164
G1 X156.202 Y136.833 E53.19301
G1 X156.375 Y137.182 E53.22413
G1 X156.72 Y137.619 E53.26862
G1 X157.031 Y137.93 E53.30376
G1 X157.366 Y138.209 E53.3386
G1 X157.746 Y138.421 E53.37337
G1 X158.158 Y138.561 E53.40814
G1 X158.711 Y138.626 E53.45263
G1 X164.631 Y138.626 E53.92566
G1 X164.631 Y139.51 E53.9963
G1 X164.671 Y139.943 E54.03104
G1 X164.79 Y140.362 E54.06585
G1 X164.983 Y140.753 E54.10069
G1 X165.327 Y141.189 E54.14506
G1 X166.068 Y141.93 E54.2288
G1 X166.403 Y142.209 E54.26363
G1 X166.783 Y142.421 E54.2984
G1 X167.195 Y142.561 E54.33317
G1 X167.748 Y142.626 E54.37766
G1 X185.163 Y142.626 E55.76919
G1 X185.597 Y142.586 E55.80402
G1 X185.784 Y142.561 E55.81909
G1 X186.337 Y142.626 E55.86358
G1 X188.624 Y142.626 E56.04633
G1 X188.624 Y162.074 E57.6003
G1 X186.337 Y162.074 E57.78304
G1 X185.903 Y162.114 E57.81787
G1 X185.716 Y162.139 E57.83294
G1 X185.163 Y162.074 E57.87743
G1 X167.747 Y162.074 E59.26904
G1 X167.313 Y162.114 E59.30387
G1 X166.894 Y162.232 E59.33865
G1 X166.504 Y162.425 E59.37342
G1 X166.067 Y162.77 E59.41791
G1 X165.326 Y163.511 E59.50164
G1 X165.047 Y163.846 E59.53648
G1 X164.835 Y164.226 E59.57125
G1 X164.695 Y164.638 E59.60602
G1 X164.63 Y165.191 E59.65051
G1 X164.631 Y172.074 E60.20049
G1 X135.37 Y172.074 E62.53856
G1 X135.369 Y165.191 E63.08854
G1 X135.329 Y164.757 E63.12337
G1 X135.211 Y164.338 E63.15815
G1 X135.018 Y163.948 E63.19292
G1 X134.673 Y163.511 E63.23741
G1 X133.932 Y162.77 E63.32114
G1 X133.597 Y162.491 E63.35598
G1 X133.217 Y162.279 E63.39075
G1 X132.805 Y162.139 E63.42552
G1 X132.252 Y162.074 E63.47001
G1 X114.836 Y162.074 E64.86162
G1 X114.402 Y162.114 E64.89645
G1 X114.216 Y162.139 E64.91144
G1 X113.663 Y162.074 E64.95593
G1 X111.376 Y162.074 E65.13867
G1 X111.376 Y142.626 E66.69265
G1 X113.664 Y142.626 E66.87547
G0 F6000 X113.664 Y142.098
G1 F1200 X114.046 Y142.058 E66.90616
G1 X114.244 Y141.994 E66.92279
G1 X114.541 Y142.074 E66.94736
G1 X114.837 Y142.098 E66.97109
G1 X132.253 Y142.098 E68.3627
G1 X132.635 Y142.058 E68.39339
G1 X133 Y141.94 E68.42405
G1 X133.333 Y141.749 E68.45472
G1 X133.56 Y141.557 E68.47848
G1 X134.301 Y140.816 E68.56221
G1 X134.543 Y140.517 E68.59295
G1 X134.718 Y140.176 E68.62357
G1 X134.818 Y139.805 E68.65428
G1 X134.842 Y139.508 E68.67808
G1 X134.842 Y138.098 E68.79075
G1 X141.289 Y138.098 E69.30589
G1 X141.671 Y138.058 E69.33658
G1 X142.036 Y137.94 E69.36723
G1 X142.369 Y137.749 E69.39791
G1 X142.596 Y137.557 E69.42166
G1 X142.907 Y137.246 E69.45681
G1 X143.149 Y136.947 E69.48754
G1 X143.324 Y136.606 E69.51817
G1 X143.405 Y136.306 E69.543
G1 X156.59 Y136.305 E70.59653
G1 X156.592 Y136.321 E70.59782
G1 X156.71 Y136.686 E70.62847
G1 X156.901 Y137.019 E70.65915
G1 X157.093 Y137.246 E70.6829
G1 X157.404 Y137.557 E70.71805
G1 X157.703 Y137.799 E70.74878
G1 X158.044 Y137.974 E70.77941
G1 X158.415 Y138.074 E70.81011
G1 X158.711 Y138.098 E70.83384
G1 X165.159 Y138.098 E71.34906
G1 X165.159 Y139.51 E71.46189
G1 X165.199 Y139.891 E71.4925
G1 X165.317 Y140.257 E71.52323
G1 X165.508 Y140.59 E71.5539
G1 X165.7 Y140.816 E71.5776
G1 X166.441 Y141.557 E71.66133
G1 X166.74 Y141.799 E71.69207
G1 X167.081 Y141.974 E71.72269
G1 X167.452 Y142.074 E71.75339
G1 X167.748 Y142.098 E71.77712
G1 X185.163 Y142.098 E73.16865
G1 X185.545 Y142.058 E73.19934
G1 X185.744 Y141.994 E73.21605
G1 X186.041 Y142.074 E73.24063
G1 X186.337 Y142.098 E73.26435
G1 X189.152 Y142.098 E73.48928
G1 X189.152 Y162.602 E75.12764
G1 X186.337 Y162.602 E75.35257
G1 X185.955 Y162.642 E75.38326
G1 X185.756 Y162.706 E75.39996
G1 X185.459 Y162.626 E75.42454
G1 X185.163 Y162.602 E75.44827
G1 X167.747 Y162.602 E76.83988
G1 X167.365 Y162.642 E76.87057
G1 X167 Y162.76 E76.90122
G1 X166.667 Y162.951 E76.9319
G1 X166.44 Y163.143 E76.95565
G1 X165.699 Y163.884 E77.03939
G1 X165.457 Y164.183 E77.07012
G1 X165.282 Y164.524 E77.10075
G1 X165.182 Y164.895 E77.13145
G1 X165.158 Y165.191 E77.15518
G1 X165.159 Y172.602 E77.74735
G1 X134.842 Y172.602 E80.1698
G1 X134.841 Y165.191 E80.76197
G1 X134.801 Y164.809 E80.79266
G1 X134.683 Y164.444 E80.82331
G1 X134.492 Y164.11 E80.85406
G1 X134.3 Y163.884 E80.87775
G1 X133.559 Y163.143 E80.96149
G1 X133.26 Y162.901 E80.99222
G1 X132.919 Y162.726 E81.02285
G1 X132.548 Y162.626 E81.05355
G1 X132.252 Y162.602 E81.07728
G1 X114.836 Y162.602 E82.46889
G1 X114.454 Y162.642 E82.49958
G1 X114.256 Y162.706 E82.51621
G1 X113.959 Y162.626 E82.54079
G1 X113.663 Y162.602 E82.56452
G1 X110.848 Y162.602 E82.78945
G1 X110.848 Y142.098 E84.4278
G1 X113.664 Y142.098 E84.65281
G0 F6000 X113.664 Y141.57
G1 F1200 X113.986 Y141.53 E84.67874
G1 X114.256 Y141.426 E84.70186
G1 X114.456 Y141.514 E84.71932
G1 X114.837 Y141.57 E84.75009
G1 X132.253 Y141.57 E86.1417
G1 X132.575 Y141.53 E86.16762
G1 X132.877 Y141.413 E86.1935
G1 X133.186 Y141.183 E86.22428
G1 X133.927 Y140.442 E86.30802
G1 X134.127 Y140.187 E86.33391
G1 X134.258 Y139.89 E86.35985
G1 X134.314 Y139.509 E86.39062
G1 X134.313 Y137.57 E86.54555
G1 X141.289 Y137.57 E87.10297
G1 X141.611 Y137.53 E87.12889
G1 X141.913 Y137.413 E87.15477
G1 X142.222 Y137.183 E87.18555
G1 X142.533 Y136.872 E87.22069
G1 X142.733 Y136.617 E87.24659
G1 X142.864 Y136.32 E87.27253
G1 X142.92 Y135.939 E87.3033
G1 X142.92 Y135.778 E87.31616
G1 X157.08 Y135.777 E88.4476
G1 X157.08 Y135.939 E88.46055
G1 X157.12 Y136.261 E88.48648
G1 X157.237 Y136.563 E88.51235
G1 X157.467 Y136.872 E88.54313
G1 X157.778 Y137.183 E88.57828
G1 X158.033 Y137.383 E88.60417
G1 X158.33 Y137.514 E88.63011
G1 X158.711 Y137.57 E88.66088
G1 X165.686 Y137.57 E89.21821
G1 X165.687 Y139.509 E89.37315
G1 X165.727 Y139.831 E89.39907
G1 X165.844 Y140.134 E89.42503
G1 X166.074 Y140.442 E89.45574
G1 X166.815 Y141.183 E89.53947
G1 X167.07 Y141.383 E89.56537
G1 X167.367 Y141.514 E89.59131
G1 X167.748 Y141.57 E89.62208
G1 X185.163 Y141.57 E91.01361
G1 X185.485 Y141.53 E91.03954
G1 X185.755 Y141.425 E91.06268
