;FLAVOR:Marlin
;TIME:9631
;Filament used: 6.31588m
;Layer height: 0.16
;MINX:61.761
;MINY:80.401
;MINZ:0.28
;MAXX:115.129
;MAXY:179.84
;MAXZ:19.96
;Generated with Cura_SteamEngine 4.13.1
M140 S90
M105
M190 S90
M104 S220
M105
M109 S220
M82 ;absolute extrusion mode
G28 ; home all axes
 M117 Purge extruder
 G92 E0 ; reset extruder
 G1 Z1.0 F3000 ; move z up little to prevent scratching of surface
 G1 X2 Y20 Z0.3 F5000.0 ; move to start-line position
 G1 X2 Y200.0 Z0.3 F1500.0 E15 ; draw 1st line
 G1 X2 Y200.0 Z0.4 F5000.0 ; move to side a little
 G1 X2 Y20 Z0.4 F1500.0 E30 ; draw 2nd line
 G92 E0 ; reset extruder
 G1 Z1.0 F3000 ; move z up little to prevent scratching of surface
G92 E0
G92 E0
G1 F1500 E-5
;LAYER_COUNT:103
;LAYER:0
M107
G1 F300 Z0.48
G0 F6000 X71.041 Y85.422 Z0.48
;TYPE:SKIRT
G1 F300 Z0.28
G1 F1500 E0
G1 F1200 X71.382 Y85.174 E0.02851
G1 X71.75 Y84.946 E0.05778
G1 X72.127 Y84.744 E0.0867
G1 X72.5 Y84.578 E0.1143
G1 X72.901 Y84.432 E0.14315
G1 X73.295 Y84.319 E0.17086
G1 X73.718 Y84.229 E0.2001
G1 X74.137 Y84.171 E0.2287
G1 X74.556 Y84.141 E0.25711
G1 X74.976 Y84.141 E0.2855
G1 X75.394 Y84.171 E0.31384
G1 X75.816 Y84.229 E0.34264
G1 X76.216 Y84.315 E0.3703
G1 X76.652 Y84.44 E0.40096
G1 X77.017 Y84.572 E0.42721
G1 X77.414 Y84.749 E0.4566
G1 X77.792 Y84.95 E0.48554
G1 X78.139 Y85.166 E0.51318
G1 X78.485 Y85.419 E0.54216
G1 X78.802 Y85.683 E0.57005
G1 X79.107 Y85.978 E0.59874
G1 X79.126 Y86 E0.6007
G1 X70.457 Y86 E1.18682
G1 X70.401 Y86.004 E1.19062
G1 X70.424 Y85.978 E1.19297
G1 X70.733 Y85.68 E1.22199
G1 X71.041 Y85.422 E1.24916
G0 F6000 X70.721 Y85.002
G1 F1200 X71.098 Y84.728 E1.28067
G1 X71.482 Y84.49 E1.31121
G1 X71.888 Y84.273 E1.34234
G1 X72.292 Y84.093 E1.37224
G1 X72.742 Y83.929 E1.40462
G1 X73.189 Y83.801 E1.43606
G1 X73.617 Y83.71 E1.46564
G1 X74.086 Y83.645 E1.49766
G1 X74.532 Y83.613 E1.52789
G1 X74.999 Y83.613 E1.55946
G1 X75.446 Y83.645 E1.58976
G1 X75.915 Y83.71 E1.62178
G1 X76.344 Y83.802 E1.65144
G1 X76.803 Y83.933 E1.68371
G1 X77.216 Y84.083 E1.71342
G1 X77.647 Y84.275 E1.74532
G1 X78.054 Y84.492 E1.77651
G1 X78.44 Y84.732 E1.80724
G1 X78.809 Y85.001 E1.83811
G1 X79.157 Y85.292 E1.86878
G1 X79.483 Y85.607 E1.89943
G1 X79.793 Y85.952 E1.93079
G1 X80.083 Y86.323 E1.96263
G1 X80.221 Y86.528 E1.97934
G1 X70.457 Y86.528 E2.63949
G1 X69.935 Y86.568 E2.67489
G1 X69.425 Y86.687 E2.7103
G1 X69.135 Y86.803 E2.73142
G1 X69.203 Y86.687 E2.74051
G1 X69.448 Y86.323 E2.77017
G1 X69.738 Y85.952 E2.80201
G1 X70.048 Y85.607 E2.83337
G1 X70.37 Y85.296 E2.86364
G1 X70.721 Y85.002 E2.89459
G0 F6000 X70.389 Y84.591
G1 F1200 X70.798 Y84.294 E2.92877
G1 X71.233 Y84.024 E2.96338
G1 X71.644 Y83.804 E2.9949
G1 X72.103 Y83.6 E3.02886
G1 X72.579 Y83.426 E3.06313
G1 X73.055 Y83.29 E3.0966
G1 X73.532 Y83.189 E3.12957
G1 X74.02 Y83.121 E3.16288
G1 X74.523 Y83.085 E3.19697
G1 X75.009 Y83.085 E3.22983
G1 X75.511 Y83.121 E3.26386
G1 X76.003 Y83.189 E3.29744
G1 X76.465 Y83.288 E3.32939
G1 X76.97 Y83.432 E3.36489
G1 X77.428 Y83.599 E3.39785
G1 X77.862 Y83.792 E3.42997
G1 X78.329 Y84.041 E3.46575
G1 X78.718 Y84.283 E3.49672
G1 X79.142 Y84.591 E3.53216
G1 X79.518 Y84.906 E3.56532
G1 X79.868 Y85.244 E3.59822
G1 X80.195 Y85.608 E3.6313
G1 X80.512 Y86.014 E3.66613
G1 X80.778 Y86.409 E3.69832
G1 X81.027 Y86.839 E3.73192
G1 X81.132 Y87.056 E3.74822
G1 X70.457 Y87.056 E4.46997
G1 X69.977 Y87.096 E4.50253
G1 X69.51 Y87.215 E4.53512
G1 X69.07 Y87.409 E4.56763
G1 X68.667 Y87.673 E4.6002
G1 X68.404 Y87.907 E4.624
G1 X68.155 Y88.156 E4.64781
G1 X67.882 Y88.477 E4.6763
G1 X67.948 Y88.215 E4.69457
G1 X68.104 Y87.734 E4.72876
G1 X68.284 Y87.289 E4.76121
G1 X68.495 Y86.857 E4.79372
G1 X68.756 Y86.404 E4.82907
G1 X69.019 Y86.014 E4.86087
G1 X69.336 Y85.608 E4.8957
G1 X69.663 Y85.244 E4.92878
G1 X70.015 Y84.904 E4.96187
G1 X70.389 Y84.591 E4.99484
G0 F6000 X70.065 Y84.174
G1 F1200 X70.507 Y83.852 E5.03182
G1 X70.947 Y83.579 E5.06683
G1 X71.433 Y83.319 E5.10409
G1 X71.9 Y83.112 E5.13863
G1 X72.415 Y82.923 E5.17572
G1 X72.917 Y82.78 E5.21101
G1 X73.445 Y82.668 E5.2475
G1 X73.97 Y82.595 E5.28334
G1 X74.5 Y82.557 E5.31927
G1 X75.032 Y82.557 E5.35524
G1 X75.561 Y82.595 E5.39109
G1 X76.09 Y82.668 E5.4272
G1 X76.607 Y82.779 E5.46295
G1 X77.134 Y82.93 E5.50002
G1 X77.615 Y83.104 E5.5346
G1 X78.106 Y83.323 E5.57095
G1 X78.581 Y83.576 E5.60734
G1 X79.019 Y83.849 E5.64223
G1 X79.466 Y84.174 E5.6796
G1 X79.865 Y84.508 E5.71478
G1 X80.255 Y84.884 E5.75141
G1 X80.596 Y85.265 E5.78598
G1 X80.934 Y85.697 E5.82306
G1 X81.23 Y86.136 E5.85886
G1 X81.496 Y86.596 E5.89479
G1 X81.729 Y87.076 E5.93086
G1 X81.926 Y87.56 E5.96619
G1 X81.933 Y87.584 E5.96788
G1 X70.457 Y87.584 E6.74379
G1 X70.023 Y87.624 E6.77326
G1 X69.604 Y87.742 E6.80269
G1 X69.214 Y87.935 E6.83211
G1 X68.777 Y88.28 E6.86975
G1 X68.528 Y88.529 E6.89356
G1 X68.249 Y88.864 E6.92304
G1 X68.037 Y89.244 E6.95246
G1 X67.897 Y89.656 E6.98188
G1 X67.832 Y90.209 E7.01952
G1 X67.832 Y93.338 E7.23108
G1 X67.804 Y93.282 E7.23531
G1 X67.6 Y92.774 E7.27232
G1 X67.438 Y92.275 E7.30779
G1 X67.309 Y91.757 E7.34389
G1 X67.216 Y91.232 E7.37994
G1 X67.162 Y90.712 E7.41528
G1 X67.143 Y90.17 E7.45195
G1 X67.162 Y89.64 E7.48781
G1 X67.216 Y89.12 E7.52315
G1 X67.309 Y88.589 E7.5596
G1 X67.437 Y88.079 E7.59515
G1 X67.607 Y87.557 E7.63227
G1 X67.802 Y87.072 E7.66761
G1 X68.029 Y86.608 E7.70254
G1 X68.305 Y86.131 E7.7398
G1 X68.597 Y85.697 E7.77516
G1 X68.935 Y85.265 E7.81225
G1 X69.276 Y84.884 E7.84682
G1 X69.668 Y84.506 E7.88364
G1 X70.065 Y84.174 E7.91863
G0 F6000 X69.734 Y83.762
G1 F1200 X70.214 Y83.413 E7.95876
G1 X70.691 Y83.117 E7.99671
G1 X71.189 Y82.851 E8.03488
G1 X71.71 Y82.619 E8.07344
G1 X72.256 Y82.42 E8.11273
G1 X72.797 Y82.265 E8.15078
G1 X73.343 Y82.149 E8.18852
G1 X73.918 Y82.069 E8.22777
G1 X74.477 Y82.029 E8.26567
G1 X75.055 Y82.029 E8.30474
G1 X75.613 Y82.069 E8.34257
G1 X76.188 Y82.149 E8.38182
G1 X76.717 Y82.262 E8.41839
G1 X77.301 Y82.429 E8.45946
G1 X77.814 Y82.615 E8.49635
G1 X78.339 Y82.849 E8.53522
G1 X78.85 Y83.121 E8.57436
G1 X79.314 Y83.41 E8.61131
G1 X79.79 Y83.757 E8.65114
G1 X80.22 Y84.116 E8.68901
G1 X80.628 Y84.511 E8.72741
G1 X81.004 Y84.929 E8.76542
G1 X81.362 Y85.388 E8.80478
G1 X81.677 Y85.855 E8.84286
G1 X81.962 Y86.347 E8.88131
G1 X82.208 Y86.853 E8.91935
G1 X82.426 Y87.391 E8.9586
G1 X82.605 Y87.942 E8.99777
G1 X82.647 Y88.112 E9.00961
G1 X70.457 Y88.112 E9.83379
G1 X70.075 Y88.152 E9.85975
G1 X69.71 Y88.27 E9.88569
G1 X69.377 Y88.461 E9.91165
G1 X69.15 Y88.653 E9.93175
G1 X68.901 Y88.902 E9.95556
G1 X68.659 Y89.201 E9.98156
G1 X68.484 Y89.542 E10.00748
G1 X68.384 Y89.913 E10.03346
G1 X68.36 Y90.209 E10.05353
G1 X68.36 Y95.208 E10.39152
G1 X68.176 Y94.973 E10.4117
G1 X67.858 Y94.501 E10.45018
G1 X67.558 Y93.981 E10.49077
G1 X67.322 Y93.498 E10.52712
G1 X67.107 Y92.965 E10.56598
G1 X66.931 Y92.424 E10.60444
G1 X66.791 Y91.858 E10.64386
G1 X66.693 Y91.309 E10.68157
G1 X66.636 Y90.755 E10.71922
G1 X66.615 Y90.175 E10.75846
G1 X66.636 Y89.596 E10.79763
G1 X66.693 Y89.046 E10.83502
G1 X66.792 Y88.485 E10.87353
G1 X66.93 Y87.933 E10.912
G1 X67.112 Y87.372 E10.95188
G1 X67.322 Y86.85 E10.98992
G1 X67.56 Y86.364 E11.02651
G1 X67.855 Y85.853 E11.0664
G1 X68.169 Y85.388 E11.10434
G1 X68.527 Y84.929 E11.1437
G1 X68.903 Y84.511 E11.18171
G1 X69.313 Y84.115 E11.22025
G1 X69.734 Y83.762 E11.25739
G0 F6000 X69.41 Y83.344
G1 F1200 X69.917 Y82.976 E11.29975
G1 X70.43 Y82.657 E11.34059
G1 X70.961 Y82.373 E11.38131
G1 X71.503 Y82.133 E11.42139
G1 X72.093 Y81.917 E11.46387
G1 X72.663 Y81.754 E11.50395
G1 X73.258 Y81.627 E11.54508
G1 X73.853 Y81.545 E11.58569
G1 X74.468 Y81.501 E11.62738
G1 X75.064 Y81.501 E11.66768
G1 X75.678 Y81.545 E11.7093
G1 X76.273 Y81.627 E11.7499
G1 X76.855 Y81.752 E11.79015
G1 X77.46 Y81.925 E11.8327
G1 X78.009 Y82.124 E11.87218
G1 X78.572 Y82.375 E11.91385
G1 X79.113 Y82.663 E11.95529
G1 X79.616 Y82.976 E11.99535
G1 X80.106 Y83.333 E12.03634
G1 X80.581 Y83.731 E12.07824
G1 X81.008 Y84.144 E12.1184
G1 X81.406 Y84.586 E12.15861
G1 X81.791 Y85.08 E12.20096
G1 X82.125 Y85.574 E12.24128
G1 X82.431 Y86.104 E12.28266
G1 X82.693 Y86.642 E12.32311
G1 X82.92 Y87.201 E12.36391
G1 X83.112 Y87.796 E12.40618
G1 X83.251 Y88.351 E12.44486
G1 X83.302 Y88.64 E12.4647
G1 X70.457 Y88.64 E13.33317
G1 X70.135 Y88.68 E13.35511
G1 X69.833 Y88.797 E13.377
G1 X69.524 Y89.027 E13.40305
G1 X69.275 Y89.276 E13.42686
G1 X69.075 Y89.531 E13.44877
G1 X68.944 Y89.828 E13.47071
G1 X68.888 Y90.209 E13.49675
G1 X68.888 Y96.557 E13.92595
G1 X68.52 Y96.201 E13.96057
G1 X68.119 Y95.757 E14.00102
G1 X67.746 Y95.279 E14.04201
G1 X67.413 Y94.785 E14.08229
G1 X67.092 Y94.23 E14.12564
G1 X66.837 Y93.708 E14.16492
G1 X66.61 Y93.145 E14.20596
G1 X66.421 Y92.565 E14.2472
G1 X66.278 Y91.986 E14.28753
G1 X66.17 Y91.376 E14.32941
G1 X66.108 Y90.783 E14.36972
G1 X66.087 Y90.175 E14.41085
G1 X66.108 Y89.566 E14.45205
G1 X66.17 Y88.97 E14.49257
G1 X66.274 Y88.38 E14.53307
G1 X66.425 Y87.773 E14.57536
G1 X66.612 Y87.2 E14.61612
G1 X66.835 Y86.646 E14.65649
G1 X67.097 Y86.11 E14.69683
G1 X67.41 Y85.57 E14.73903
G1 X67.74 Y85.08 E14.77897
G1 X68.125 Y84.586 E14.82132
G1 X68.523 Y84.144 E14.86153
G1 X68.958 Y83.723 E14.90246
G1 X69.41 Y83.344 E14.94234
G0 F6000 X69.08 Y82.932
G1 F1200 X69.623 Y82.537 E14.98774
G1 X70.163 Y82.202 E15.03071
G1 X70.728 Y81.9 E15.07402
G1 X71.313 Y81.64 E15.11731
G1 X71.921 Y81.418 E15.16107
G1 X72.539 Y81.241 E15.20453
G1 X73.173 Y81.106 E15.24836
G1 X73.801 Y81.019 E15.29122
G1 X74.445 Y80.973 E15.33488
G1 X75.087 Y80.973 E15.37828
G1 X75.73 Y81.019 E15.42187
G1 X76.361 Y81.106 E15.46493
G1 X76.994 Y81.242 E15.50871
G1 X77.623 Y81.422 E15.55294
G1 X78.209 Y81.634 E15.59508
G1 X78.799 Y81.898 E15.63878
G1 X79.377 Y82.205 E15.68303
G1 X79.911 Y82.538 E15.72558
G1 X80.43 Y82.916 E15.76899
G1 X80.928 Y83.332 E15.81286
G1 X81.395 Y83.784 E15.8568
G1 X81.807 Y84.243 E15.8985
G1 X82.22 Y84.771 E15.94383
G1 X82.574 Y85.297 E15.98669
G1 X82.897 Y85.854 E16.03023
G1 X83.174 Y86.424 E16.07307
G1 X83.414 Y87.015 E16.1162
G1 X83.622 Y87.658 E16.16189
G1 X83.768 Y88.241 E16.20253
G1 X83.884 Y88.895 E16.24744
G1 X83.912 Y89.168 E16.26599
G1 X70.457 Y89.168 E17.1757
G1 X70.209 Y89.208 E17.19268
G1 X69.897 Y89.4 E17.21745
G1 X69.648 Y89.649 E17.24126
G1 X69.501 Y89.852 E17.25821
G1 X69.416 Y90.209 E17.28302
G1 X69.416 Y97.661 E17.78686
G1 X69.097 Y97.43 E17.81349
G1 X68.602 Y97.014 E17.8572
G1 X68.14 Y96.568 E17.90062
G1 X67.712 Y96.093 E17.94385
G1 X67.317 Y95.588 E17.9872
G1 X66.963 Y95.062 E18.03006
G1 X66.632 Y94.49 E18.07475
G1 X66.356 Y93.924 E18.11732
G1 X66.111 Y93.317 E18.16158
G1 X65.915 Y92.714 E18.20445
G1 X65.76 Y92.088 E18.24805
G1 X65.647 Y91.452 E18.29172
G1 X65.581 Y90.812 E18.33523
G1 X65.558 Y90.17 E18.37866
G1 X65.581 Y89.538 E18.42142
G1 X65.648 Y88.892 E18.46533
G1 X65.759 Y88.261 E18.50865
G1 X65.914 Y87.64 E18.55192
G1 X66.114 Y87.023 E18.59577
G1 X66.354 Y86.429 E18.63909
G1 X66.631 Y85.861 E18.68182
G1 X66.964 Y85.286 E18.72674
G1 X67.311 Y84.771 E18.76873
G1 X67.724 Y84.243 E18.81405
G1 X68.136 Y83.784 E18.85575
G1 X68.611 Y83.325 E18.90041
G1 X69.08 Y82.932 E18.94178
G0 F6000 X68.758 Y82.513
G1 F1200 X69.333 Y82.095 E18.98985
G1 X69.9 Y81.743 E19.03497
G1 X70.5 Y81.423 E19.08094
G1 X71.104 Y81.154 E19.12565
G1 X71.762 Y80.914 E19.173
G1 X72.419 Y80.726 E19.21921
G1 X73.071 Y80.587 E19.26428
G1 X73.749 Y80.493 E19.31056
G1 X74.422 Y80.445 E19.35618
G1 X75.11 Y80.445 E19.40269
G1 X75.782 Y80.493 E19.44824
G1 X76.46 Y80.587 E19.49452
G1 X77.104 Y80.725 E19.53905
G1 X77.793 Y80.922 E19.5875
G1 X78.408 Y81.145 E19.63173
G1 X79.032 Y81.424 E19.67795
G1 X79.639 Y81.746 E19.7244
G1 X80.211 Y82.103 E19.76999
G1 X80.756 Y82.5 E19.81558
G1 X81.283 Y82.941 E19.86204
G1 X81.779 Y83.42 E19.90866
G1 X82.211 Y83.902 E19.95242
G1 X82.651 Y84.465 E20.00073
G1 X83.026 Y85.022 E20.04613
G1 X83.362 Y85.603 E20.09151
G1 X83.654 Y86.203 E20.13663
G1 X83.917 Y86.852 E20.18397
G1 X84.125 Y87.494 E20.2296
G1 X84.285 Y88.132 E20.27407
G1 X84.406 Y88.814 E20.3209
G1 X84.477 Y89.497 E20.36733
G1 X84.484 Y89.696 E20.38079
G1 X70.457 Y89.696 E21.32918
G1 X70.27 Y89.773 E21.34285
G1 X70.021 Y90.022 E21.36666
G1 X69.944 Y90.209 E21.38033
G1 X69.944 Y98.63 E21.94968
G1 X69.895 Y98.604 E21.95343
G1 X69.328 Y98.249 E21.99866
G1 X68.765 Y97.841 E22.04567
G1 X68.254 Y97.412 E22.09078
G1 X67.752 Y96.926 E22.13803
G1 X67.31 Y96.436 E22.18264
G1 X66.886 Y95.894 E22.22917
G1 X66.517 Y95.346 E22.27384
G1 X66.159 Y94.726 E22.32224
G1 X65.876 Y94.145 E22.36594
G1 X65.614 Y93.496 E22.41326
G1 X65.403 Y92.846 E22.45946
G1 X65.243 Y92.201 E22.50439
G1 X65.124 Y91.532 E22.55033
G1 X65.054 Y90.85 E22.59669
G1 X65.03 Y90.17 E22.64269
G1 X65.054 Y89.499 E22.68809
G1 X65.125 Y88.814 E22.73465
G1 X65.243 Y88.146 E22.78051
G1 X65.407 Y87.491 E22.82616
G1 X65.617 Y86.844 E22.87216
G1 X65.875 Y86.204 E22.91881
G1 X66.161 Y85.619 E22.96284
G1 X66.515 Y85.007 E23.01064
G1 X66.88 Y84.465 E23.05482
G1 X67.32 Y83.902 E23.10313
G1 X67.752 Y83.42 E23.14689
G1 X68.258 Y82.931 E23.19447
G1 X68.758 Y82.513 E23.23853
G1 F1500 E18.23853
G1 F300 Z0.48
G0 F6000 X78.242 Y96.594 Z0.48
G1 F300 Z0.28
G1 F1500 E23.23853
G1 F1200 X82.078 Y96.594 E23.49789
G1 X81.779 Y96.926 E23.5281
G1 X81.277 Y97.412 E23.57534
G1 X80.762 Y97.845 E23.62083
G1 X80.206 Y98.248 E23.66726
G1 X79.627 Y98.61 E23.71342
G1 X79.035 Y98.925 E23.75876
G1 X78.409 Y99.204 E23.8051
G1 X78.242 Y99.265 E23.81712
G1 X78.242 Y96.594 E23.99771
G0 F6000 X78.77 Y97.122
G1 F1200 X80.802 Y97.122 E24.1351
G1 X80.446 Y97.421 E24.16653
G1 X79.905 Y97.814 E24.21174
G1 X79.365 Y98.151 E24.25478
G1 X78.802 Y98.451 E24.29791
G1 X78.77 Y98.465 E24.30027
G1 X78.77 Y97.122 E24.39107
G1 F1500 E19.39107
G1 F300 Z0.48
G0 F6000 X95.799 Y89.696 Z0.48
G1 F300 Z0.28
G1 F1500 E24.39107
G1 F1200 X95.827 Y89.538 E24.40192
G1 X95.991 Y88.878 E24.4479
G1 X96.2 Y88.233 E24.49374
G1 X96.455 Y87.605 E24.53957
G1 X96.751 Y86.997 E24.58529
G1 X97.092 Y86.407 E24.63136
G1 X97.464 Y85.854 E24.67643
G1 X97.9 Y85.296 E24.7243
G1 X98.35 Y84.796 E24.76978
G1 X98.837 Y84.326 E24.81554
G1 X99.361 Y83.888 E24.86172
G1 X99.9 Y83.496 E24.90678
G1 X100.488 Y83.129 E24.95364
G1 X101.08 Y82.814 E24.99898
G1 X101.706 Y82.535 E25.04532
G1 X102.322 Y82.311 E25.08964
G1 X102.998 Y82.117 E25.13719
G1 X103.664 Y81.975 E25.18323
G1 X104.336 Y81.881 E25.22911
G1 X105.005 Y81.834 E25.27445
G1 X105.693 Y81.834 E25.32097
G1 X106.363 Y81.881 E25.36638
G1 X107.035 Y81.975 E25.41225
G1 X107.703 Y82.117 E25.45843
G1 X108.367 Y82.308 E25.50514
G1 X108.994 Y82.535 E25.55023
G1 X109.619 Y82.815 E25.59653
G1 X110.215 Y83.132 E25.64217
G1 X110.787 Y83.49 E25.6878
G1 X111.348 Y83.896 E25.73462
G1 X111.871 Y84.334 E25.78074
G1 X112.349 Y84.796 E25.82569
G1 X112.799 Y85.296 E25.87117
G1 X113.235 Y85.854 E25.91904
G1 X113.597 Y86.392 E25.96289
G1 X113.956 Y87.013 E26.01138
G1 X114.238 Y87.59 E26.05481
G1 X114.501 Y88.243 E26.1024
G1 X114.712 Y88.893 E26.14861
G1 X114.871 Y89.535 E26.19333
G1 X114.989 Y90.197 E26.23879
G1 X115.061 Y90.889 E26.28583
G1 X115.085 Y91.564 E26.3315
G1 X115.061 Y92.24 E26.37723
G1 X114.99 Y92.926 E26.42386
G1 X114.872 Y93.59 E26.46946
G1 X114.715 Y94.225 E26.51368
G1 X114.501 Y94.885 E26.56059
G1 X114.239 Y95.534 E26.60791
G1 X113.956 Y96.115 E26.65161
G1 X113.598 Y96.735 E26.70001
G1 X113.235 Y97.274 E26.74395
G1 X112.795 Y97.837 E26.79226
G1 X112.363 Y98.319 E26.83602
G1 X111.867 Y98.798 E26.88264
G1 X111.346 Y99.234 E26.92857
G1 X110.794 Y99.634 E26.97466
G1 X110.215 Y99.996 E27.02083
G1 X109.61 Y100.318 E27.06717
G1 X109.011 Y100.585 E27.11151
G1 X108.353 Y100.825 E27.15887
G1 X107.696 Y101.013 E27.20507
G1 X107.044 Y101.152 E27.25014
G1 X106.366 Y101.246 E27.29642
G1 X105.792 Y101.287 E27.33533
G1 X105.792 Y90.209 E28.08433
G1 X105.715 Y90.022 E28.098
G1 X105.466 Y89.773 E28.12181
G1 X105.279 Y89.696 E28.13548
G1 X95.799 Y89.696 E28.77643
G0 F6000 X96.464 Y89.168
G1 F1200 X96.502 Y89.013 E28.78722
G1 X96.696 Y88.414 E28.8298
G1 X96.937 Y87.821 E28.87307
G1 X97.216 Y87.248 E28.91616
G1 X97.544 Y86.681 E28.96045
G1 X97.895 Y86.16 E29.00292
G1 X98.302 Y85.64 E29.04757
G1 X98.727 Y85.167 E29.09056
