;FLAVOR:Marlin
;TIME:1133
;Filament used: 0.622311m
;Layer height: 0.16
;MINX:137.97
;MINY:138.17
;MINZ:0.28
;MAXX:162.249
;MAXY:161.83
;MAXZ:13.28
;Generated with Cura_SteamEngine 4.13.1
M140 S80
M105
M190 S80
M104 S220
M105
M109 S220
M82 ;absolute extrusion mode
G28 ; home all axes
 M117 Purge extruder
 G92 E0 ; reset extruder
 G1 Z1.0 F3000 ; move z up little to prevent scratching of surface
 G1 X2 Y20 Z0.3 F5000.0 ; move to start-line position
 G1 X2 Y200.0 Z0.3 F1500.0 E15 ; draw 1st line
 G1 X2 Y200.0 Z0.4 F5000.0 ; move to side a little
 G1 X2 Y20 Z0.4 F1500.0 E30 ; draw 2nd line
 G92 E0 ; reset extruder
 G1 Z1.0 F3000 ; move z up little to prevent scratching of surface
G92 E0
G92 E0
G1 F1500 E-5
;LAYER_COUNT:66
;LAYER:0
M107
G1 F300 Z0.48
G0 F6000 X160.942 Y141.742 Z0.48
;TYPE:SKIRT
G1 F300 Z0.28
G1 F1500 E0
G1 F1200 X161.458 Y141.742 E0.03172
G1 X161.458 Y158.258 E1.04687
G1 X160.942 Y158.258 E1.07858
G1 X160.942 Y141.742 E2.09373
G0 F6000 X160.414 Y141.214
G1 F1200 X161.986 Y141.214 E2.19036
G1 X161.986 Y158.786 E3.27042
G1 X160.414 Y158.786 E3.36704
G1 X160.414 Y141.214 E4.4471
G1 F1500 E-0.5529
G1 F300 Z0.48
;MESH:supportUSB.amf
G0 F6000 X139.07 Y156.43 Z0.48
;TYPE:WALL-INNER
G1 F300 Z0.28
G1 F1500 E4.4471
G1 F1200 X139.07 Y143.57 E5.23753
G1 X158.43 Y143.57 E6.42749
G1 X158.43 Y156.43 E7.21793
G1 X139.07 Y156.43 E8.40788
G0 F6000 X138.542 Y156.958
G1 F1200 X138.542 Y143.042 E9.26323
G1 X158.542 Y143.042 E10.49252
G1 X158.542 Y138.742 E10.75682
G1 X158.958 Y138.742 E10.78239
G1 X158.958 Y143.042 E10.99102
G1 X158.958 Y156.958 E11.84636
G1 X158.958 Y161.258 E12.11066
G1 X158.542 Y161.258 E12.13623
G1 X158.542 Y156.958 E12.34486
G1 X138.542 Y156.958 E13.57415
G0 F6000 X138.014 Y157.486
;TYPE:WALL-OUTER
G1 F1200 X138.014 Y142.514 E14.4944
G1 X158.014 Y142.514 E15.7237
G1 X158.014 Y138.214 E15.988
G1 X159.486 Y138.214 E16.07847
G1 X159.486 Y161.786 E17.52732
G1 X158.014 Y161.786 E17.6178
G1 X158.014 Y157.486 E17.88209
G1 X138.014 Y157.486 E19.11139
G1 F1500 E14.11139
G1 F300 Z0.48
G0 F6000 X139.612 Y155.888 Z0.48
;TYPE:SKIN
G1 F300 Z0.28
G1 F1500 E19.11139
G1 F1200 X139.612 Y144.112 E19.901
G1 X157.888 Y144.112 E21.12645
G1 X157.888 Y155.888 E21.91606
G1 X139.612 Y155.888 E23.14151
G0 F6000 X140.168 Y155.645
G1 F1200 X139.854 Y155.331 E23.17128
G0 F6000 X139.854 Y154.516
G1 F1200 X140.982 Y155.645 E23.2783
G0 F6000 X141.797 Y155.645
G1 F1200 X139.854 Y153.702 E23.46254
G0 F6000 X139.854 Y152.887
G1 F1200 X142.612 Y155.645 E23.72407
G0 F6000 X143.426 Y155.645
G1 F1200 X139.854 Y152.073 E24.06279
G0 F6000 X139.854 Y151.258
G1 F1200 X144.241 Y155.645 E24.4788
G0 F6000 X145.055 Y155.645
G1 F1200 X139.854 Y150.444 E24.97199
G0 F6000 X139.854 Y149.629
G1 F1200 X145.87 Y155.645 E25.54247
G0 F6000 X146.685 Y155.645
G1 F1200 X139.854 Y148.814 E26.19023
G0 F6000 X139.854 Y148
G1 F1200 X147.499 Y155.645 E26.91517
G0 F6000 X148.314 Y155.645
G1 F1200 X139.854 Y147.185 E27.71741
G0 F6000 X139.854 Y146.371
G1 F1200 X149.128 Y155.645 E28.59683
G0 F6000 X149.943 Y155.645
G1 F1200 X139.854 Y145.556 E29.55353
G0 F6000 X139.854 Y144.741
G1 F1200 X150.757 Y155.645 E30.58747
G0 F6000 X151.572 Y155.645
G1 F1200 X140.28 Y144.353 E31.65825
G0 F6000 X141.095 Y144.353
G1 F1200 X152.387 Y155.645 E32.72903
G0 F6000 X153.201 Y155.645
G1 F1200 X141.909 Y144.353 E33.79981
G0 F6000 X142.724 Y144.353
G1 F1200 X154.016 Y155.645 E34.87059
G0 F6000 X154.83 Y155.645
G1 F1200 X143.539 Y144.353 E35.94133
G0 F6000 X144.353 Y144.353
G1 F1200 X155.645 Y155.645 E37.01211
G0 F6000 X156.46 Y155.645
G1 F1200 X145.168 Y144.353 E38.08289
G0 F6000 X145.982 Y144.353
G1 F1200 X157.274 Y155.645 E39.15367
G0 F6000 X157.645 Y155.201
G1 F1200 X146.797 Y144.353 E40.18234
G0 F6000 X147.612 Y144.353
G1 F1200 X157.645 Y154.386 E41.13374
G0 F6000 X157.645 Y153.572
G1 F1200 X148.426 Y144.353 E42.00794
G0 F6000 X149.241 Y144.354
G1 F1200 X157.645 Y152.757 E42.80482
G0 F6000 X157.645 Y151.943
G1 F1200 X150.056 Y144.354 E43.52446
G0 F6000 X150.871 Y144.354
G1 F1200 X157.645 Y151.128 E44.16681
G0 F6000 X157.645 Y150.313
G1 F1200 X151.685 Y144.354 E44.73193
G0 F6000 X152.5 Y144.354
G1 F1200 X157.645 Y149.499 E45.21981
G0 F6000 X157.645 Y148.684
G1 F1200 X153.314 Y144.354 E45.63046
G0 F6000 X154.129 Y144.354
G1 F1200 X157.645 Y147.87 E45.96387
G0 F6000 X157.645 Y147.055
G1 F1200 X154.944 Y144.354 E46.21999
G0 F6000 X155.758 Y144.354
G1 F1200 X157.645 Y146.24 E46.39888
G0 F6000 X157.645 Y145.426
G1 F1200 X156.573 Y144.354 E46.50054
G0 F6000 X157.387 Y144.354
G1 F1200 X157.645 Y144.611 E46.52495
G1 F1500 E41.52495
G1 F300 Z0.48
;MESH:NONMESH
G0 F6000 X162.029 Y141.17 Z0.48
;TIME_ELAPSED:45.987187
;LAYER:1
M140 S65
M106 S17
;TYPE:SUPPORT
G1 F300 Z0.48
G1 F1500 E46.52495
G1 F1350 X160.37 Y141.17 E46.58565
G1 X160.37 Y158.83 E47.23176
G1 X162.029 Y158.83 E47.29246
G1 X162.03 Y158.829
G1 X162.03 Y158.4 E47.30815
G1 X160.37 Y158.4 E47.36889
G1 F1500 E42.36889
G1 F300 Z0.68
;MESH:supportUSB.amf
G0 F7500 X138.85 Y156.65 Z0.68
;TYPE:WALL-INNER
G1 F300 Z0.48
G1 F1500 E47.36889
G1 F1350 X138.85 Y143.35 E47.85548
G1 X158.65 Y143.35 E48.57989
G1 X158.65 Y156.65 E49.06648
G1 X138.85 Y156.65 E49.79089
G0 F7500 X138.41 Y157.09
G1 F1350 X138.41 Y142.91 E50.30968
G1 X158.41 Y142.91 E51.04141
G1 X158.41 Y138.61 E51.19873
G1 X159.09 Y138.61 E51.2236
G1 X159.09 Y161.39 E52.05704
G1 X158.41 Y161.39 E52.08192
G1 X158.41 Y157.09 E52.23924
G1 X138.41 Y157.09 E52.97096
G0 F7500 X137.97 Y157.53
;TYPE:WALL-OUTER
G1 F1350 X137.97 Y142.47 E53.52195
G1 X157.97 Y142.47 E54.25367
G1 X157.97 Y138.17 E54.41099
G1 X159.53 Y138.17 E54.46806
G1 X159.53 Y161.83 E55.33369
G1 X157.97 Y161.83 E55.39077
G1 X157.97 Y157.53 E55.54809
G1 X137.97 Y157.53 E56.27981
G1 F1500 E51.27981
G1 F300 Z0.68
G0 F7500 X139.3 Y156.2 Z0.68
;TYPE:SKIN
G1 F300 Z0.48
G1 F1500 E56.27981
G1 F1350 X139.3 Y143.8 E56.77472
G1 X158.2 Y143.8 E57.52906
G1 X158.2 Y156.2 E58.02397
G1 X139.3 Y156.2 E58.77831
G1 F1500 E53.77831
G1 F300 Z0.68
G0 F7500 X139.494 Y144.253 Z0.68
G1 F300 Z0.48
G1 F1500 E58.77831
G1 F1350 X139.754 Y143.993 E58.79299
G0 F7500 X140.433 Y143.993
G1 F1350 X139.494 Y144.932 E58.84599
G0 F7500 X139.494 Y145.61
G1 F1350 X141.112 Y143.993 E58.93729
G0 F7500 X141.791 Y143.993
G1 F1350 X139.494 Y146.289 E59.06691
G0 F7500 X139.494 Y146.968
G1 F1350 X142.469 Y143.993 E59.23483
G0 F7500 X143.148 Y143.993
G1 F1350 X139.494 Y147.647 E59.44108
G0 F7500 X139.494 Y148.326
G1 F1350 X143.827 Y143.993 E59.68565
G0 F7500 X144.506 Y143.993
G1 F1350 X139.494 Y149.005 E59.96855
G0 F7500 X139.494 Y149.683
G1 F1350 X145.185 Y143.993 E60.28975
G0 F7500 X145.864 Y143.993
G1 F1350 X139.494 Y150.362 E60.64927
G0 F7500 X139.494 Y151.041
G1 F1350 X146.542 Y143.993 E61.04709
G0 F7500 X147.221 Y143.993
G1 F1350 X139.494 Y151.72 E61.48324
G0 F7500 X139.494 Y152.399
G1 F1350 X147.9 Y143.993 E61.95771
G0 F7500 X148.579 Y143.993
G1 F1350 X139.494 Y153.078 E62.4705
G0 F7500 X139.494 Y153.756
G1 F1350 X149.257 Y143.993 E63.02157
G0 F7500 X149.936 Y143.993
G1 F1350 X139.494 Y154.435 E63.61096
G0 F7500 X139.494 Y155.114
G1 F1350 X150.615 Y143.993 E64.23868
G0 F7500 X151.293 Y143.993
G1 F1350 X139.494 Y155.793 E64.90469
G0 F7500 X139.96 Y156.006
G1 F1350 X151.972 Y143.993 E65.58273
G0 F7500 X152.651 Y143.993
G1 F1350 X140.639 Y156.006 E66.26077
G0 F7500 X141.318 Y156.006
G1 F1350 X153.33 Y143.993 E66.93881
G0 F7500 X154.009 Y143.993
G1 F1350 X141.996 Y156.006 E67.61687
G0 F7500 X142.675 Y156.006
G1 F1350 X154.688 Y143.993 E68.29494
G0 F7500 X155.366 Y143.993
G1 F1350 X143.354 Y156.006 E68.97297
G0 F7500 X144.033 Y156.006
G1 F1350 X156.045 Y143.993 E69.65101
G0 F7500 X156.724 Y143.993
G1 F1350 X144.712 Y156.006 E70.32905
G0 F7500 X145.391 Y156.006
G1 F1350 X157.403 Y143.993 E71.00709
G0 F7500 X158.005 Y144.07
G1 F1350 X146.069 Y156.006 E71.68081
G0 F7500 X146.748 Y156.006
G1 F1350 X158.005 Y144.749 E72.3162
G0 F7500 X158.005 Y145.428
G1 F1350 X147.427 Y156.006 E72.91327
G0 F7500 X148.106 Y156.006
G1 F1350 X158.005 Y146.107 E73.47201
G0 F7500 X158.005 Y146.786
G1 F1350 X148.785 Y156.006 E73.99243
G0 F7500 X149.463 Y156.006
G1 F1350 X158.005 Y147.464 E74.47457
G0 F7500 X158.005 Y148.143
G1 F1350 X150.142 Y156.006 E74.9184
G0 F7500 X150.821 Y156.006
G1 F1350 X158.005 Y148.822 E75.32389
G0 F7500 X158.005 Y149.501
G1 F1350 X151.5 Y156.006 E75.69106
G0 F7500 X152.179 Y156.006
G1 F1350 X158.005 Y150.18 E76.01991
G0 F7500 X158.005 Y150.859
G1 F1350 X152.858 Y156.006 E76.31043
G0 F7500 X153.536 Y156.006
G1 F1350 X158.005 Y151.537 E76.56267
G0 F7500 X158.005 Y152.216
G1 F1350 X154.215 Y156.006 E76.7766
G0 F7500 X154.894 Y156.006
G1 F1350 X158.005 Y152.895 E76.9522
G0 F7500 X158.005 Y153.574
G1 F1350 X155.573 Y156.006 E77.08947
G0 F7500 X156.252 Y156.006
G1 F1350 X158.005 Y154.253 E77.18842
G0 F7500 X158.005 Y154.932
G1 F1350 X156.931 Y156.006 E77.24904
G0 F7500 X157.609 Y156.006
G1 F1350 X158.005 Y155.61 E77.27139
G0 F7500 X158.629 Y156.853
;TYPE:SKIN
G1 F1350 X158.749 Y157.043 E77.27719
G1 X158.768 Y161.069 E77.38105
G1 F1500 E72.38105
G1 F300 Z0.68
G0 F7500 X158.758 Y143.034 Z0.68
G1 F300 Z0.48
G1 F1500 E77.38105
G1 F1350 X158.749 Y142.732 E77.38947
G1 X158.749 Y138.999 E77.49352
G0 F7500 X158.638 Y138.798
G1 F1350 X158.598 Y138.839 E77.49456
G1 F1500 E72.49456
G1 F300 Z0.68
;MESH:NONMESH
G0 F7500 X162.029 Y141.17 Z0.68
;TIME_ELAPSED:89.230071
;LAYER:2
M106 S34
;TYPE:SUPPORT
G1 F300 Z0.68
G1 F1500 E77.49456
G1 X160.37 Y141.17 E77.55526
G1 X160.37 Y158.83 E78.20137
G1 X162.029 Y158.83 E78.26207
G1 X162.03 Y158.829
G1 X162.03 Y158.4 E78.27776
G1 X160.37 Y158.4 E78.3385
G1 F1500 E73.3385
G1 F300 Z0.88
;MESH:supportUSB.amf
G0 F9000 X138.85 Y156.65 Z0.88
;TYPE:WALL-INNER
G1 F300 Z0.68
G1 F1500 E78.3385
G1 X138.85 Y143.35 E78.82509
G1 X158.65 Y143.35 E79.5495
G1 X158.65 Y156.65 E80.03609
G1 X138.85 Y156.65 E80.7605
G0 F9000 X138.41 Y157.09
G1 F1500 X138.41 Y142.91 E81.27929
G1 X158.41 Y142.91 E82.01101
G1 X158.41 Y138.61 E82.16833
G1 X159.09 Y138.61 E82.19321
G1 X159.09 Y161.39 E83.02665
G1 X158.41 Y161.39 E83.05152
G1 X158.41 Y157.09 E83.20884
G1 X138.41 Y157.09 E83.94057
G0 F9000 X137.97 Y157.53
;TYPE:WALL-OUTER
G1 F1500 X137.97 Y142.47 E84.49156
G1 X157.97 Y142.47 E85.22328
G1 X157.97 Y138.17 E85.3806
G1 X159.53 Y138.17 E85.43767
G1 X159.53 Y161.83 E86.3033
G1 X157.97 Y161.83 E86.36038
G1 X157.97 Y157.53 E86.5177
G1 X137.97 Y157.53 E87.24942
G1 F1500 E82.24942
G1 F300 Z0.88
G0 F9000 X139.3 Y156.2 Z0.88
;TYPE:SKIN
G1 F300 Z0.68
G1 F1500 E87.24942
G1 X139.3 Y143.8 E87.74433
G1 X158.2 Y143.8 E88.49867
G1 X158.2 Y156.2 E88.99358
G1 X139.3 Y156.2 E89.74792
G0 F9000 X139.713 Y156.005
G1 F1500 X139.494 Y155.786 E89.76028
G0 F9000 X139.494 Y155.107
G1 F1500 X140.392 Y156.005 E89.81097
G0 F9000 X141.071 Y156.005
G1 F1500 X139.494 Y154.428 E89.89998
G0 F9000 X139.494 Y153.749
G1 F1500 X141.75 Y156.005 E90.02732
G0 F9000 X142.428 Y156.005
G1 F1500 X139.494 Y153.07 E90.19296
G0 F9000 X139.494 Y152.392
G1 F1500 X143.107 Y156.005 E90.39689
G0 F9000 X143.786 Y156.005
G1 F1500 X139.494 Y151.713 E90.63915
G0 F9000 X139.494 Y151.034
G1 F1500 X144.465 Y156.005 E90.91973
G0 F9000 X145.144 Y156.005
G1 F1500 X139.494 Y150.355 E91.23864
G0 F9000 X139.494 Y149.676
G1 F1500 X145.823 Y156.005 E91.59588
G0 F9000 X146.501 Y156.005
G1 F1500 X139.494 Y148.998 E91.99138
G0 F9000 X139.494 Y148.319
G1 F1500 X147.18 Y156.005 E92.42522
G0 F9000 X147.859 Y156.005
G1 F1500 X139.494 Y147.64 E92.89737
G0 F9000 X139.494 Y146.961
G1 F1500 X148.538 Y156.005 E93.40785
G0 F9000 X149.217 Y156.005
G1 F1500 X139.494 Y146.282 E93.95666
G0 F9000 X139.494 Y145.603
G1 F1500 X149.896 Y156.005 E94.5438
G0 F9000 X150.574 Y156.005
G1 F1500 X139.494 Y144.925 E95.1692
G0 F9000 X139.494 Y144.246
G1 F1500 X151.253 Y156.005 E95.83293
G0 F9000 X151.932 Y156.005
G1 F1500 X139.92 Y143.993 E96.51094
G0 F9000 X140.599 Y143.993
G1 F1500 X152.611 Y156.005 E97.18895
G0 F9000 X153.29 Y156.005
G1 F1500 X141.278 Y143.993 E97.86696
G0 F9000 X141.957 Y143.993
G1 F1500 X153.968 Y156.005 E98.54494
G0 F9000 X154.647 Y156.005
G1 F1500 X142.636 Y143.993 E99.22292
G0 F9000 X143.314 Y143.993
G1 F1500 X155.326 Y156.005 E99.90093
G0 F9000 X156.005 Y156.005
G1 F1500 X143.993 Y143.993 E100.57894
G0 F9000 X144.672 Y143.993
G1 F1500 X156.684 Y156.005 E101.25695
G0 F9000 X157.363 Y156.005
G1 F1500 X145.351 Y143.993 E101.93495
G0 F9000 X146.03 Y143.993
G1 F1500 X158.005 Y155.969 E102.6109
G0 F9000 X158.005 Y155.29
G1 F1500 X146.709 Y143.993 E103.24853
G0 F9000 X147.387 Y143.993
G1 F1500 X158.005 Y154.611 E103.84785
G0 F9000 X158.005 Y153.932
G1 F1500 X148.066 Y143.993 E104.40885
G0 F9000 X148.745 Y143.993
G1 F1500 X158.005 Y153.254 E104.93156
G0 F9000 X158.005 Y152.575
G1 F1500 X149.425 Y143.994 E105.41588
G0 F9000 X150.103 Y143.994
G1 F1500 X158.005 Y151.896 E105.8619
G0 F9000 X158.005 Y151.217
G1 F1500 X150.782 Y143.994 E106.2696
G0 F9000 X151.461 Y143.994
G1 F1500 X158.005 Y150.538 E106.63897
G0 F9000 X158.005 Y149.859
G1 F1500 X152.14 Y143.994 E106.97001
G0 F9000 X152.819 Y143.994
G1 F1500 X158.005 Y149.181 E107.26276
G0 F9000 X158.005 Y148.502
G1 F1500 X153.498 Y143.994 E107.51719
G0 F9000 X154.176 Y143.994
G1 F1500 X158.005 Y147.823 E107.73331
G0 F9000 X158.005 Y147.144
G1 F1500 X154.855 Y143.994 E107.91111
G0 F9000 X155.534 Y143.994
G1 F1500 X158.005 Y146.465 E108.05058
G0 F9000 X158.005 Y145.787
G1 F1500 X156.213 Y143.994 E108.15176
G0 F9000 X156.892 Y143.994
G1 F1500 X158.005 Y145.108 E108.21461
G0 F9000 X158.005 Y144.429
G1 F1500 X157.57 Y143.994 E108.23916
G0 F9000 X158.665 Y143.108
;TYPE:SKIN
G1 F1500 X158.749 Y142.881 E108.24542
G1 X158.749 Y139.148 E108.34182
G1 X158.805 Y138.893 E108.34856
G1 F1500 E103.34856
G1 F300 Z0.88
G0 F9000 X158.796 Y156.929 Z0.88
G1 F300 Z0.68
G1 F1500 E108.34856
G1 X158.749 Y157.193 E108.35589
G1 X158.749 Y160.927 E108.45796
G0 F9000 X158.71 Y161.199
G1 F1500 X158.598 Y161.087 E108.46086
G1 F1500 E103.46086
G1 F300 Z0.88
;MESH:NONMESH
G0 F9000 X162.029 Y141.17 Z0.88
;TIME_ELAPSED:128.925793
;LAYER:3
M106 S51
;TYPE:SUPPORT
G1 F300 Z0.88
G1 F1500 E108.46086
G1 X160.37 Y141.17 E108.52155
G1 X160.37 Y158.4 E109.15193
G1 X162.03 Y158.4 E109.21267
G1 X162.03 Y149.6 E109.53462
G1 X160.37 Y149.6 E109.59536
G1 F1500 E104.59536
G1 F300 Z1.08
;MESH:supportUSB.amf
G0 F9000 X138.85 Y156.65 Z1.08
;TYPE:WALL-INNER
G1 F300 Z0.88
G1 F1500 E109.59536
G1 X138.85 Y143.35 E110.08195
G1 X158.65 Y143.35 E110.80636
G1 X158.65 Y156.65 E111.29295
G1 X138.85 Y156.65 E112.01736
G0 F9000 X138.41 Y157.09
G1 F1500 X138.41 Y142.91 E112.53615
G1 X158.41 Y142.91 E113.26787
G1 X158.41 Y138.61 E113.4252
G1 X159.09 Y138.61 E113.45007
G1 X159.09 Y161.39 E114.28351
G1 X158.41 Y161.39 E114.30838
G1 X158.41 Y157.09 E114.46571
G1 X138.41 Y157.09 E115.19743
G0 F9000 X137.97 Y157.53
;TYPE:WALL-OUTER
G1 F1500 X137.97 Y142.47 E115.74842
G1 X157.97 Y142.47 E116.48014
G1 X157.97 Y138.17 E116.63746
G1 X159.53 Y138.17 E116.69453
G1 X159.53 Y161.83 E117.56016
G1 X157.97 Y161.83 E117.61724
G1 X157.97 Y157.53 E117.77456
G1 X137.97 Y157.53 E118.50628
G1 F1500 E113.50628
G1 F300 Z1.08
G0 F9000 X139.3 Y156.2 Z1.08
;TYPE:SKIN
G1 F300 Z0.88
G1 F1500 E118.50628
G1 X139.3 Y143.8 E119.00119
G1 X158.2 Y143.8 E119.75553
G1 X158.2 Y156.2 E120.25044
G1 X139.3 Y156.2 E121.00478
G1 F1500 E116.00478
G1 F300 Z1.08
G0 F9000 X139.494 Y144.253 Z1.08
G1 F300 Z0.88
G1 F1500 E121.00478
G1 X139.754 Y143.993 E121.01946
G0 F9000 X140.433 Y143.993
G1 F1500 X139.494 Y144.932 E121.07246
G0 F9000 X139.494 Y145.61
G1 F1500 X141.112 Y143.993 E121.16376
G0 F9000 X141.791 Y143.993
G1 F1500 X139.494 Y146.289 E121.29338
G0 F9000 X139.494 Y146.968
G1 F1500 X142.469 Y143.993 E121.4613
G0 F9000 X143.148 Y143.993
G1 F1500 X139.494 Y147.647 E121.66755
G0 F9000 X139.494 Y148.326
G1 F1500 X143.827 Y143.993 E121.91212
G0 F9000 X144.506 Y143.993
G1 F1500 X139.494 Y149.005 E122.19502
G0 F9000 X139.494 Y149.683
G1 F1500 X145.185 Y143.993 E122.51622
G0 F9000 X145.864 Y143.993
G1 F1500 X139.494 Y150.362 E122.87574
G0 F9000 X139.494 Y151.041
G1 F1500 X146.542 Y143.993 E123.27356
G0 F9000 X147.221 Y143.993
G1 F1500 X139.494 Y151.72 E123.70971
G0 F9000 X139.494 Y152.399
