;FLAVOR:Marlin
;TIME:3338
;Filament used: 3.05542m
;Layer height: 0.16
;MINX:110.403
;MINY:127.077
;MINZ:0.28
;MAXX:189.597
;MAXY:172.923
;MAXZ:8.72
;Generated with Cura_SteamEngine 4.12.1
M140 S95
M105
M190 S95
M104 S220
M105
M109 S220
M82 ;absolute extrusion mode
G28 ; home all axes
 M117 Purge extruder
 G92 E0 ; reset extruder
 G1 Z1.0 F3000 ; move z up little to prevent scratching of surface
 G1 X2 Y20 Z0.3 F5000.0 ; move to start-line position
 G1 X2 Y200.0 Z0.3 F1500.0 E15 ; draw 1st line
 G1 X2 Y200.0 Z0.4 F5000.0 ; move to side a little
 G1 X2 Y20 Z0.4 F1500.0 E30 ; draw 2nd line
 G92 E0 ; reset extruder
 G1 Z1.0 F3000 ; move z up little to prevent scratching of surface
G92 E0
G92 E0
G1 F1500 E-5
;LAYER_COUNT:45
;LAYER:0
M107
G0 F6000 X112.26 Y128.778 Z0.28
;TYPE:SKIRT
G1 F1500 E0
G1 F1200 X112.789 Y128.324 E0.0557
G1 X113.366 Y127.934 E0.11135
G1 X113.984 Y127.612 E0.16703
G1 X114.634 Y127.363 E0.22265
G1 X115.309 Y127.19 E0.27833
G1 X115.999 Y127.096 E0.33397
G1 X116.475 Y127.077 E0.37204
G1 X183.525 Y127.077 E5.72961
G1 X184.221 Y127.117 E5.78531
G1 X184.907 Y127.236 E5.84095
G1 X185.575 Y127.434 E5.89662
G1 X186.216 Y127.706 E5.95226
G1 X186.822 Y128.05 E6.00794
G1 X187.384 Y128.461 E6.06357
G1 X187.896 Y128.934 E6.11927
G1 X188.35 Y129.463 E6.17497
G1 X188.74 Y130.04 E6.23062
G1 X189.062 Y130.658 E6.2863
G1 X189.311 Y131.308 E6.34192
G1 X189.484 Y131.983 E6.3976
G1 X189.578 Y132.673 E6.45324
G1 X189.597 Y133.149 E6.4913
G1 X189.597 Y166.851 E9.18423
G1 X189.557 Y167.547 E9.23994
G1 X189.438 Y168.233 E9.29557
G1 X189.24 Y168.901 E9.35124
G1 X188.968 Y169.542 E9.40688
G1 X188.624 Y170.148 E9.46256
G1 X188.213 Y170.71 E9.51819
G1 X187.74 Y171.222 E9.57389
G1 X187.211 Y171.676 E9.62959
G1 X186.634 Y172.066 E9.68524
G1 X186.016 Y172.388 E9.74092
G1 X185.366 Y172.637 E9.79654
G1 X184.691 Y172.81 E9.85222
G1 X184.001 Y172.904 E9.90786
G1 X183.525 Y172.923 E9.94593
G1 X116.475 Y172.923 E15.3035
G1 X115.779 Y172.883 E15.35921
G1 X115.093 Y172.764 E15.41484
G1 X114.425 Y172.566 E15.47051
G1 X113.784 Y172.294 E15.52615
G1 X113.178 Y171.95 E15.58183
G1 X112.616 Y171.539 E15.63746
G1 X112.104 Y171.066 E15.69316
G1 X111.65 Y170.537 E15.74886
G1 X111.26 Y169.96 E15.80451
G1 X110.938 Y169.342 E15.86019
G1 X110.689 Y168.692 E15.91581
G1 X110.516 Y168.017 E15.97149
G1 X110.422 Y167.327 E16.02713
G1 X110.403 Y166.851 E16.0652
G1 X110.403 Y133.149 E18.75813
G1 X110.443 Y132.453 E18.81383
G1 X110.562 Y131.767 E18.86946
G1 X110.76 Y131.099 E18.92513
G1 X111.032 Y130.458 E18.98077
G1 X111.376 Y129.852 E19.03645
G1 X111.787 Y129.29 E19.09209
G1 X112.26 Y128.778 E19.14778
G0 F6000 X112.779 Y129.017
G1 F1200 X113.301 Y128.604 E19.20097
G1 X113.868 Y128.256 E19.25413
G1 X114.473 Y127.979 E19.3073
G1 X115.108 Y127.776 E19.36056
G1 X115.761 Y127.651 E19.41369
G1 X116.475 Y127.605 E19.47086
G1 X183.525 Y127.605 E24.82843
G1 X184.189 Y127.645 E24.88158
G1 X184.844 Y127.764 E24.93478
G1 X185.48 Y127.961 E24.98798
G1 X186.088 Y128.233 E25.0412
G1 X186.659 Y128.576 E25.09443
G1 X187.184 Y128.984 E25.14755
G1 X187.657 Y129.453 E25.20078
G1 X188.07 Y129.975 E25.25396
G1 X188.418 Y130.542 E25.30712
G1 X188.695 Y131.147 E25.36029
G1 X188.898 Y131.782 E25.41356
G1 X189.023 Y132.435 E25.46668
G1 X189.069 Y133.149 E25.52385
G1 X189.069 Y166.851 E28.21678
G1 X189.029 Y167.515 E28.26994
G1 X188.91 Y168.17 E28.32313
G1 X188.713 Y168.806 E28.37633
G1 X188.441 Y169.414 E28.42955
G1 X188.098 Y169.985 E28.48278
G1 X187.69 Y170.51 E28.5359
G1 X187.221 Y170.983 E28.58913
G1 X186.699 Y171.396 E28.64232
G1 X186.132 Y171.744 E28.69547
G1 X185.527 Y172.021 E28.74864
G1 X184.892 Y172.224 E28.80191
G1 X184.239 Y172.349 E28.85504
G1 X183.525 Y172.395 E28.9122
G1 X116.475 Y172.395 E34.26978
G1 X115.811 Y172.355 E34.32293
G1 X115.156 Y172.236 E34.37612
G1 X114.52 Y172.039 E34.42933
G1 X113.912 Y171.767 E34.48255
G1 X113.341 Y171.424 E34.53577
G1 X112.816 Y171.016 E34.5889
G1 X112.343 Y170.547 E34.64212
G1 X111.93 Y170.025 E34.69531
G1 X111.582 Y169.458 E34.74847
G1 X111.305 Y168.853 E34.80164
G1 X111.102 Y168.218 E34.85491
G1 X110.977 Y167.565 E34.90803
G1 X110.931 Y166.851 E34.9652
G1 X110.931 Y133.149 E37.65813
G1 X110.971 Y132.485 E37.71128
G1 X111.09 Y131.83 E37.76448
G1 X111.287 Y131.194 E37.81768
G1 X111.559 Y130.586 E37.8709
G1 X111.902 Y130.015 E37.92412
G1 X112.31 Y129.49 E37.97725
G1 X112.779 Y129.017 E38.03048
G0 F6000 X112.832 Y129.701
G1 F1200 X113.295 Y129.27 E38.08102
G1 X113.809 Y128.9 E38.13162
G1 X114.366 Y128.598 E38.18225
G1 X114.956 Y128.369 E38.23282
G1 X115.57 Y128.215 E38.2834
G1 X116.475 Y128.133 E38.35601
G1 X183.525 Y128.133 E43.71359
G1 X184.157 Y128.173 E43.76419
G1 X184.779 Y128.292 E43.81479
G1 X185.381 Y128.489 E43.8654
G1 X185.953 Y128.76 E43.91597
G1 X186.486 Y129.101 E43.96653
G1 X186.973 Y129.506 E44.01715
G1 X187.404 Y129.969 E44.06769
G1 X187.774 Y130.483 E44.11829
G1 X188.076 Y131.04 E44.16892
G1 X188.305 Y131.63 E44.21949
G1 X188.459 Y132.244 E44.27007
G1 X188.541 Y133.149 E44.34268
G1 X188.541 Y166.851 E47.03561
G1 X188.501 Y167.483 E47.08621
G1 X188.382 Y168.105 E47.13681
G1 X188.185 Y168.707 E47.18743
G1 X187.914 Y169.279 E47.238
G1 X187.573 Y169.812 E47.28856
G1 X187.168 Y170.299 E47.33917
G1 X186.705 Y170.73 E47.38972
G1 X186.191 Y171.1 E47.44032
G1 X185.634 Y171.402 E47.49095
G1 X185.044 Y171.631 E47.54152
G1 X184.43 Y171.785 E47.5921
G1 X183.525 Y171.867 E47.66471
G1 X116.475 Y171.867 E53.02228
G1 X115.843 Y171.827 E53.07288
G1 X115.221 Y171.708 E53.12348
G1 X114.619 Y171.511 E53.1741
G1 X114.047 Y171.24 E53.22467
G1 X113.514 Y170.899 E53.27523
G1 X113.027 Y170.494 E53.32584
G1 X112.596 Y170.031 E53.37639
G1 X112.226 Y169.517 E53.42699
G1 X111.924 Y168.96 E53.47762
G1 X111.695 Y168.37 E53.52819
G1 X111.541 Y167.756 E53.57877
G1 X111.459 Y166.851 E53.65138
G1 X111.459 Y133.149 E56.34431
G1 X111.499 Y132.517 E56.39491
G1 X111.618 Y131.895 E56.44551
G1 X111.815 Y131.293 E56.49612
G1 X112.086 Y130.721 E56.5467
G1 X112.427 Y130.188 E56.59726
G1 X112.832 Y129.701 E56.64787
G0 F6000 X113.352 Y129.926
G1 F1200 X113.809 Y129.539 E56.69572
G1 X114.313 Y129.216 E56.74355
G1 X114.856 Y128.963 E56.79142
G1 X115.428 Y128.785 E56.83929
G1 X116.018 Y128.684 E56.88711
G1 X116.475 Y128.661 E56.92368
G1 X183.525 Y128.661 E62.28125
G1 X184.123 Y128.701 E62.32914
G1 X184.709 Y128.82 E62.37692
G1 X185.275 Y129.016 E62.42478
G1 X185.81 Y129.286 E62.47266
G1 X186.304 Y129.625 E62.52054
G1 X186.748 Y130.026 E62.56834
G1 X187.135 Y130.483 E62.61619
G1 X187.458 Y130.987 E62.66402
G1 X187.711 Y131.53 E62.71189
G1 X187.889 Y132.102 E62.75976
G1 X187.99 Y132.692 E62.80759
G1 X188.013 Y133.149 E62.84415
G1 X188.013 Y166.851 E65.53708
G1 X187.973 Y167.449 E65.58497
G1 X187.854 Y168.035 E65.63275
G1 X187.658 Y168.601 E65.68061
G1 X187.388 Y169.136 E65.72849
G1 X187.049 Y169.63 E65.77637
G1 X186.648 Y170.074 E65.82417
G1 X186.191 Y170.461 E65.87202
G1 X185.687 Y170.784 E65.91985
G1 X185.144 Y171.037 E65.96772
G1 X184.572 Y171.215 E66.01559
G1 X183.982 Y171.316 E66.06342
G1 X183.525 Y171.339 E66.09998
G1 X116.475 Y171.339 E71.45755
G1 X115.877 Y171.299 E71.50544
G1 X115.291 Y171.18 E71.55322
G1 X114.725 Y170.984 E71.60108
G1 X114.19 Y170.714 E71.64897
G1 X113.696 Y170.375 E71.69684
G1 X113.252 Y169.974 E71.74464
G1 X112.865 Y169.517 E71.79249
G1 X112.542 Y169.013 E71.84033
G1 X112.289 Y168.47 E71.88819
G1 X112.111 Y167.898 E71.93606
G1 X112.01 Y167.308 E71.98389
G1 X111.987 Y166.851 E72.02045
G1 X111.987 Y133.149 E74.71338
G1 X112.027 Y132.551 E74.76127
G1 X112.146 Y131.965 E74.80905
G1 X112.342 Y131.399 E74.85691
G1 X112.612 Y130.864 E74.90479
G1 X112.951 Y130.37 E74.95267
G1 X113.352 Y129.926 E75.00047
G0 F6000 X113.87 Y130.166
G1 F1200 X114.319 Y129.827 E75.04543
G1 X114.812 Y129.555 E75.09042
G1 X115.338 Y129.356 E75.13535
G1 X115.887 Y129.233 E75.18031
G1 X116.475 Y129.189 E75.22742
G1 X183.525 Y129.189 E80.585
G1 X184.086 Y129.229 E80.62994
G1 X184.636 Y129.348 E80.6749
G1 X185.163 Y129.544 E80.71983
G1 X185.657 Y129.812 E80.76474
G1 X186.109 Y130.148 E80.80974
G1 X186.508 Y130.544 E80.85466
G1 X186.847 Y130.993 E80.89961
G1 X187.119 Y131.486 E80.9446
G1 X187.318 Y132.012 E80.98954
G1 X187.441 Y132.561 E81.03449
G1 X187.485 Y133.149 E81.08161
G1 X187.485 Y166.851 E83.77454
G1 X187.445 Y167.412 E83.81948
G1 X187.326 Y167.962 E83.86444
G1 X187.13 Y168.489 E83.90937
G1 X186.862 Y168.983 E83.95428
G1 X186.526 Y169.435 E83.99928
G1 X186.13 Y169.834 E84.0442
G1 X185.681 Y170.173 E84.08915
G1 X185.188 Y170.445 E84.13414
G1 X184.662 Y170.644 E84.17908
G1 X184.113 Y170.767 E84.22403
G1 X183.525 Y170.811 E84.27115
G1 X116.475 Y170.811 E89.62872
G1 X115.914 Y170.771 E89.67366
G1 X115.364 Y170.652 E89.71863
G1 X114.837 Y170.456 E89.76355
G1 X114.343 Y170.188 E89.80846
G1 X113.891 Y169.852 E89.85346
G1 X113.492 Y169.456 E89.89838
G1 X113.153 Y169.007 E89.94334
G1 X112.881 Y168.514 E89.98833
G1 X112.682 Y167.988 E90.03326
G1 X112.559 Y167.439 E90.07822
G1 X112.515 Y166.851 E90.12533
G1 X112.515 Y133.149 E92.81826
G1 X112.555 Y132.588 E92.8632
G1 X112.674 Y132.038 E92.90817
G1 X112.87 Y131.511 E92.9531
G1 X113.138 Y131.017 E92.998
G1 X113.474 Y130.565 E93.04301
G1 X113.87 Y130.166 E93.08792
G0 F6000 X113.996 Y130.776
G1 F1200 X114.386 Y130.426 E93.1298
G1 X114.824 Y130.14 E93.17159
G1 X115.301 Y129.924 E93.21343
G1 X115.805 Y129.783 E93.25525
G1 X116.475 Y129.717 E93.30905
G1 X183.525 Y129.717 E98.66662
G1 X184.047 Y129.757 E98.70845
G1 X184.557 Y129.876 E98.7503
G1 X185.043 Y130.071 E98.79214
G1 X185.493 Y130.338 E98.83395
G1 X185.898 Y130.67 E98.87579
G1 X186.248 Y131.06 E98.91767
G1 X186.534 Y131.498 E98.95946
G1 X186.75 Y131.975 E99.0013
G1 X186.891 Y132.479 E99.04312
G1 X186.957 Y133.149 E99.09692
G1 X186.957 Y166.851 E101.78985
G1 X186.917 Y167.373 E101.83168
G1 X186.798 Y167.883 E101.87353
G1 X186.603 Y168.369 E101.91537
G1 X186.336 Y168.819 E101.95718
G1 X186.004 Y169.224 E101.99902
G1 X185.614 Y169.574 E102.04089
G1 X185.176 Y169.86 E102.08269
G1 X184.699 Y170.076 E102.12453
G1 X184.195 Y170.217 E102.16635
G1 X183.525 Y170.283 E102.22015
G1 X116.475 Y170.283 E107.57772
G1 X115.953 Y170.243 E107.61955
G1 X115.443 Y170.124 E107.6614
G1 X114.957 Y169.929 E107.70324
G1 X114.507 Y169.662 E107.74505
G1 X114.102 Y169.33 E107.78689
G1 X113.752 Y168.94 E107.82877
G1 X113.466 Y168.502 E107.87056
G1 X113.25 Y168.025 E107.9124
G1 X113.109 Y167.521 E107.95422
G1 X113.043 Y166.851 E108.00802
G1 X113.043 Y133.149 E110.70095
G1 X113.083 Y132.627 E110.74278
G1 X113.202 Y132.117 E110.78462
G1 X113.397 Y131.631 E110.82647
G1 X113.664 Y131.181 E110.86828
G1 X113.996 Y130.776 E110.91012
G0 F6000 X114.515 Y131.006
G1 F1200 X114.897 Y130.711 E110.94869
G1 X115.321 Y130.484 E110.98712
G1 X115.777 Y130.33 E111.02557
G1 X116.475 Y130.245 E111.08176
G1 X183.525 Y130.245 E116.43933
G1 X184.005 Y130.285 E116.47782
G1 X184.472 Y130.404 E116.51633
G1 X184.912 Y130.598 E116.55475
G1 X185.315 Y130.862 E116.59325
G1 X185.668 Y131.189 E116.63169
G1 X185.963 Y131.571 E116.67026
G1 X186.19 Y131.995 E116.70869
G1 X186.344 Y132.451 E116.74715
G1 X186.429 Y133.149 E116.80333
G1 X186.429 Y166.851 E119.49626
G1 X186.389 Y167.331 E119.53475
G1 X186.27 Y167.798 E119.57326
G1 X186.076 Y168.238 E119.61168
G1 X185.812 Y168.641 E119.65018
G1 X185.485 Y168.994 E119.68862
G1 X185.103 Y169.289 E119.72719
G1 X184.679 Y169.516 E119.76562
G1 X184.223 Y169.67 E119.80408
G1 X183.525 Y169.755 E119.86026
G1 X116.475 Y169.755 E125.21784
G1 X115.995 Y169.715 E125.25632
G1 X115.528 Y169.596 E125.29483
G1 X115.088 Y169.402 E125.33325
G1 X114.685 Y169.138 E125.37175
G1 X114.332 Y168.811 E125.4102
G1 X114.037 Y168.429 E125.44876
G1 X113.81 Y168.005 E125.48719
G1 X113.656 Y167.549 E125.52565
G1 X113.571 Y166.851 E125.58184
G1 X113.571 Y133.149 E128.27477
G1 X113.611 Y132.669 E128.31325
G1 X113.73 Y132.202 E128.35176
G1 X113.924 Y131.762 E128.39018
G1 X114.188 Y131.359 E128.42868
G1 X114.515 Y131.006 E128.46713
G0 F6000 X114.711 Y131.557
G1 F1200 X115.031 Y131.262 E128.5019
G1 X115.4 Y131.03 E128.53673
G1 X115.805 Y130.869 E128.57156
G1 X116.232 Y130.785 E128.60633
G1 X116.475 Y130.773 E128.62577
G1 X183.525 Y130.773 E133.98334
G1 X183.959 Y130.813 E134.01817
G1 X184.378 Y130.931 E134.05295
G1 X184.768 Y131.124 E134.08772
G1 X185.117 Y131.385 E134.12254
G1 X185.412 Y131.705 E134.15732
G1 X185.644 Y132.074 E134.19215
G1 X185.805 Y132.479 E134.22697
G1 X185.889 Y132.906 E134.26175
G1 X185.901 Y133.149 E134.28119
G1 X185.901 Y166.851 E136.97412
G1 X185.861 Y167.285 E137.00894
G1 X185.743 Y167.704 E137.04372
G1 X185.55 Y168.094 E137.07849
G1 X185.289 Y168.443 E137.11331
G1 X184.969 Y168.738 E137.14809
G1 X184.6 Y168.97 E137.18292
G1 X184.195 Y169.131 E137.21774
G1 X183.768 Y169.215 E137.25252
G1 X183.525 Y169.227 E137.27196
G1 X116.475 Y169.227 E142.62953
G1 X116.041 Y169.187 E142.66436
G1 X115.622 Y169.069 E142.69914
G1 X115.232 Y168.876 E142.73391
G1 X114.883 Y168.615 E142.76873
G1 X114.588 Y168.295 E142.80351
G1 X114.356 Y167.926 E142.83833
G1 X114.195 Y167.521 E142.87316
G1 X114.111 Y167.094 E142.90793
G1 X114.099 Y166.851 E142.92737
G1 X114.099 Y133.149 E145.6203
G1 X114.139 Y132.715 E145.65513
G1 X114.257 Y132.296 E145.68991
G1 X114.45 Y131.906 E145.72468
G1 X114.711 Y131.557 E145.7595
G0 F6000 X115.231 Y131.782
G1 F1200 X115.541 Y131.555 E145.7902
G1 X115.89 Y131.396 E145.82085
G1 X116.265 Y131.313 E145.85154
G1 X116.475 Y131.301 E145.86834
G1 X183.525 Y131.301 E151.22592
G1 X183.907 Y131.341 E151.25661
G1 X184.272 Y131.459 E151.28726
G1 X184.605 Y131.65 E151.31793
G1 X184.892 Y131.905 E151.34861
G1 X185.119 Y132.215 E151.37931
G1 X185.278 Y132.564 E151.40995
G1 X185.361 Y132.939 E151.44064
G1 X185.373 Y133.149 E151.45745
G1 X185.373 Y166.851 E154.15038
G1 X185.333 Y167.233 E154.18107
G1 X185.215 Y167.598 E154.21172
G1 X185.024 Y167.931 E154.2424
G1 X184.769 Y168.218 E154.27307
G1 X184.459 Y168.445 E154.30377
G1 X184.11 Y168.604 E154.33442
G1 X183.735 Y168.687 E154.36511
G1 X183.525 Y168.699 E154.38192
G1 X116.475 Y168.699 E159.73949
G1 X116.093 Y168.659 E159.77018
G1 X115.728 Y168.541 E159.80083
G1 X115.395 Y168.35 E159.8315
G1 X115.108 Y168.095 E159.86218
G1 X114.881 Y167.785 E159.89288
G1 X114.722 Y167.436 E159.92353
G1 X114.639 Y167.061 E159.95422
G1 X114.627 Y166.851 E159.97102
G1 X114.627 Y133.149 E162.66395
G1 X114.667 Y132.767 E162.69464
G1 X114.785 Y132.402 E162.72529
G1 X114.976 Y132.069 E162.75597
G1 X115.231 Y131.782 E162.78664
G0 F6000 X115.499 Y132.26
G1 F1200 X115.746 Y132.049 E162.8126
G1 X116.036 Y131.904 E162.83851
G1 X116.475 Y131.829 E162.8741
G1 X183.525 Y131.829 E168.23167
G1 X183.847 Y131.869 E168.2576
G1 X184.149 Y131.986 E168.28347
G1 X184.414 Y132.173 E168.30939
G1 X184.625 Y132.42 E168.33535
G1 X184.77 Y132.71 E168.36125
G1 X184.845 Y133.149 E168.39684
G1 X184.845 Y166.851 E171.08977
G1 X184.805 Y167.173 E171.1157
G1 X184.688 Y167.475 E171.14158
G1 X184.501 Y167.74 E171.16749
G1 X184.254 Y167.951 E171.19345
G1 X183.964 Y168.096 E171.21936
G1 X183.525 Y168.171 E171.25494
G1 X116.475 Y168.171 E176.61252
G1 X116.153 Y168.131 E176.63844
G1 X115.851 Y168.014 E176.66432
G1 X115.586 Y167.827 E176.69024
G1 X115.375 Y167.58 E176.71619
G1 X115.23 Y167.29 E176.7421
G1 X115.155 Y166.851 E176.77769
G1 X115.155 Y133.149 E179.47062
G1 X115.195 Y132.827 E179.49654
G1 X115.312 Y132.525 E179.52242
G1 X115.499 Y132.26 E179.54834
G0 F6000 X116.017 Y132.503
G1 F1200 X116.242 Y132.392 E179.56839
G1 X116.475 Y132.357 E179.58721
G1 X183.525 Y132.357 E184.94479
G1 X183.773 Y132.397 E184.96486
G1 X183.996 Y132.512 E184.98491
G1 X184.171 Y132.691 E185.00491
G1 X184.282 Y132.916 E185.02496
G1 X184.317 Y133.149 E185.04378
G1 X184.317 Y166.851 E187.73671
G1 X184.277 Y167.099 E187.75678
G1 X184.162 Y167.322 E187.77683
G1 X183.983 Y167.497 E187.79684
G1 X183.758 Y167.608 E187.81688
G1 X183.525 Y167.643 E187.83571
G1 X116.475 Y167.643 E193.19328
G1 X116.227 Y167.603 E193.21335
G1 X116.004 Y167.488 E193.2334
G1 X115.829 Y167.309 E193.25341
G1 X115.718 Y167.084 E193.27345
G1 X115.683 Y166.851 E193.29228
G1 X115.683 Y133.149 E195.98521
G1 X115.723 Y132.901 E196.00528
