;FLAVOR:Marlin
;TIME:2488
;Filament used: 1.48001m
;Layer height: 0.16
;MINX:169.804
;MINY:112.095
;MINZ:0.28
;MAXX:208.851
;MAXY:169.78
;MAXZ:12.2
;Generated with Cura_SteamEngine 4.12.1
M140 S95
M105
M190 S95
M104 S220
M105
M109 S220
M82 ;absolute extrusion mode
G28 ; home all axes
 M117 Purge extruder
 G92 E0 ; reset extruder
 G1 Z1.0 F3000 ; move z up little to prevent scratching of surface
 G1 X2 Y20 Z0.3 F5000.0 ; move to start-line position
 G1 X2 Y200.0 Z0.3 F1500.0 E15 ; draw 1st line
 G1 X2 Y200.0 Z0.4 F5000.0 ; move to side a little
 G1 X2 Y20 Z0.4 F1500.0 E30 ; draw 2nd line
 G92 E0 ; reset extruder
 G1 Z1.0 F3000 ; move z up little to prevent scratching of surface
G92 E0
G92 E0
G1 F1500 E-5
;LAYER_COUNT:73
;LAYER:0
M107
G0 F6000 X171.188 Y127.469 Z0.28
;TYPE:SKIRT
G1 F1500 E0
G1 F1200 X171.661 Y126.957 E0.0557
G1 X172.19 Y126.503 E0.1114
G1 X172.767 Y126.113 E0.16705
G1 X173.385 Y125.791 E0.22273
G1 X174.035 Y125.542 E0.27835
G1 X174.71 Y125.369 E0.33403
G1 X175.4 Y125.275 E0.38967
G1 X175.876 Y125.256 E0.42773
G1 X178.876 Y125.256 E0.66745
G1 X179.572 Y125.296 E0.72315
G1 X179.841 Y125.343 E0.74497
G1 X179.445 Y119.681 E1.19849
G1 X179.436 Y118.984 E1.25419
G1 X179.507 Y118.291 E1.30985
G1 X179.657 Y117.611 E1.3655
G1 X179.884 Y116.952 E1.42119
G1 X180.185 Y116.324 E1.47683
G1 X180.556 Y115.734 E1.53252
G1 X180.992 Y115.191 E1.58817
G1 X181.488 Y114.701 E1.64388
G1 X182.036 Y114.271 E1.69954
G1 X182.63 Y113.907 E1.7552
G1 X183.262 Y113.613 E1.8109
G1 X183.923 Y113.394 E1.86654
G1 X184.605 Y113.252 E1.9222
G1 X185.079 Y113.2 E1.9603
G1 X200.758 Y112.104 E3.21618
G1 X201.454 Y112.095 E3.2718
G1 X202.147 Y112.166 E3.32746
G1 X202.828 Y112.317 E3.3832
G1 X203.486 Y112.544 E3.43881
G1 X204.114 Y112.845 E3.49446
G1 X204.704 Y113.216 E3.55015
G1 X205.247 Y113.652 E3.60579
G1 X205.737 Y114.147 E3.66145
G1 X206.167 Y114.696 E3.71717
G1 X206.531 Y115.289 E3.77277
G1 X206.825 Y115.921 E3.82846
G1 X207.044 Y116.582 E3.8841
G1 X207.186 Y117.264 E3.93976
G1 X207.238 Y117.737 E3.97779
G1 X208.842 Y140.661 E5.81399
G1 X208.851 Y141.358 E5.86969
G1 X208.78 Y142.051 E5.92535
G1 X208.63 Y142.731 E5.98099
G1 X208.403 Y143.39 E6.03668
G1 X208.102 Y144.018 E6.09233
G1 X207.731 Y144.608 E6.14802
G1 X207.295 Y145.151 E6.20366
G1 X206.799 Y145.641 E6.25937
G1 X206.251 Y146.071 E6.31503
G1 X205.657 Y146.435 E6.3707
G1 X205.025 Y146.729 E6.42639
G1 X204.364 Y146.948 E6.48203
G1 X203.682 Y147.09 E6.5377
G1 X203.208 Y147.142 E6.5758
G1 X200.29 Y147.346 E6.80953
G1 X200.456 Y147.778 E6.84651
G1 X200.629 Y148.453 E6.90219
G1 X200.723 Y149.143 E6.95783
G1 X200.742 Y149.619 E6.99589
G1 X200.742 Y158.619 E7.71503
G1 X200.702 Y159.315 E7.77074
G1 X200.583 Y160.001 E7.82637
G1 X200.385 Y160.669 E7.88204
G1 X200.113 Y161.31 E7.93768
G1 X199.769 Y161.916 E7.99336
G1 X199.358 Y162.478 E8.04899
G1 X198.885 Y162.99 E8.10469
G1 X198.356 Y163.444 E8.16039
G1 X197.779 Y163.834 E8.21604
G1 X197.161 Y164.156 E8.27172
G1 X196.511 Y164.405 E8.32734
G1 X195.836 Y164.578 E8.38302
G1 X195.146 Y164.672 E8.43866
G1 X194.67 Y164.691 E8.47673
G1 X184.858 Y164.691 E9.26075
G1 X184.789 Y165.09 E9.2931
G1 X184.591 Y165.758 E9.34877
G1 X184.319 Y166.399 E9.40441
G1 X183.975 Y167.005 E9.46009
G1 X183.564 Y167.567 E9.51572
G1 X183.091 Y168.079 E9.57142
G1 X182.562 Y168.533 E9.62712
G1 X181.985 Y168.923 E9.68277
G1 X181.367 Y169.245 E9.73845
G1 X180.717 Y169.494 E9.79407
G1 X180.042 Y169.667 E9.84975
G1 X179.352 Y169.761 E9.90539
G1 X178.876 Y169.78 E9.94346
G1 X175.876 Y169.78 E10.18317
G1 X175.18 Y169.74 E10.23887
G1 X174.494 Y169.621 E10.29451
G1 X173.826 Y169.423 E10.35018
G1 X173.185 Y169.151 E10.40582
G1 X172.579 Y168.807 E10.4615
G1 X172.017 Y168.396 E10.51713
G1 X171.505 Y167.923 E10.57283
G1 X171.051 Y167.394 E10.62853
G1 X170.661 Y166.817 E10.68418
G1 X170.339 Y166.199 E10.73986
G1 X170.09 Y165.549 E10.79548
G1 X169.917 Y164.874 E10.85116
G1 X169.823 Y164.184 E10.9068
G1 X169.804 Y163.708 E10.94486
G1 X169.804 Y131.328 E13.53216
G1 X169.844 Y130.632 E13.58787
G1 X169.963 Y129.946 E13.6435
G1 X170.161 Y129.278 E13.69917
G1 X170.433 Y128.637 E13.75481
G1 X170.777 Y128.031 E13.81049
G1 X171.188 Y127.469 E13.86612
G0 F6000 X171.711 Y127.669
G1 F1200 X172.18 Y127.196 E13.91935
G1 X172.702 Y126.783 E13.97253
G1 X173.269 Y126.435 E14.02569
G1 X173.874 Y126.158 E14.07886
G1 X174.509 Y125.955 E14.13213
G1 X175.162 Y125.83 E14.18525
G1 X175.876 Y125.784 E14.24242
G1 X178.876 Y125.784 E14.48213
G1 X179.54 Y125.824 E14.53529
G1 X180.195 Y125.943 E14.58848
G1 X180.418 Y126.012 E14.60713
G1 X179.972 Y119.644 E15.11721
G1 X179.965 Y118.978 E15.17043
G1 X180.038 Y118.317 E15.22357
G1 X180.19 Y117.669 E15.27675
G1 X180.419 Y117.043 E15.33001
G1 X180.721 Y116.45 E15.38318
G1 X181.092 Y115.897 E15.43639
G1 X181.526 Y115.393 E15.48954
G1 X182.018 Y114.944 E15.54276
G1 X182.56 Y114.558 E15.59593
G1 X183.144 Y114.239 E15.6491
G1 X183.763 Y113.993 E15.70233
G1 X184.406 Y113.822 E15.75549
G1 X185.115 Y113.726 E15.81266
G1 X200.794 Y112.63 E17.06853
G1 X201.46 Y112.624 E17.12175
G1 X202.122 Y112.697 E17.17497
G1 X202.77 Y112.85 E17.22817
G1 X203.395 Y113.078 E17.28133
G1 X203.988 Y113.38 E17.3345
G1 X204.541 Y113.751 E17.38771
G1 X205.045 Y114.186 E17.44091
G1 X205.494 Y114.677 E17.49407
G1 X205.88 Y115.219 E17.54724
G1 X206.199 Y115.804 E17.60048
G1 X206.445 Y116.422 E17.65363
G1 X206.616 Y117.066 E17.70688
G1 X206.711 Y117.774 E17.76395
G1 X208.315 Y140.698 E19.60016
G1 X208.322 Y141.364 E19.65337
G1 X208.249 Y142.025 E19.70651
G1 X208.097 Y142.673 E19.7597
G1 X207.868 Y143.299 E19.81296
G1 X207.566 Y143.892 E19.86613
G1 X207.195 Y144.445 E19.91934
G1 X206.761 Y144.949 E19.97249
G1 X206.269 Y145.398 E20.02571
G1 X205.727 Y145.784 E20.07888
G1 X205.143 Y146.103 E20.13205
G1 X204.524 Y146.349 E20.18527
G1 X203.881 Y146.52 E20.23844
G1 X203.172 Y146.616 E20.29561
G1 X199.478 Y146.874 E20.59149
G1 X199.563 Y147.012 E20.60444
G1 X199.84 Y147.617 E20.65761
G1 X200.043 Y148.252 E20.71088
G1 X200.168 Y148.905 E20.764
G1 X200.214 Y149.619 E20.82117
G1 X200.214 Y158.619 E21.54031
G1 X200.174 Y159.283 E21.59346
G1 X200.055 Y159.938 E21.64666
G1 X199.858 Y160.574 E21.69986
G1 X199.586 Y161.182 E21.75308
G1 X199.243 Y161.753 E21.8063
G1 X198.835 Y162.278 E21.85943
G1 X198.366 Y162.751 E21.91266
G1 X197.844 Y163.164 E21.96584
G1 X197.277 Y163.512 E22.019
G1 X196.672 Y163.789 E22.07217
G1 X196.037 Y163.992 E22.12544
G1 X195.384 Y164.117 E22.17856
G1 X194.67 Y164.163 E22.23573
G1 X184.393 Y164.163 E23.05691
G1 X184.38 Y164.372 E23.07364
G1 X184.261 Y165.027 E23.12683
G1 X184.064 Y165.663 E23.18003
G1 X183.792 Y166.271 E23.23326
G1 X183.449 Y166.842 E23.28648
G1 X183.041 Y167.367 E23.33961
G1 X182.572 Y167.84 E23.39283
G1 X182.05 Y168.253 E23.44602
G1 X181.483 Y168.601 E23.49918
G1 X180.878 Y168.878 E23.55234
G1 X180.243 Y169.081 E23.60561
G1 X179.59 Y169.206 E23.65874
G1 X178.876 Y169.252 E23.71591
G1 X175.876 Y169.252 E23.95562
G1 X175.212 Y169.212 E24.00877
G1 X174.557 Y169.093 E24.06197
G1 X173.921 Y168.896 E24.11517
G1 X173.313 Y168.624 E24.16839
G1 X172.742 Y168.281 E24.22161
G1 X172.217 Y167.873 E24.27474
G1 X171.744 Y167.404 E24.32797
G1 X171.331 Y166.882 E24.38115
G1 X170.983 Y166.315 E24.43431
G1 X170.706 Y165.71 E24.48748
G1 X170.503 Y165.075 E24.54075
G1 X170.378 Y164.422 E24.59387
G1 X170.332 Y163.708 E24.65104
G1 X170.332 Y131.328 E27.23834
G1 X170.372 Y130.664 E27.29149
G1 X170.491 Y130.009 E27.34469
G1 X170.688 Y129.373 E27.39789
G1 X170.96 Y128.765 E27.45111
G1 X171.303 Y128.194 E27.50433
G1 X171.711 Y127.669 E27.55746
G0 F6000 X171.828 Y128.367
G1 F1200 X172.233 Y127.88 E27.60807
G1 X172.696 Y127.449 E27.65862
G1 X173.21 Y127.079 E27.70922
G1 X173.767 Y126.777 E27.75985
G1 X174.357 Y126.548 E27.81042
G1 X174.971 Y126.394 E27.861
G1 X175.876 Y126.312 E27.93361
G1 X178.876 Y126.312 E28.17332
G1 X179.508 Y126.352 E28.22392
G1 X180.13 Y126.471 E28.27452
G1 X180.732 Y126.668 E28.32514
G1 X181.001 Y126.795 E28.3489
G1 X180.498 Y119.607 E28.92466
G1 X180.494 Y118.974 E28.97524
G1 X180.57 Y118.345 E29.02587
G1 X180.724 Y117.731 E29.07645
G1 X180.954 Y117.141 E29.12705
G1 X181.257 Y116.585 E29.17764
G1 X181.627 Y116.072 E29.22818
G1 X182.059 Y115.609 E29.27878
G1 X182.546 Y115.204 E29.32939
G1 X183.08 Y114.864 E29.37997
G1 X183.653 Y114.594 E29.43059
G1 X184.255 Y114.398 E29.48118
G1 X185.152 Y114.253 E29.55378
G1 X200.831 Y113.157 E30.80965
G1 X201.464 Y113.153 E30.86023
G1 X202.093 Y113.229 E30.91086
G1 X202.707 Y113.383 E30.96144
G1 X203.297 Y113.613 E31.01204
G1 X203.853 Y113.916 E31.06263
G1 X204.366 Y114.286 E31.11317
G1 X204.829 Y114.718 E31.16377
G1 X205.234 Y115.205 E31.21438
G1 X205.574 Y115.74 E31.26504
G1 X205.844 Y116.312 E31.31558
G1 X206.04 Y116.914 E31.36616
G1 X206.185 Y117.811 E31.43877
G1 X207.789 Y140.735 E33.27497
G1 X207.793 Y141.368 E33.32555
G1 X207.717 Y141.997 E33.37618
G1 X207.563 Y142.611 E33.42676
G1 X207.333 Y143.201 E33.47736
G1 X207.03 Y143.757 E33.52795
G1 X206.66 Y144.27 E33.57849
G1 X206.228 Y144.733 E33.62909
G1 X205.741 Y145.138 E33.6797
G1 X205.207 Y145.478 E33.73028
G1 X204.634 Y145.748 E33.7809
G1 X204.032 Y145.944 E33.83149
G1 X203.135 Y146.089 E33.90409
G1 X198.523 Y146.411 E34.2735
G1 X198.549 Y146.439 E34.27656
G1 X198.919 Y146.953 E34.32716
G1 X199.221 Y147.51 E34.37779
G1 X199.45 Y148.1 E34.42836
G1 X199.604 Y148.714 E34.47894
G1 X199.686 Y149.619 E34.55155
G1 X199.686 Y158.619 E35.27069
G1 X199.646 Y159.251 E35.32129
G1 X199.527 Y159.873 E35.37189
G1 X199.33 Y160.475 E35.4225
G1 X199.059 Y161.047 E35.47308
G1 X198.718 Y161.58 E35.52364
G1 X198.313 Y162.067 E35.57425
G1 X197.85 Y162.498 E35.62479
G1 X197.336 Y162.868 E35.6754
G1 X196.779 Y163.17 E35.72602
G1 X196.189 Y163.399 E35.77659
G1 X195.575 Y163.553 E35.82718
G1 X194.67 Y163.635 E35.89978
G1 X183.892 Y163.635 E36.76099
G1 X183.892 Y163.708 E36.76682
G1 X183.852 Y164.34 E36.81743
G1 X183.733 Y164.962 E36.86803
G1 X183.536 Y165.564 E36.91864
G1 X183.265 Y166.136 E36.96921
G1 X182.924 Y166.669 E37.01977
G1 X182.519 Y167.156 E37.07039
G1 X182.056 Y167.587 E37.12093
G1 X181.542 Y167.957 E37.17153
G1 X180.985 Y168.259 E37.22216
G1 X180.395 Y168.488 E37.27273
G1 X179.781 Y168.642 E37.32331
G1 X178.876 Y168.724 E37.39592
G1 X175.876 Y168.724 E37.63563
G1 X175.244 Y168.684 E37.68623
G1 X174.622 Y168.565 E37.73684
G1 X174.02 Y168.368 E37.78745
G1 X173.448 Y168.097 E37.83802
G1 X172.915 Y167.756 E37.88858
G1 X172.428 Y167.351 E37.93919
G1 X171.997 Y166.888 E37.98974
G1 X171.627 Y166.374 E38.04034
G1 X171.325 Y165.817 E38.09097
G1 X171.096 Y165.227 E38.14154
G1 X170.942 Y164.613 E38.19212
G1 X170.86 Y163.708 E38.26473
G1 X170.86 Y131.328 E40.85203
G1 X170.9 Y130.696 E40.90263
G1 X171.019 Y130.074 E40.95323
G1 X171.216 Y129.472 E41.00384
G1 X171.487 Y128.9 E41.05442
G1 X171.828 Y128.367 E41.10498
G0 F6000 X172.352 Y128.549
G1 F1200 X172.753 Y128.105 E41.15278
G1 X173.21 Y127.718 E41.20063
G1 X173.714 Y127.395 E41.24846
G1 X174.257 Y127.142 E41.29633
G1 X174.829 Y126.964 E41.3442
G1 X175.419 Y126.863 E41.39203
G1 X175.876 Y126.84 E41.42859
G1 X178.876 Y126.84 E41.6683
G1 X179.474 Y126.88 E41.71619
G1 X180.06 Y126.999 E41.76397
G1 X180.626 Y127.195 E41.81183
G1 X181.161 Y127.465 E41.85972
G1 X181.598 Y127.765 E41.90207
G1 X181.025 Y119.57 E42.55848
G1 X181.023 Y118.971 E42.60635
G1 X181.101 Y118.378 E42.65414
G1 X181.257 Y117.8 E42.70197
G1 X181.489 Y117.247 E42.74989
G1 X181.792 Y116.731 E42.79771
G1 X182.162 Y116.26 E42.84556
G1 X182.591 Y115.842 E42.89343
G1 X183.071 Y115.484 E42.94127
G1 X183.595 Y115.194 E42.98913
G1 X184.153 Y114.977 E43.03697
G1 X184.735 Y114.835 E43.08483
G1 X185.189 Y114.78 E43.12138
G1 X200.868 Y113.684 E44.37725
G1 X201.467 Y113.682 E44.42511
G1 X202.061 Y113.76 E44.47298
G1 X202.639 Y113.916 E44.52082
G1 X203.191 Y114.148 E44.56866
G1 X203.707 Y114.452 E44.61652
G1 X204.179 Y114.821 E44.66439
G1 X204.597 Y115.25 E44.71225
G1 X204.954 Y115.73 E44.76005
G1 X205.244 Y116.254 E44.8079
G1 X205.462 Y116.812 E44.85577
G1 X205.603 Y117.394 E44.90362
G1 X205.658 Y117.848 E44.94016
G1 X207.262 Y140.772 E46.77637
G1 X207.264 Y141.371 E46.82423
G1 X207.186 Y141.964 E46.87202
G1 X207.03 Y142.542 E46.91986
G1 X206.798 Y143.095 E46.96777
G1 X206.495 Y143.611 E47.01559
G1 X206.125 Y144.082 E47.06345
G1 X205.696 Y144.5 E47.11131
G1 X205.216 Y144.858 E47.15915
G1 X204.692 Y145.148 E47.20701
G1 X204.134 Y145.365 E47.25485
G1 X203.552 Y145.507 E47.30272
G1 X203.098 Y145.562 E47.33926
G1 X197.266 Y145.97 E47.8064
G1 X197.449 Y146.095 E47.82411
G1 X197.893 Y146.496 E47.87191
G1 X198.28 Y146.953 E47.91976
G1 X198.603 Y147.457 E47.96759
G1 X198.856 Y148 E48.01546
G1 X199.034 Y148.572 E48.06333
G1 X199.135 Y149.162 E48.11116
G1 X199.158 Y149.619 E48.14772
G1 X199.158 Y158.619 E48.86686
G1 X199.118 Y159.217 E48.91474
G1 X198.999 Y159.803 E48.96252
G1 X198.803 Y160.369 E49.01038
G1 X198.533 Y160.904 E49.05827
G1 X198.194 Y161.398 E49.10614
G1 X197.793 Y161.842 E49.15395
G1 X197.336 Y162.229 E49.2018
G1 X196.832 Y162.552 E49.24963
G1 X196.289 Y162.805 E49.2975
G1 X195.717 Y162.983 E49.34536
G1 X195.127 Y163.084 E49.39319
G1 X194.67 Y163.107 E49.42975
G1 X183.364 Y163.107 E50.33315
G1 X183.364 Y163.708 E50.38117
G1 X183.324 Y164.306 E50.42906
G1 X183.205 Y164.892 E50.47684
G1 X183.009 Y165.458 E50.5247
G1 X182.739 Y165.993 E50.57259
G1 X182.4 Y166.487 E50.62046
G1 X181.999 Y166.931 E50.66826
G1 X181.542 Y167.318 E50.71612
G1 X181.038 Y167.641 E50.76395
G1 X180.495 Y167.894 E50.81181
G1 X179.923 Y168.072 E50.85968
G1 X179.333 Y168.173 E50.90751
G1 X178.876 Y168.196 E50.94407
G1 X175.876 Y168.196 E51.18378
G1 X175.278 Y168.156 E51.23167
G1 X174.692 Y168.037 E51.27945
G1 X174.126 Y167.841 E51.32731
G1 X173.591 Y167.571 E51.3752
G1 X173.097 Y167.232 E51.42307
G1 X172.653 Y166.831 E51.47088
G1 X172.266 Y166.374 E51.51873
G1 X171.943 Y165.87 E51.56656
G1 X171.69 Y165.327 E51.61443
G1 X171.512 Y164.755 E51.66229
G1 X171.411 Y164.165 E51.71012
G1 X171.388 Y163.708 E51.74668
G1 X171.388 Y131.328 E54.33398
G1 X171.428 Y130.73 E54.38187
G1 X171.547 Y130.144 E54.42965
G1 X171.743 Y129.578 E54.47751
G1 X172.013 Y129.043 E54.52539
G1 X172.352 Y128.549 E54.57327
G0 F6000 X172.875 Y128.744
G1 F1200 X173.271 Y128.345 E54.61819
G1 X173.72 Y128.006 E54.66314
G1 X174.213 Y127.734 E54.70813
G1 X174.739 Y127.535 E54.75307
G1 X175.288 Y127.412 E54.79802
G1 X175.876 Y127.368 E54.84514
G1 X178.876 Y127.368 E55.08485
G1 X179.437 Y127.408 E55.12979
G1 X179.987 Y127.527 E55.17475
G1 X180.514 Y127.723 E55.21968
G1 X181.008 Y127.991 E55.26459
G1 X181.46 Y128.327 E55.30959
G1 X181.859 Y128.723 E55.35451
G1 X182.198 Y129.172 E55.39946
G1 X182.231 Y129.231 E55.40487
G1 X181.552 Y119.533 E56.18167
G1 X181.552 Y118.971 E56.22658
G1 X181.633 Y118.414 E56.27155
G1 X181.791 Y117.874 E56.31651
G1 X182.024 Y117.363 E56.36139
G1 X182.328 Y116.889 E56.40638
G1 X182.696 Y116.463 E56.45136
G1 X183.12 Y116.094 E56.49628
G1 X183.592 Y115.788 E56.54122
G1 X184.103 Y115.552 E56.5862
G1 X184.642 Y115.392 E56.63112
G1 X185.226 Y115.307 E56.67828
G1 X200.905 Y114.211 E57.93415
G1 X201.467 Y114.211 E57.97906
G1 X202.024 Y114.292 E58.02403
G1 X202.564 Y114.45 E58.06899
G1 X203.076 Y114.684 E58.11397
G1 X203.549 Y114.987 E58.15886
G1 X203.975 Y115.355 E58.20384
G1 X204.344 Y115.779 E58.24875
G1 X204.65 Y116.251 E58.2937
G1 X204.886 Y116.762 E58.33867
G1 X205.046 Y117.301 E58.3836
G1 X205.131 Y117.885 E58.43075
G1 X206.735 Y140.809 E60.26696
G1 X206.735 Y141.371 E60.31186
G1 X206.654 Y141.928 E60.35684
G1 X206.496 Y142.468 E60.40179
G1 X206.263 Y142.979 E60.44667
G1 X205.959 Y143.453 E60.49166
G1 X205.591 Y143.879 E60.53665
G1 X205.167 Y144.248 E60.58156
G1 X204.695 Y144.554 E60.62651
G1 X204.184 Y144.79 E60.67148
G1 X203.645 Y144.95 E60.71641
G1 X203.061 Y145.035 E60.76356
G1 X194.134 Y145.659 E61.47861
G1 X194.67 Y145.659 E61.52144
G1 X195.231 Y145.699 E61.56638
G1 X195.781 Y145.818 E61.61134
G1 X196.308 Y146.014 E61.65627
G1 X196.802 Y146.282 E61.70117
G1 X197.254 Y146.618 E61.74618
G1 X197.653 Y147.014 E61.7911
G1 X197.992 Y147.463 E61.83605
G1 X198.264 Y147.956 E61.88104
G1 X198.463 Y148.482 E61.92598
