;FLAVOR:Marlin
;TIME:5053
;Filament used: 3.16995m
;Layer height: 0.16
;MINX:132.595
;MINY:141.945
;MINZ:0.28
;MAXX:167.405
;MAXY:158.055
;MAXZ:35.08
;Generated with Cura_SteamEngine 4.12.1
M140 S90
M105
M190 S90
M104 S220
M105
M109 S220
M82 ;absolute extrusion mode
G28 ; home all axes
 M117 Purge extruder
 G92 E0 ; reset extruder
 G1 Z1.0 F3000 ; move z up little to prevent scratching of surface
 G1 X2 Y20 Z0.3 F5000.0 ; move to start-line position
 G1 X2 Y200.0 Z0.3 F1500.0 E15 ; draw 1st line
 G1 X2 Y200.0 Z0.4 F5000.0 ; move to side a little
 G1 X2 Y20 Z0.4 F1500.0 E30 ; draw 2nd line
 G92 E0 ; reset extruder
 G1 Z1.0 F3000 ; move z up little to prevent scratching of surface
G92 E0
G92 E0
G1 F1500 E-5
;LAYER_COUNT:175
;LAYER:0
M107
G1 F300 Z0.48
;MESH:outSW_v004.stl
G0 F6000 X164.417 Y142.933 Z0.48
;TYPE:WALL-INNER
G1 F300 Z0.28
G1 F1500 E0
G1 F1200 X135.583 Y142.933 E2.12673
G1 X135.583 Y157.067 E3.16922
G1 X164.417 Y157.067 E5.29595
G1 X164.417 Y142.933 E6.33844
G0 F6000 X163.889 Y143.461
;TYPE:WALL-OUTER
G1 F1200 X136.111 Y143.461 E8.38728
G1 X136.111 Y156.539 E9.35188
G1 X163.889 Y156.539 E11.40072
G1 X163.889 Y143.461 E12.36533
G0 F6000 X164.945 Y143.045
;TYPE:WALL-INNER
G1 F1200 X166.305 Y143.045 E12.46564
G1 X166.305 Y156.955 E13.49161
G1 X164.945 Y156.955 E13.59192
G1 X164.945 Y143.045 E14.61789
G1 F1500 E9.61789
G1 F300 Z0.48
G0 F6000 X133.695 Y143.045 Z0.48
G1 F300 Z0.28
G1 F1500 E14.61789
G1 F1200 X135.055 Y143.045 E14.7182
G1 X135.055 Y156.955 E15.74417
G1 X133.695 Y156.955 E15.84448
G1 X133.695 Y143.045 E16.87045
G0 F6000 X133.167 Y142.517
G1 F1200 X135.583 Y142.517 E17.04864
G1 X164.417 Y142.517 E18.72743
G1 X166.833 Y142.517 E18.90563
G1 X166.833 Y157.483 E20.00948
G1 X164.417 Y157.483 E20.18768
G1 X135.583 Y157.483 E21.86647
G1 X133.167 Y157.483 E22.04467
G1 X133.167 Y142.517 E23.14852
G0 F6000 X132.639 Y141.989
;TYPE:WALL-OUTER
G1 F1200 X167.361 Y141.989 E25.70954
G1 X167.361 Y158.011 E26.89128
G1 X132.639 Y158.011 E29.4523
G1 X132.639 Y141.989 E30.63404
G1 F1500 E25.63404
G1 F300 Z0.48
G0 F6000 X134.237 Y143.587 Z0.48
;TYPE:SKIN
G1 F300 Z0.28
G1 F1500 E30.63404
G1 F1200 X134.513 Y143.587 E30.65625
G1 X134.513 Y156.413 E31.68827
G1 X134.237 Y156.413 E31.71047
G1 X134.237 Y143.587 E32.74249
G1 F1500 E27.74249
G1 F300 Z0.48
G0 F6000 X165.487 Y143.587 Z0.48
G1 F300 Z0.28
G1 F1500 E32.74249
G1 F1200 X165.763 Y143.587 E32.7647
G1 X165.763 Y156.413 E33.79672
G1 X165.487 Y156.413 E33.81892
G1 X165.487 Y143.587 E34.85094
;MESH:NONMESH
G0 F300 X165.487 Y143.587 Z0.48
G0 F6000 X164.285 Y143.065
;TIME_ELAPSED:31.674830
;LAYER:1
M140 S80
M106 S17
;TYPE:WALL-INNER
;MESH:outSW_v004.stl
G1 F1350 X135.715 Y143.065 E35.89621
G1 X135.715 Y156.935 E36.40366
G1 X164.285 Y156.935 E37.44892
G1 X164.285 Y143.065 E37.95637
G0 F7500 X163.845 Y143.505
;TYPE:WALL-OUTER
G1 F1350 X136.155 Y143.505 E38.96944
G1 X136.155 Y156.495 E39.4447
G1 X163.845 Y156.495 E40.45777
G1 X163.845 Y143.505 E40.93302
G0 F7500 X164.725 Y142.825
;TYPE:WALL-INNER
G1 F1350 X166.525 Y142.825 E40.99888
G1 X166.525 Y157.175 E41.52389
G1 X164.725 Y157.175 E41.58974
G1 X164.725 Y142.825 E42.11476
G1 F1500 E37.11476
G1 F300 Z0.68
G0 F7500 X133.475 Y142.825 Z0.68
G1 F300 Z0.48
G1 F1500 E42.11476
G1 F1350 X135.275 Y142.825 E42.18061
G1 X135.275 Y157.175 E42.70562
G1 X133.475 Y157.175 E42.77148
G1 X133.475 Y142.825 E43.29649
G0 F7500 X133.035 Y142.385
G1 F1350 X166.965 Y142.385 E44.53786
G1 X166.965 Y157.615 E45.09506
G1 X133.035 Y157.615 E46.33643
G1 X133.035 Y142.385 E46.89364
G0 F7500 X132.595 Y141.945
;TYPE:WALL-OUTER
G1 F1350 X167.405 Y141.945 E48.1672
G1 X167.405 Y158.055 E48.75661
G1 X132.595 Y158.055 E50.03017
G1 X132.595 Y141.945 E50.61957
G1 F1500 E45.61957
G1 F300 Z0.68
G0 F7500 X133.925 Y143.275 Z0.68
;TYPE:SKIN
G1 F300 Z0.48
G1 F1500 E50.61957
G1 F1350 X134.825 Y143.275 E50.65549
G1 X134.825 Y156.725 E51.19231
G1 X133.925 Y156.725 E51.22823
G1 X133.925 Y143.275 E51.76505
G0 F7500 X134.631 Y143.686
G1 F1350 X134.119 Y144.198 E51.79395
G0 F7500 X134.631 Y144.365
G1 F1350 X134.119 Y144.876 E51.82282
G0 F7500 X134.631 Y145.043
G1 F1350 X134.119 Y145.555 E51.85172
G0 F7500 X134.631 Y145.722
G1 F1350 X134.119 Y146.234 E51.88062
G0 F7500 X134.631 Y146.401
G1 F1350 X134.119 Y146.913 E51.90952
G0 F7500 X134.631 Y147.08
G1 F1350 X134.119 Y147.592 E51.93842
G0 F7500 X134.631 Y147.759
G1 F1350 X134.119 Y148.271 E51.96732
G0 F7500 X134.631 Y148.437
G1 F1350 X134.119 Y148.949 E51.99622
G0 F7500 X134.631 Y149.116
G1 F1350 X134.119 Y149.628 E52.02512
G0 F7500 X134.631 Y149.795
G1 F1350 X134.119 Y150.307 E52.05402
G0 F7500 X134.631 Y150.474
G1 F1350 X134.119 Y150.986 E52.08292
G0 F7500 X134.631 Y151.153
G1 F1350 X134.119 Y151.665 E52.11182
G0 F7500 X134.631 Y151.832
G1 F1350 X134.119 Y152.344 E52.14072
G0 F7500 X134.631 Y152.51
G1 F1350 X134.119 Y153.022 E52.16962
G0 F7500 X134.631 Y153.189
G1 F1350 X134.119 Y153.701 E52.19852
G0 F7500 X134.631 Y153.868
G1 F1350 X134.119 Y154.38 E52.22741
G0 F7500 X134.631 Y154.547
G1 F1350 X134.119 Y155.059 E52.25631
G0 F7500 X134.631 Y155.226
G1 F1350 X134.119 Y155.738 E52.28521
G0 F7500 X134.631 Y155.905
G1 F1350 X134.119 Y156.416 E52.31409
G1 F1500 E47.31409
G1 F300 Z0.68
G0 F7500 X165.175 Y156.725 Z0.68
G1 F300 Z0.48
G1 F1500 E52.31409
G1 F1350 X165.175 Y143.275 E52.8509
G1 X166.075 Y143.275 E52.88682
G1 X166.075 Y156.725 E53.42364
G1 X165.175 Y156.725 E53.45956
G0 F7500 X165.368 Y156.393
G1 F1350 X165.88 Y155.881 E53.48846
G0 F7500 X165.368 Y155.714
G1 F1350 X165.88 Y155.202 E53.51736
G0 F7500 X165.368 Y155.035
G1 F1350 X165.88 Y154.524 E53.54623
G0 F7500 X165.368 Y154.357
G1 F1350 X165.88 Y153.845 E53.57513
G0 F7500 X165.368 Y153.678
G1 F1350 X165.88 Y153.166 E53.60403
G0 F7500 X165.368 Y152.999
G1 F1350 X165.88 Y152.487 E53.63293
G0 F7500 X165.368 Y152.32
G1 F1350 X165.88 Y151.808 E53.66183
G0 F7500 X165.368 Y151.641
G1 F1350 X165.88 Y151.129 E53.69073
G0 F7500 X165.368 Y150.963
G1 F1350 X165.88 Y150.451 E53.71963
G0 F7500 X165.368 Y150.284
G1 F1350 X165.88 Y149.772 E53.74853
G0 F7500 X165.368 Y149.605
G1 F1350 X165.88 Y149.093 E53.77743
G0 F7500 X165.368 Y148.926
G1 F1350 X165.88 Y148.414 E53.80633
G0 F7500 X165.368 Y148.247
G1 F1350 X165.88 Y147.735 E53.83523
G0 F7500 X165.368 Y147.568
G1 F1350 X165.88 Y147.056 E53.86413
G0 F7500 X165.368 Y146.89
G1 F1350 X165.88 Y146.378 E53.89303
G0 F7500 X165.368 Y146.211
G1 F1350 X165.88 Y145.699 E53.92193
G0 F7500 X165.368 Y145.532
G1 F1350 X165.88 Y145.02 E53.95083
G0 F7500 X165.368 Y144.853
G1 F1350 X165.88 Y144.341 E53.97973
G0 F7500 X165.368 Y144.174
G1 F1350 X165.88 Y143.662 E54.00863
G1 F1500 E49.00863
G1 F300 Z0.68
G0 F7500 X164.533 Y142.859 Z0.68
;TYPE:SKIN
G1 F300 Z0.48
G1 F1500 E54.00863
G1 F1350 X164.357 Y142.724 E54.0142
G1 X135.733 Y142.724 E54.73311
G1 X135.511 Y142.635 E54.73911
G1 F1500 E49.73911
G1 F300 Z0.68
G0 F7500 X135.548 Y157.222 Z0.68
G1 F300 Z0.48
G1 F1500 E54.73911
G1 F1350 X135.806 Y157.274 E54.74578
G1 X164.119 Y157.274 E55.46285
G0 F7500 X164.55 Y157.155
G1 F1350 X164.279 Y157.426 E55.46986
G1 F1500 E50.46986
G1 F300 Z0.68
;MESH:NONMESH
G0 F7500 X164.285 Y143.065 Z0.68
;TIME_ELAPSED:64.897539
;LAYER:2
M106 S34
;TYPE:WALL-INNER
;MESH:outSW_v004.stl
G1 F300 Z0.68
G1 F1500 E55.46986
G1 X135.715 Y143.065 E56.51512
G1 X135.715 Y156.935 E57.02257
G1 X164.285 Y156.935 E58.06784
G1 X164.285 Y143.065 E58.57529
G0 F9000 X163.845 Y143.505
;TYPE:WALL-OUTER
G1 F1500 X136.155 Y143.505 E59.58836
G1 X136.155 Y156.495 E60.06361
G1 X163.845 Y156.495 E61.07668
G1 X163.845 Y143.505 E61.55194
G0 F9000 X164.725 Y142.825
;TYPE:WALL-INNER
G1 F1500 X166.525 Y142.825 E61.61779
G1 X166.525 Y157.175 E62.14281
G1 X164.725 Y157.175 E62.20866
G1 X164.725 Y142.825 E62.73367
G1 F1500 E57.73367
G1 F300 Z0.88
G0 F9000 X133.475 Y142.825 Z0.88
G1 F300 Z0.68
G1 F1500 E62.73367
G1 X135.275 Y142.825 E62.79953
G1 X135.275 Y157.175 E63.32454
G1 X133.475 Y157.175 E63.39039
G1 X133.475 Y142.825 E63.9154
G0 F9000 X133.035 Y142.385
G1 F1500 X166.965 Y142.385 E65.15677
G1 X166.965 Y157.615 E65.71398
G1 X133.035 Y157.615 E66.95535
G1 X133.035 Y142.385 E67.51255
G0 F9000 X132.595 Y141.945
;TYPE:WALL-OUTER
G1 F1500 X167.405 Y141.945 E68.78612
G1 X167.405 Y158.055 E69.37552
G1 X132.595 Y158.055 E70.64908
G1 X132.595 Y141.945 E71.23849
G1 F1500 E66.23849
G1 F300 Z0.88
G0 F9000 X133.925 Y143.275 Z0.88
;TYPE:SKIN
G1 F300 Z0.68
G1 F1500 E71.23849
G1 X134.825 Y143.275 E71.27441
G1 X134.825 Y156.725 E71.81123
G1 X133.925 Y156.725 E71.84715
G1 X133.925 Y143.275 E72.38397
G0 F9000 X134.119 Y143.622
G1 F1500 X134.631 Y144.134 E72.41287
G0 F9000 X134.119 Y144.301
G1 F1500 X134.631 Y144.813 E72.44177
G0 F9000 X134.119 Y144.98
G1 F1500 X134.631 Y145.492 E72.47067
G0 F9000 X134.119 Y145.659
G1 F1500 X134.631 Y146.17 E72.49954
G0 F9000 X134.119 Y146.337
G1 F1500 X134.631 Y146.849 E72.52844
G0 F9000 X134.119 Y147.016
G1 F1500 X134.631 Y147.528 E72.55734
G0 F9000 X134.119 Y147.695
G1 F1500 X134.631 Y148.207 E72.58623
G0 F9000 X134.119 Y148.374
G1 F1500 X134.631 Y148.886 E72.61513
G0 F9000 X134.119 Y149.053
G1 F1500 X134.631 Y149.565 E72.64403
G0 F9000 X134.119 Y149.731
G1 F1500 X134.631 Y150.243 E72.67293
G0 F9000 X134.119 Y150.41
G1 F1500 X134.631 Y150.922 E72.70183
G0 F9000 X134.119 Y151.089
G1 F1500 X134.631 Y151.601 E72.73073
G0 F9000 X134.119 Y151.768
G1 F1500 X134.631 Y152.28 E72.75963
G0 F9000 X134.119 Y152.447
G1 F1500 X134.631 Y152.959 E72.78853
G0 F9000 X134.119 Y153.126
G1 F1500 X134.631 Y153.638 E72.81743
G0 F9000 X134.119 Y153.804
G1 F1500 X134.631 Y154.316 E72.84633
G0 F9000 X134.119 Y154.483
G1 F1500 X134.631 Y154.995 E72.87523
G0 F9000 X134.119 Y155.162
G1 F1500 X134.631 Y155.674 E72.90413
G0 F9000 X134.119 Y155.841
G1 F1500 X134.631 Y156.353 E72.93303
G1 F1500 E67.93303
G1 F300 Z0.88
G0 F9000 X165.175 Y156.725 Z0.88
G1 F300 Z0.68
G1 F1500 E72.93303
G1 X165.175 Y143.275 E73.46985
G1 X166.075 Y143.275 E73.50577
G1 X166.075 Y156.725 E74.04259
G1 X165.175 Y156.725 E74.07851
G0 F9000 X165.88 Y156.376
G1 F1500 X165.368 Y155.864 E74.10741
G0 F9000 X165.88 Y155.697
G1 F1500 X165.368 Y155.185 E74.13631
G0 F9000 X165.88 Y155.019
G1 F1500 X165.368 Y154.507 E74.16521
G0 F9000 X165.88 Y154.34
G1 F1500 X165.368 Y153.828 E74.19411
G0 F9000 X165.88 Y153.661
G1 F1500 X165.368 Y153.149 E74.22301
G0 F9000 X165.88 Y152.982
G1 F1500 X165.368 Y152.47 E74.2519
G0 F9000 X165.88 Y152.303
G1 F1500 X165.368 Y151.791 E74.2808
G0 F9000 X165.88 Y151.624
G1 F1500 X165.368 Y151.112 E74.3097
G0 F9000 X165.88 Y150.946
G1 F1500 X165.368 Y150.434 E74.3386
G0 F9000 X165.88 Y150.267
G1 F1500 X165.368 Y149.755 E74.3675
G0 F9000 X165.88 Y149.588
G1 F1500 X165.368 Y149.076 E74.3964
G0 F9000 X165.88 Y148.909
G1 F1500 X165.368 Y148.397 E74.4253
G0 F9000 X165.88 Y148.23
G1 F1500 X165.368 Y147.718 E74.4542
G0 F9000 X165.88 Y147.551
G1 F1500 X165.368 Y147.04 E74.48307
G0 F9000 X165.88 Y146.873
G1 F1500 X165.368 Y146.361 E74.51197
G0 F9000 X165.88 Y146.194
G1 F1500 X165.368 Y145.682 E74.54087
G0 F9000 X165.88 Y145.515
G1 F1500 X165.368 Y145.003 E74.56977
G0 F9000 X165.88 Y144.836
G1 F1500 X165.368 Y144.324 E74.59867
G0 F9000 X165.88 Y144.157
G1 F1500 X165.368 Y143.645 E74.62757
G0 F9000 X164.451 Y142.672
;TYPE:SKIN
G1 F1500 X164.191 Y142.724 E74.63429
G1 X135.879 Y142.724 E75.35166
G1 X135.583 Y142.739 E75.35917
G1 F1500 E70.35917
G1 F300 Z0.88
G0 F9000 X135.806 Y157.274 Z0.88
G1 F300 Z0.68
G1 F1500 E75.35917
G1 X136.117 Y157.274 E75.36707
G1 X164.119 Y157.274 E76.07849
G1 X164.414 Y157.259 E76.086
G1 F1500 E71.086
G1 F300 Z0.88
G0 F9000 X135.646 Y157.425 Z0.88
G1 F300 Z0.68
G1 F1500 E76.086
G1 X135.448 Y157.227 E76.09112
G1 F1500 E71.09112
G1 F300 Z0.88
;MESH:NONMESH
G0 F9000 X164.285 Y143.065 Z0.88
;TIME_ELAPSED:96.629356
;LAYER:3
M106 S51
;TYPE:WALL-INNER
;MESH:outSW_v004.stl
G1 F300 Z0.88
G1 F1500 E76.09112
G1 X135.715 Y143.065 E77.13639
G1 X135.715 Y156.935 E77.64384
G1 X164.285 Y156.935 E78.6891
G1 X164.285 Y143.065 E79.19655
G0 F9000 X163.845 Y143.505
;TYPE:WALL-OUTER
G1 F1500 X136.155 Y143.505 E80.20962
G1 X136.155 Y156.495 E80.68488
G1 X163.845 Y156.495 E81.69795
G1 X163.845 Y143.505 E82.1732
G0 F9000 X164.725 Y142.825
;TYPE:WALL-INNER
G1 F1500 X166.525 Y142.825 E82.23906
G1 X166.525 Y157.175 E82.76407
G1 X164.725 Y157.175 E82.82992
G1 X164.725 Y142.825 E83.35493
G1 F1500 E78.35493
G1 F300 Z1.08
G0 F9000 X133.475 Y142.825 Z1.08
G1 F300 Z0.88
G1 F1500 E83.35493
G1 X135.275 Y142.825 E83.42079
G1 X135.275 Y157.175 E83.9458
G1 X133.475 Y157.175 E84.01165
G1 X133.475 Y142.825 E84.53667
G0 F9000 X133.035 Y142.385
G1 F1500 X166.965 Y142.385 E85.77803
G1 X166.965 Y157.615 E86.33524
G1 X133.035 Y157.615 E87.57661
G1 X133.035 Y142.385 E88.13382
G0 F9000 X132.595 Y141.945
;TYPE:WALL-OUTER
G1 F1500 X167.405 Y141.945 E89.40738
G1 X167.405 Y158.055 E89.99678
G1 X132.595 Y158.055 E91.27035
G1 X132.595 Y141.945 E91.85975
G1 F1500 E86.85975
G1 F300 Z1.08
G0 F9000 X133.925 Y143.275 Z1.08
;TYPE:SKIN
G1 F300 Z0.88
G1 F1500 E91.85975
G1 X134.825 Y143.275 E91.89567
G1 X134.825 Y156.725 E92.43249
G1 X133.925 Y156.725 E92.46841
G1 X133.925 Y143.275 E93.00523
G0 F9000 X134.631 Y143.686
G1 F1500 X134.119 Y144.198 E93.03413
G0 F9000 X134.631 Y144.365
G1 F1500 X134.119 Y144.876 E93.063
G0 F9000 X134.631 Y145.043
G1 F1500 X134.119 Y145.555 E93.0919
G0 F9000 X134.631 Y145.722
G1 F1500 X134.119 Y146.234 E93.1208
G0 F9000 X134.631 Y146.401
G1 F1500 X134.119 Y146.913 E93.1497
G0 F9000 X134.631 Y147.08
G1 F1500 X134.119 Y147.592 E93.1786
G0 F9000 X134.631 Y147.759
G1 F1500 X134.119 Y148.271 E93.2075
G0 F9000 X134.631 Y148.437
G1 F1500 X134.119 Y148.949 E93.2364
G0 F9000 X134.631 Y149.116
G1 F1500 X134.119 Y149.628 E93.2653
G0 F9000 X134.631 Y149.795
G1 F1500 X134.119 Y150.307 E93.29419
G0 F9000 X134.631 Y150.474
G1 F1500 X134.119 Y150.986 E93.32309
G0 F9000 X134.631 Y151.153
G1 F1500 X134.119 Y151.665 E93.35199
G0 F9000 X134.631 Y151.832
G1 F1500 X134.119 Y152.344 E93.38089
G0 F9000 X134.631 Y152.51
G1 F1500 X134.119 Y153.022 E93.40979
G0 F9000 X134.631 Y153.189
G1 F1500 X134.119 Y153.701 E93.43869
G0 F9000 X134.631 Y153.868
G1 F1500 X134.119 Y154.38 E93.46759
G0 F9000 X134.631 Y154.547
G1 F1500 X134.119 Y155.059 E93.49649
G0 F9000 X134.631 Y155.226
G1 F1500 X134.119 Y155.738 E93.52539
G0 F9000 X134.631 Y155.905
G1 F1500 X134.119 Y156.416 E93.55426
G1 F1500 E88.55426
G1 F300 Z1.08
G0 F9000 X165.175 Y156.725 Z1.08
G1 F300 Z0.88
G1 F1500 E93.55426
G1 X165.175 Y143.275 E94.09108
G1 X166.075 Y143.275 E94.127
G1 X166.075 Y156.725 E94.66382
G1 X165.175 Y156.725 E94.69974
G0 F9000 X165.368 Y156.393
G1 F1500 X165.88 Y155.881 E94.72864
G0 F9000 X165.368 Y155.714
G1 F1500 X165.88 Y155.202 E94.75754
G0 F9000 X165.368 Y155.035
G1 F1500 X165.88 Y154.524 E94.78641
G0 F9000 X165.368 Y154.357
G1 F1500 X165.88 Y153.845 E94.81531
G0 F9000 X165.368 Y153.678
G1 F1500 X165.88 Y153.166 E94.84421
G0 F9000 X165.368 Y152.999
G1 F1500 X165.88 Y152.487 E94.87311
G0 F9000 X165.368 Y152.32
G1 F1500 X165.88 Y151.808 E94.90201
G0 F9000 X165.368 Y151.641
G1 F1500 X165.88 Y151.129 E94.93091
G0 F9000 X165.368 Y150.963
G1 F1500 X165.88 Y150.451 E94.95981
G0 F9000 X165.368 Y150.284
G1 F1500 X165.88 Y149.772 E94.98871
G0 F9000 X165.368 Y149.605
G1 F1500 X165.88 Y149.093 E95.01761
G0 F9000 X165.368 Y148.926
G1 F1500 X165.88 Y148.414 E95.04651
G0 F9000 X165.368 Y148.247
G1 F1500 X165.88 Y147.735 E95.07541
G0 F9000 X165.368 Y147.568
G1 F1500 X165.88 Y147.056 E95.10431
G0 F9000 X165.368 Y146.89
G1 F1500 X165.88 Y146.378 E95.13321
G0 F9000 X165.368 Y146.211
G1 F1500 X165.88 Y145.699 E95.1621
G0 F9000 X165.368 Y145.532
G1 F1500 X165.88 Y145.02 E95.191
G0 F9000 X165.368 Y144.853
G1 F1500 X165.88 Y144.341 E95.2199
G0 F9000 X165.368 Y144.174
G1 F1500 X165.88 Y143.662 E95.2488
G1 F1500 E90.2488
G1 F300 Z1.08
G0 F9000 X164.533 Y142.859 Z1.08
;TYPE:SKIN
G1 F300 Z0.88
G1 F1500 E95.2488
G1 X164.357 Y142.724 E95.25437
G1 X135.733 Y142.724 E95.97328
G1 X135.511 Y142.635 E95.97929
G1 F1500 E90.97929
G1 F300 Z1.08
G0 F9000 X135.548 Y157.222 Z1.08
G1 F300 Z0.88
G1 F1500 E95.97929
G1 X135.806 Y157.274 E95.98596
G1 X164.119 Y157.274 E96.70302
G0 F9000 X164.55 Y157.155
