;FLAVOR:Marlin
;TIME:4566
;Filament used: 3.16144m
;Layer height: 0.16
;MINX:131.71
;MINY:141.06
;MINZ:0.28
;MAXX:168.29
;MAXY:158.94
;MAXZ:34.88
;Generated with Cura_SteamEngine 4.13.1
M140 S95
M105
M190 S95
M104 S220
M105
M109 S220
M82 ;absolute extrusion mode
G28 ; home all axes
 M117 Purge extruder
 G92 E0 ; reset extruder
 G1 Z1.0 F3000 ; move z up little to prevent scratching of surface
 G1 X2 Y20 Z0.3 F5000.0 ; move to start-line position
 G1 X2 Y200.0 Z0.3 F1500.0 E15 ; draw 1st line
 G1 X2 Y200.0 Z0.4 F5000.0 ; move to side a little
 G1 X2 Y20 Z0.4 F1500.0 E30 ; draw 2nd line
 G92 E0 ; reset extruder
 G1 Z1.0 F3000 ; move z up little to prevent scratching of surface
G92 E0
G92 E0
G1 F1500 E-5
;LAYER_COUNT:175
;LAYER:0
M107
;MESH:outSW1500.stl
G0 F6000 X164.417 Y142.933 Z0.28
;TYPE:WALL-INNER
G1 F1500 E0
G1 F1200 X135.583 Y142.933 E2.30396
G1 X135.583 Y157.067 E3.43332
G1 X164.417 Y157.067 E5.73728
G1 X164.417 Y142.933 E6.86664
G0 F6000 X163.889 Y143.461
;TYPE:WALL-OUTER
G1 F1200 X136.111 Y143.461 E9.08622
G1 X136.111 Y156.539 E10.13121
G1 X163.889 Y156.539 E12.35078
G1 X163.889 Y143.461 E13.39577
G0 F6000 X164.945 Y143.045
;TYPE:WALL-INNER
G1 F1200 X166.305 Y143.045 E13.50444
G1 X166.305 Y156.955 E14.61591
G1 X164.945 Y156.955 E14.72458
G1 X164.945 Y143.045 E15.83604
G1 F1500 E10.83604
G0 F6000 X164.945 Y141.06
G0 X133.695 Y141.06
G0 X133.695 Y143.045
G1 F1500 E15.83604
G1 F1200 X135.055 Y143.045 E15.94471
G1 X135.055 Y156.955 E17.05618
G1 X133.695 Y156.955 E17.16485
G1 X133.695 Y143.045 E18.27632
G0 F6000 X133.167 Y142.517
G1 F1200 X135.583 Y142.517 E18.46936
G1 X164.417 Y142.517 E20.28805
G1 X166.833 Y142.517 E20.4811
G1 X166.833 Y157.483 E21.67694
G1 X164.417 Y157.483 E21.86999
G1 X135.583 Y157.483 E23.68867
G1 X133.167 Y157.483 E23.88172
G1 X133.167 Y142.517 E25.07757
G0 F6000 X132.639 Y141.989
;TYPE:WALL-OUTER
G1 F1200 X167.361 Y141.989 E27.852
G1 X167.361 Y158.011 E29.13222
G1 X132.639 Y158.011 E31.90665
G1 X132.639 Y141.989 E33.18688
G0 F6000 X134.237 Y143.587
;TYPE:SKIN
G1 F1200 X134.513 Y143.587 E33.21094
G1 X134.513 Y156.413 E34.32896
G1 X134.237 Y156.413 E34.35301
G1 X134.237 Y143.587 E35.47103
G1 F1500 E30.47103
G0 F6000 X134.237 Y141.06
G0 X162.972 Y144.378
G0 X165.487 Y143.587
G1 F1500 E35.47103
G1 F1200 X165.763 Y143.587 E35.49509
G1 X165.763 Y156.413 E36.61311
G1 X165.487 Y156.413 E36.63717
G1 X165.487 Y143.587 E37.75519
;MESH:NONMESH
G0 F300 X165.487 Y143.587 Z0.48
G0 F6000 X164.285 Y143.065
;TIME_ELAPSED:32.050923
;LAYER:1
M140 S85
M106 S8.1
;TYPE:WALL-INNER
;MESH:outSW1500.stl
G1 F1350 X135.715 Y143.065 E38.80045
G1 X135.715 Y156.935 E39.3079
G1 X164.285 Y156.935 E40.35317
G1 X164.285 Y143.065 E40.86062
G0 F7500 X163.845 Y143.505
;TYPE:WALL-OUTER
G1 F1500 X136.155 Y143.505 E41.87369
G1 X136.155 Y156.495 E42.34894
G1 X163.845 Y156.495 E43.36201
G1 X163.845 Y143.505 E43.83727
G0 F7500 X164.725 Y142.825
;TYPE:WALL-INNER
G1 F1350 X166.525 Y142.825 E43.90312
G1 X166.525 Y157.175 E44.42814
G1 X164.725 Y157.175 E44.49399
G1 X164.725 Y142.825 E45.019
G1 F1500 E40.019
G0 F7500 X164.725 Y141.06
G0 X133.475 Y141.06
G0 X133.475 Y142.825
G1 F1500 E45.019
G1 F1350 X135.275 Y142.825 E45.08486
G1 X135.275 Y157.175 E45.60987
G1 X133.475 Y157.175 E45.67572
G1 X133.475 Y142.825 E46.20073
G0 F7500 X133.035 Y142.385
G1 F1350 X166.965 Y142.385 E47.4421
G1 X166.965 Y157.615 E47.99931
G1 X133.035 Y157.615 E49.24068
G1 X133.035 Y142.385 E49.79788
G0 F7500 X132.595 Y141.945
;TYPE:WALL-OUTER
G1 F1500 X167.405 Y141.945 E51.07145
G1 X167.405 Y158.055 E51.66085
G1 X132.595 Y158.055 E52.93441
G1 X132.595 Y141.945 E53.52382
G0 F7500 X133.925 Y143.275
;TYPE:SKIN
G1 F1500 X134.825 Y143.275 E53.55974
G1 X134.825 Y156.725 E54.09656
G1 X133.925 Y156.725 E54.13248
G1 X133.925 Y143.275 E54.6693
G0 F7500 X134.631 Y143.686
G1 F1500 X134.119 Y144.198 E54.6982
G0 F7500 X134.631 Y144.365
G1 F1500 X134.119 Y144.876 E54.72707
G0 F7500 X134.631 Y145.043
G1 F1500 X134.119 Y145.555 E54.75597
G0 F7500 X134.631 Y145.722
G1 F1500 X134.119 Y146.234 E54.78487
G0 F7500 X134.631 Y146.401
G1 F1500 X134.119 Y146.913 E54.81377
G0 F7500 X134.631 Y147.08
G1 F1500 X134.119 Y147.592 E54.84267
G0 F7500 X134.631 Y147.759
G1 F1500 X134.119 Y148.271 E54.87156
G0 F7500 X134.631 Y148.437
G1 F1500 X134.119 Y148.949 E54.90046
G0 F7500 X134.631 Y149.116
G1 F1500 X134.119 Y149.628 E54.92936
G0 F7500 X134.631 Y149.795
G1 F1500 X134.119 Y150.307 E54.95826
G0 F7500 X134.631 Y150.474
G1 F1500 X134.119 Y150.986 E54.98716
G0 F7500 X134.631 Y151.153
G1 F1500 X134.119 Y151.665 E55.01606
G0 F7500 X134.631 Y151.832
G1 F1500 X134.119 Y152.344 E55.04496
G0 F7500 X134.631 Y152.51
G1 F1500 X134.119 Y153.022 E55.07386
G0 F7500 X134.631 Y153.189
G1 F1500 X134.119 Y153.701 E55.10276
G0 F7500 X134.631 Y153.868
G1 F1500 X134.119 Y154.38 E55.13166
G0 F7500 X134.631 Y154.547
G1 F1500 X134.119 Y155.059 E55.16056
G0 F7500 X134.631 Y155.226
G1 F1500 X134.119 Y155.738 E55.18946
G0 F7500 X134.631 Y155.905
G1 F1500 X134.119 Y156.416 E55.21833
G1 F1500 E50.21833
G0 F7500 X134.119 Y158.94
G0 X162.972 Y155.622
G0 X165.175 Y156.725
G1 F1500 E55.21833
G1 X165.175 Y143.275 E55.75515
G1 X166.075 Y143.275 E55.79107
G1 X166.075 Y156.725 E56.32789
G1 X165.175 Y156.725 E56.36381
G0 F7500 X165.368 Y156.393
G1 F1500 X165.88 Y155.881 E56.39271
G0 F7500 X165.368 Y155.714
G1 F1500 X165.88 Y155.202 E56.42161
G0 F7500 X165.368 Y155.035
G1 F1500 X165.88 Y154.524 E56.45048
G0 F7500 X165.368 Y154.357
G1 F1500 X165.88 Y153.845 E56.47938
G0 F7500 X165.368 Y153.678
G1 F1500 X165.88 Y153.166 E56.50828
G0 F7500 X165.368 Y152.999
G1 F1500 X165.88 Y152.487 E56.53718
G0 F7500 X165.368 Y152.32
G1 F1500 X165.88 Y151.808 E56.56608
G0 F7500 X165.368 Y151.641
G1 F1500 X165.88 Y151.129 E56.59498
G0 F7500 X165.368 Y150.963
G1 F1500 X165.88 Y150.451 E56.62388
G0 F7500 X165.368 Y150.284
G1 F1500 X165.88 Y149.772 E56.65278
G0 F7500 X165.368 Y149.605
G1 F1500 X165.88 Y149.093 E56.68168
G0 F7500 X165.368 Y148.926
G1 F1500 X165.88 Y148.414 E56.71058
G0 F7500 X165.368 Y148.247
G1 F1500 X165.88 Y147.735 E56.73947
G0 F7500 X165.368 Y147.568
G1 F1500 X165.88 Y147.056 E56.76837
G0 F7500 X165.368 Y146.89
G1 F1500 X165.88 Y146.378 E56.79727
G0 F7500 X165.368 Y146.211
G1 F1500 X165.88 Y145.699 E56.82617
G0 F7500 X165.368 Y145.532
G1 F1500 X165.88 Y145.02 E56.85507
G0 F7500 X165.368 Y144.853
G1 F1500 X165.88 Y144.341 E56.88397
G0 F7500 X165.368 Y144.174
G1 F1500 X165.88 Y143.662 E56.91287
G0 F7500 X164.55 Y142.843
G0 X164.533 Y142.859
;TYPE:SKIN
G1 F1500 X164.357 Y142.724 E56.91844
G1 X135.733 Y142.724 E57.63735
G1 X135.511 Y142.635 E57.64336
G1 F1500 E52.64336
G0 F7500 X135.574 Y141.06
G0 X137.028 Y155.622
G0 X135.548 Y157.222
G1 F1500 E57.64336
G1 X135.806 Y157.274 E57.65003
G1 X164.119 Y157.274 E58.36709
G0 F7500 X164.55 Y157.155
G1 F1500 X164.279 Y157.426 E58.3741
G1 F1500 E53.3741
;MESH:NONMESH
G0 F300 X164.279 Y157.426 Z0.68
G0 F7500 X164.279 Y158.94
G0 X162.972 Y144.378
G0 X164.285 Y143.065
;TIME_ELAPSED:64.462388
;LAYER:2
M106 S16.1
;TYPE:WALL-INNER
;MESH:outSW1500.stl
G1 F1500 E58.3741
G1 X135.715 Y143.065 E59.41937
G1 X135.715 Y156.935 E59.92682
G1 X164.285 Y156.935 E60.97209
G1 X164.285 Y143.065 E61.47953
G0 F9000 X163.845 Y143.505
;TYPE:WALL-OUTER
G1 F1800 X136.155 Y143.505 E62.49261
G1 X136.155 Y156.495 E62.96786
G1 X163.845 Y156.495 E63.98093
G1 X163.845 Y143.505 E64.45618
G0 F9000 X164.725 Y142.825
;TYPE:WALL-INNER
G1 F1500 X166.525 Y142.825 E64.52204
G1 X166.525 Y157.175 E65.04705
G1 X164.725 Y157.175 E65.11291
G1 X164.725 Y142.825 E65.63792
G1 F1500 E60.63792
G0 F9000 X164.725 Y141.06
G0 X133.475 Y141.06
G0 X133.475 Y142.825
G1 F1500 E65.63792
G1 X135.275 Y142.825 E65.70377
G1 X135.275 Y157.175 E66.22878
G1 X133.475 Y157.175 E66.29464
G1 X133.475 Y142.825 E66.81965
G0 F9000 X133.035 Y142.385
G1 F1500 X166.965 Y142.385 E68.06102
G1 X166.965 Y157.615 E68.61822
G1 X133.035 Y157.615 E69.85959
G1 X133.035 Y142.385 E70.4168
G0 F9000 X132.595 Y141.945
;TYPE:WALL-OUTER
G1 F1800 X167.405 Y141.945 E71.69036
G1 X167.405 Y158.055 E72.27977
G1 X132.595 Y158.055 E73.55333
G1 X132.595 Y141.945 E74.14273
G0 F9000 X133.925 Y143.275
;TYPE:SKIN
G1 F1800 X134.825 Y143.275 E74.17865
G1 X134.825 Y156.725 E74.71547
G1 X133.925 Y156.725 E74.75139
G1 X133.925 Y143.275 E75.28821
G0 F9000 X134.119 Y143.622
G1 F1800 X134.631 Y144.134 E75.31711
G0 F9000 X134.119 Y144.301
G1 F1800 X134.631 Y144.813 E75.34601
G0 F9000 X134.119 Y144.98
G1 F1800 X134.631 Y145.492 E75.37491
G0 F9000 X134.119 Y145.659
G1 F1800 X134.631 Y146.17 E75.40378
G0 F9000 X134.119 Y146.337
G1 F1800 X134.631 Y146.849 E75.43268
G0 F9000 X134.119 Y147.016
G1 F1800 X134.631 Y147.528 E75.46158
G0 F9000 X134.119 Y147.695
G1 F1800 X134.631 Y148.207 E75.49048
G0 F9000 X134.119 Y148.374
G1 F1800 X134.631 Y148.886 E75.51938
G0 F9000 X134.119 Y149.053
G1 F1800 X134.631 Y149.565 E75.54828
G0 F9000 X134.119 Y149.731
G1 F1800 X134.631 Y150.243 E75.57718
G0 F9000 X134.119 Y150.41
G1 F1800 X134.631 Y150.922 E75.60608
G0 F9000 X134.119 Y151.089
G1 F1800 X134.631 Y151.601 E75.63498
G0 F9000 X134.119 Y151.768
G1 F1800 X134.631 Y152.28 E75.66388
G0 F9000 X134.119 Y152.447
G1 F1800 X134.631 Y152.959 E75.69278
G0 F9000 X134.119 Y153.126
G1 F1800 X134.631 Y153.638 E75.72168
G0 F9000 X134.119 Y153.804
G1 F1800 X134.631 Y154.316 E75.75058
G0 F9000 X134.119 Y154.483
G1 F1800 X134.631 Y154.995 E75.77947
G0 F9000 X134.119 Y155.162
G1 F1800 X134.631 Y155.674 E75.80837
G0 F9000 X134.119 Y155.841
G1 F1800 X134.631 Y156.353 E75.83727
G1 F1500 E70.83727
G0 F9000 X137.028 Y155.622
G0 X162.972 Y155.622
G0 X165.175 Y156.725
G1 F1500 E75.83727
G1 F1800 X165.175 Y143.275 E76.37409
G1 X166.075 Y143.275 E76.41001
G1 X166.075 Y156.725 E76.94683
G1 X165.175 Y156.725 E76.98275
G0 F9000 X165.88 Y156.376
G1 F1800 X165.368 Y155.864 E77.01165
G0 F9000 X165.88 Y155.697
G1 F1800 X165.368 Y155.185 E77.04055
G0 F9000 X165.88 Y155.019
G1 F1800 X165.368 Y154.507 E77.06945
G0 F9000 X165.88 Y154.34
G1 F1800 X165.368 Y153.828 E77.09835
G0 F9000 X165.88 Y153.661
G1 F1800 X165.368 Y153.149 E77.12725
G0 F9000 X165.88 Y152.982
G1 F1800 X165.368 Y152.47 E77.15615
G0 F9000 X165.88 Y152.303
G1 F1800 X165.368 Y151.791 E77.18505
G0 F9000 X165.88 Y151.624
G1 F1800 X165.368 Y151.112 E77.21395
G0 F9000 X165.88 Y150.946
G1 F1800 X165.368 Y150.434 E77.24285
G0 F9000 X165.88 Y150.267
G1 F1800 X165.368 Y149.755 E77.27175
G0 F9000 X165.88 Y149.588
G1 F1800 X165.368 Y149.076 E77.30065
G0 F9000 X165.88 Y148.909
G1 F1800 X165.368 Y148.397 E77.32955
G0 F9000 X165.88 Y148.23
G1 F1800 X165.368 Y147.718 E77.35845
G0 F9000 X165.88 Y147.551
G1 F1800 X165.368 Y147.04 E77.38732
G0 F9000 X165.88 Y146.873
G1 F1800 X165.368 Y146.361 E77.41622
G0 F9000 X165.88 Y146.194
G1 F1800 X165.368 Y145.682 E77.44512
G0 F9000 X165.88 Y145.515
G1 F1800 X165.368 Y145.003 E77.47402
G0 F9000 X165.88 Y144.836
G1 F1800 X165.368 Y144.324 E77.50292
G0 F9000 X165.88 Y144.157
G1 F1800 X165.368 Y143.645 E77.53182
G0 F9000 X164.55 Y142.771
G0 X164.451 Y142.672
;TYPE:SKIN
G1 F1800 X164.191 Y142.724 E77.53853
G1 X135.879 Y142.724 E78.25591
G1 X135.583 Y142.739 E78.26342
G1 F1500 E73.26342
G0 F9000 X137.028 Y144.378
G0 X137.028 Y155.622
G0 X135.806 Y157.274
G1 F1500 E78.26342
G1 F1800 X136.117 Y157.274 E78.27132
G1 X164.119 Y157.274 E78.98274
G1 X164.414 Y157.259 E78.99024
G1 F1500 E73.99024
G0 F9000 X162.972 Y155.622
G0 X135.646 Y158.94
G0 X135.646 Y157.425
G1 F1500 E78.99024
G1 F1800 X135.448 Y157.227 E78.99536
G1 F1500 E73.99536
;MESH:NONMESH
G0 F300 X135.448 Y157.227 Z0.88
G0 F9000 X135.448 Y158.94
G0 X162.972 Y144.378
G0 X164.285 Y143.065
;TIME_ELAPSED:95.202030
;LAYER:3
M106 S24.2
;TYPE:WALL-INNER
;MESH:outSW1500.stl
G1 F1500 E78.99536
G1 X135.715 Y143.065 E80.04063
G1 X135.715 Y156.935 E80.54808
G1 X164.285 Y156.935 E81.59335
G1 X164.285 Y143.065 E82.1008
G0 F9000 X163.845 Y143.505
;TYPE:WALL-OUTER
G1 F1800 X136.155 Y143.505 E83.11387
G1 X136.155 Y156.495 E83.58912
G1 X163.845 Y156.495 E84.60219
G1 X163.845 Y143.505 E85.07745
G0 F9000 X164.725 Y142.825
;TYPE:WALL-INNER
G1 F1500 X166.525 Y142.825 E85.1433
G1 X166.525 Y157.175 E85.66831
G1 X164.725 Y157.175 E85.73417
G1 X164.725 Y142.825 E86.25918
G1 F1500 E81.25918
G0 F9000 X164.725 Y141.06
G0 X133.475 Y141.06
G0 X133.475 Y142.825
G1 F1500 E86.25918
G1 X135.275 Y142.825 E86.32503
G1 X135.275 Y157.175 E86.85004
G1 X133.475 Y157.175 E86.9159
G1 X133.475 Y142.825 E87.44091
G0 F9000 X133.035 Y142.385
G1 F1500 X166.965 Y142.385 E88.68228
G1 X166.965 Y157.615 E89.23949
G1 X133.035 Y157.615 E90.48085
G1 X133.035 Y142.385 E91.03806
G0 F9000 X132.595 Y141.945
;TYPE:WALL-OUTER
G1 F1800 X167.405 Y141.945 E92.31162
G1 X167.405 Y158.055 E92.90103
G1 X132.595 Y158.055 E94.17459
G1 X132.595 Y141.945 E94.76399
G0 F9000 X133.925 Y143.275
;TYPE:SKIN
G1 F1800 X134.825 Y143.275 E94.79992
G1 X134.825 Y156.725 E95.33673
G1 X133.925 Y156.725 E95.37265
G1 X133.925 Y143.275 E95.90947
G0 F9000 X134.631 Y143.686
G1 F1800 X134.119 Y144.198 E95.93837
G0 F9000 X134.631 Y144.365
G1 F1800 X134.119 Y144.876 E95.96724
G0 F9000 X134.631 Y145.043
G1 F1800 X134.119 Y145.555 E95.99614
G0 F9000 X134.631 Y145.722
G1 F1800 X134.119 Y146.234 E96.02504
G0 F9000 X134.631 Y146.401
G1 F1800 X134.119 Y146.913 E96.05394
G0 F9000 X134.631 Y147.08
G1 F1800 X134.119 Y147.592 E96.08284
G0 F9000 X134.631 Y147.759
G1 F1800 X134.119 Y148.271 E96.11174
G0 F9000 X134.631 Y148.437
G1 F1800 X134.119 Y148.949 E96.14064
G0 F9000 X134.631 Y149.116
G1 F1800 X134.119 Y149.628 E96.16954
G0 F9000 X134.631 Y149.795
G1 F1800 X134.119 Y150.307 E96.19844
G0 F9000 X134.631 Y150.474
G1 F1800 X134.119 Y150.986 E96.22734
G0 F9000 X134.631 Y151.153
G1 F1800 X134.119 Y151.665 E96.25624
G0 F9000 X134.631 Y151.832
G1 F1800 X134.119 Y152.344 E96.28514
G0 F9000 X134.631 Y152.51
G1 F1800 X134.119 Y153.022 E96.31404
G0 F9000 X134.631 Y153.189
G1 F1800 X134.119 Y153.701 E96.34294
G0 F9000 X134.631 Y153.868
G1 F1800 X134.119 Y154.38 E96.37184
G0 F9000 X134.631 Y154.547
G1 F1800 X134.119 Y155.059 E96.40074
G0 F9000 X134.631 Y155.226
G1 F1800 X134.119 Y155.738 E96.42964
G0 F9000 X134.631 Y155.905
G1 F1800 X134.119 Y156.416 E96.45851
G1 F1500 E91.45851
G0 F9000 X134.119 Y158.94
G0 X162.972 Y155.622
G0 X165.175 Y156.725
G1 F1500 E96.45851
G1 F1800 X165.175 Y143.275 E96.99533
G1 X166.075 Y143.275 E97.03125
G1 X166.075 Y156.725 E97.56807
G1 X165.175 Y156.725 E97.60399
G0 F9000 X165.368 Y156.393
G1 F1800 X165.88 Y155.881 E97.63289
G0 F9000 X165.368 Y155.714
G1 F1800 X165.88 Y155.202 E97.66179
G0 F9000 X165.368 Y155.035
G1 F1800 X165.88 Y154.524 E97.69066
G0 F9000 X165.368 Y154.357
G1 F1800 X165.88 Y153.845 E97.71956
G0 F9000 X165.368 Y153.678
G1 F1800 X165.88 Y153.166 E97.74846
G0 F9000 X165.368 Y152.999
G1 F1800 X165.88 Y152.487 E97.77736
G0 F9000 X165.368 Y152.32
G1 F1800 X165.88 Y151.808 E97.80625
G0 F9000 X165.368 Y151.641
G1 F1800 X165.88 Y151.129 E97.83515
G0 F9000 X165.368 Y150.963
G1 F1800 X165.88 Y150.451 E97.86405
G0 F9000 X165.368 Y150.284
G1 F1800 X165.88 Y149.772 E97.89295
G0 F9000 X165.368 Y149.605
G1 F1800 X165.88 Y149.093 E97.92185
G0 F9000 X165.368 Y148.926
G1 F1800 X165.88 Y148.414 E97.95075
G0 F9000 X165.368 Y148.247
G1 F1800 X165.88 Y147.735 E97.97965
G0 F9000 X165.368 Y147.568
G1 F1800 X165.88 Y147.056 E98.00855
G0 F9000 X165.368 Y146.89
G1 F1800 X165.88 Y146.378 E98.03745
G0 F9000 X165.368 Y146.211
G1 F1800 X165.88 Y145.699 E98.06635
G0 F9000 X165.368 Y145.532
G1 F1800 X165.88 Y145.02 E98.09525
G0 F9000 X165.368 Y144.853
G1 F1800 X165.88 Y144.341 E98.12415
G0 F9000 X165.368 Y144.174
G1 F1800 X165.88 Y143.662 E98.15305
G0 F9000 X164.55 Y142.843
G0 X164.533 Y142.859
;TYPE:SKIN
G1 F1800 X164.357 Y142.724 E98.15862
G1 X135.733 Y142.724 E98.87753
G1 X135.511 Y142.635 E98.88354
G1 F1500 E93.88354
G0 F9000 X135.574 Y141.06
G0 X137.028 Y155.622
G0 X135.548 Y157.222
G1 F1500 E98.88354
G1 F1800 X135.806 Y157.274 E98.8902
G1 X164.119 Y157.274 E99.60727
G0 F9000 X164.55 Y157.155
G1 F1800 X164.279 Y157.426 E99.61428
G1 F1500 E94.61428
;MESH:NONMESH
G0 F300 X164.279 Y157.426 Z1.08
G0 F9000 X164.279 Y158.94
G0 X162.972 Y144.378
G0 X164.285 Y143.065
;TIME_ELAPSED:124.983487
;LAYER:4
M106 S32.2
