;FLAVOR:Marlin
;TIME:8817
;Filament used: 6.8046m
;Layer height: 0.16
;MINX:40.795
;MINY:191.945
;MINZ:0.28
;MAXX:108.425
;MAXY:253.275
;MAXZ:17.84
;Generated with Cura_SteamEngine 4.12.1
M140 S90
M105
M190 S90
M104 S220
M105
M109 S220
M82 ;absolute extrusion mode
G28 ; home all axes
 M117 Purge extruder
 G92 E0 ; reset extruder
 G1 Z1.0 F3000 ; move z up little to prevent scratching of surface
 G1 X2 Y20 Z0.3 F5000.0 ; move to start-line position
 G1 X2 Y200.0 Z0.3 F1500.0 E15 ; draw 1st line
 G1 X2 Y200.0 Z0.4 F5000.0 ; move to side a little
 G1 X2 Y20 Z0.4 F1500.0 E30 ; draw 2nd line
 G92 E0 ; reset extruder
 G1 Z1.0 F3000 ; move z up little to prevent scratching of surface
G92 E0
G92 E0
G1 F1500 E-5
;LAYER_COUNT:98
;LAYER:0
M107
;MESH:outillageXT_v2_009-outillageFemChamfer001.stl
G0 F6000 X56.08 Y214.665 Z0.28
;TYPE:WALL-INNER
G1 F1500 E0
G1 F1200 X45.14 Y214.665 E0.87415
G1 X45.14 Y229.805 E2.0839
G1 X48.585 Y233.055 E2.46233
G1 X52.635 Y233.055 E2.78595
G1 X56.08 Y229.805 E3.16438
G1 X56.08 Y214.665 E4.37413
G0 F6000 X55.552 Y215.193
G1 F1200 X45.668 Y215.193 E5.1639
G1 X45.668 Y229.577 E6.31324
G1 X48.795 Y232.527 E6.65674
G1 X52.425 Y232.527 E6.94679
G1 X55.552 Y229.577 E7.29029
G1 X55.552 Y215.193 E8.43964
G0 F6000 X55.024 Y215.721
;TYPE:WALL-OUTER
G1 F1200 X46.196 Y215.721 E9.14503
G1 X46.196 Y229.349 E10.23396
G1 X49.005 Y231.999 E10.54253
G1 X52.215 Y231.999 E10.79902
G1 X55.024 Y229.349 E11.10759
G1 X55.024 Y215.721 E12.19653
G1 F1500 E7.19653
G0 F6000 X54.107 Y216.638
G0 X108.425 Y224.53
G0 X97.08 Y224.53
;TYPE:WALL-INNER
G1 F1500 E12.19653
G1 F1200 X97.08 Y220.69 E12.50336
G1 X67.94 Y220.69 E14.83176
G1 X67.94 Y224.53 E15.1386
G1 X97.08 Y224.53 E17.467
G0 F6000 X96.552 Y224.002
G1 F1200 X96.552 Y221.218 E17.68946
G1 X68.468 Y221.218 E19.93349
G1 X68.468 Y224.002 E20.15594
G1 X96.552 Y224.002 E22.39997
G0 F6000 X96.024 Y223.474
;TYPE:WALL-OUTER
G1 F1200 X96.024 Y221.746 E22.53804
G1 X68.996 Y221.746 E24.69769
G1 X68.996 Y223.474 E24.83576
G1 X96.024 Y223.474 E26.99541
G1 F1500 E21.99541
G0 F6000 X108.425 Y223.474
G0 X108.425 Y251.29
G0 X106.44 Y251.29
;TYPE:WALL-INNER
G1 F1500 E26.99541
G1 F1200 X106.08 Y251.29 E27.02418
G1 X106.08 Y240.063 E27.92126
G1 X102.307 Y236.29 E28.34762
G1 X43.5 Y236.29 E33.04654
G1 X43.499 Y208.93 E35.23272
G1 X102.307 Y208.93 E39.93172
G1 X106.08 Y205.157 E40.35808
G1 X106.08 Y193.93 E41.25516
G1 X106.44 Y193.93 E41.28393
G1 X106.44 Y205.157 E41.89673
G1 X106.44 Y240.063 E44.68587
G1 X106.44 Y251.29 E45.29868
G0 F6000 X106.968 Y251.818
G1 F1200 X105.552 Y251.818 E45.41182
G1 X105.552 Y240.282 E46.3336
G1 X102.088 Y236.818 E46.72503
G1 X42.972 Y236.818 E51.44865
G1 X42.971 Y208.402 E53.7192
G1 X102.088 Y208.402 E58.4429
G1 X105.552 Y204.938 E58.83433
G1 X105.552 Y193.402 E59.75611
G1 X106.968 Y193.402 E59.86925
G1 X106.968 Y251.818 E64.53693
G0 F6000 X107.496 Y252.346
;TYPE:WALL-OUTER
G1 F1200 X105.024 Y252.346 E64.73446
G1 X105.024 Y240.501 E65.68092
G1 X101.869 Y237.346 E66.03744
G1 X42.444 Y237.346 E70.78574
G1 X42.443 Y207.874 E73.14068
G1 X101.869 Y207.874 E77.88906
G1 X105.024 Y204.719 E78.24558
G1 X105.024 Y192.874 E79.19205
G1 X107.496 Y192.874 E79.38957
G1 X107.496 Y252.346 E84.14163
G1 F1500 E79.14163
G0 F6000 X108.425 Y252.346
G0 X108.413 Y253.263
G0 X104.107 Y253.263
G0 X104.099 Y240.884
G0 X105.898 Y239.114
;TYPE:SKIN
G1 F1500 E84.14163
G1 F1200 X102.531 Y235.748 E84.55663
G1 X44.042 Y235.748 E89.65501
G1 X44.041 Y209.472 E91.94544
G1 X102.531 Y209.472 E97.04391
G1 X105.898 Y206.106 E97.45891
G1 X105.898 Y239.114 E100.33616
G1 F1500 E95.33616
G0 F6000 X104.099 Y240.884
G0 X104.107 Y253.263
G0 X108.413 Y253.263
G0 X108.425 Y225.072
G0 X97.622 Y225.072
G1 F1500 E100.33616
G1 F1200 X97.622 Y220.148 E100.76538
G1 X67.398 Y220.148 E103.39995
G1 X67.398 Y225.072 E103.82916
G1 X97.622 Y225.072 E106.46373
G1 F1500 E101.46373
G0 F6000 X108.425 Y225.072
G0 X54.099 Y228.95
G0 X56.622 Y230.039
G1 F1500 E106.46373
G1 F1200 X56.622 Y214.123 E107.8511
G1 X44.598 Y214.123 E108.89921
G1 X44.598 Y230.039 E110.28658
G1 X48.37 Y233.597 E110.73857
G1 X52.85 Y233.597 E111.12909
G1 X56.622 Y230.039 E111.58108
G1 F1500 E106.58108
G0 F6000 X54.099 Y228.95
G0 X44.892 Y238.275
G0 X44.892 Y235.505
G1 F1500 E111.58108
G1 F1200 X44.283 Y234.897 E111.65609
G0 F6000 X44.283 Y234.082
G1 F1200 X45.706 Y235.505 E111.83151
G0 F6000 X46.521 Y235.505
G1 F1200 X44.283 Y233.268 E112.10734
G0 F6000 X44.283 Y232.453
G1 F1200 X47.335 Y235.505 E112.48357
G0 F6000 X48.15 Y235.505
G1 F1200 X44.283 Y231.638 E112.96027
G0 F6000 X44.283 Y230.824
G1 F1200 X48.965 Y235.505 E113.53738
G0 F6000 X49.779 Y235.505
G1 F1200 X45.418 Y231.144 E114.07498
G0 F6000 X48.927 Y233.838
G1 F1200 X50.594 Y235.505 E114.28048
G0 F6000 X51.408 Y235.505
G1 F1200 X49.742 Y233.838 E114.48592
G0 F6000 X50.556 Y233.838
G1 F1200 X52.223 Y235.505 E114.69142
G0 F6000 X53.037 Y235.505
G1 F1200 X51.371 Y233.838 E114.89685
G0 F6000 X52.185 Y233.838
G1 F1200 X53.852 Y235.505 E115.10235
G0 F6000 X54.667 Y235.505
G1 F1200 X52.974 Y233.812 E115.31105
G0 F6000 X53.392 Y233.416
G1 F1200 X55.481 Y235.505 E115.56857
G0 F6000 X56.296 Y235.505
G1 F1200 X53.812 Y233.021 E115.87479
G0 F6000 X54.231 Y232.626
G1 F1200 X57.11 Y235.505 E116.22969
G0 F6000 X57.925 Y235.505
G1 F1200 X54.65 Y232.23 E116.63342
G0 F6000 X55.07 Y231.835
G1 F1200 X58.74 Y235.505 E117.08584
G0 F6000 X59.554 Y235.505
G1 F1200 X55.488 Y231.439 E117.58707
G0 F6000 X55.908 Y231.044
G1 F1200 X60.369 Y235.505 E118.137
G0 F6000 X61.183 Y235.505
G1 F1200 X56.327 Y230.649 E118.73562
G0 F6000 X56.746 Y230.253
G1 F1200 X61.998 Y235.505 E119.38305
G0 F6000 X62.813 Y235.505
G1 F1200 X56.864 Y229.556 E120.11641
G0 F6000 X56.864 Y228.741
G1 F1200 X63.627 Y235.505 E120.95018
G0 F6000 X64.442 Y235.505
G1 F1200 X56.864 Y227.927 E121.88435
G0 F6000 X56.864 Y227.112
G1 F1200 X65.256 Y235.505 E122.91893
G0 F6000 X66.071 Y235.505
G1 F1200 X56.864 Y226.298 E124.05392
G0 F6000 X56.864 Y225.483
G1 F1200 X66.885 Y235.505 E125.28932
G0 F6000 X67.7 Y235.505
G1 F1200 X56.864 Y224.669 E126.62512
G0 F6000 X56.864 Y223.854
G1 F1200 X68.515 Y235.505 E128.06139
G0 F6000 X69.329 Y235.505
G1 F1200 X56.864 Y223.039 E129.59806
G0 F6000 X56.864 Y222.225
G1 F1200 X70.144 Y235.505 E131.23515
G0 F6000 X70.958 Y235.505
G1 F1200 X56.864 Y221.41 E132.97264
G0 F6000 X56.864 Y220.596
G1 F1200 X71.773 Y235.505 E134.81054
G0 F6000 X72.588 Y235.505
G1 F1200 X56.864 Y219.781 E136.7489
G0 F6000 X56.864 Y218.966
G1 F1200 X73.402 Y235.505 E138.78768
G0 F6000 X74.217 Y235.505
G1 F1200 X56.864 Y218.152 E140.92686
G0 F6000 X56.864 Y217.337
G1 F1200 X75.031 Y235.505 E143.16644
G0 F6000 X75.846 Y235.505
G1 F1200 X56.864 Y216.523 E145.50644
G0 F6000 X56.864 Y215.708
G1 F1200 X76.66 Y235.505 E147.94684
G0 F6000 X77.475 Y235.505
G1 F1200 X67.283 Y225.313 E149.20325
G0 F6000 X67.156 Y225.185
G1 F1200 X56.864 Y214.893 E150.47199
G0 F6000 X56.864 Y214.079
G1 F1200 X67.156 Y224.371 E151.74073
G0 F6000 X67.156 Y223.556
G1 F1200 X53.313 Y209.713 E153.44722
G0 F6000 X54.127 Y209.713
G1 F1200 X67.156 Y222.742 E155.05336
G0 F6000 X67.156 Y221.927
G1 F1200 X54.942 Y209.713 E156.55904
G0 F6000 X55.756 Y209.713
G1 F1200 X67.156 Y221.112 E157.9643
G0 F6000 X67.156 Y220.298
G1 F1200 X56.571 Y209.713 E159.26916
G0 F6000 X57.385 Y209.713
G1 F1200 X67.577 Y219.905 E160.52558
G0 F6000 X68.392 Y219.905
G1 F1200 X58.2 Y209.713 E161.78199
G0 F6000 X59.015 Y209.713
G1 F1200 X69.206 Y219.905 E163.03834
G0 F6000 X70.021 Y219.905
G1 F1200 X59.829 Y209.713 E164.29475
G0 F6000 X60.644 Y209.713
G1 F1200 X70.835 Y219.905 E165.5511
G0 F6000 X71.65 Y219.905
G1 F1200 X61.458 Y209.713 E166.80752
G0 F6000 X62.273 Y209.713
G1 F1200 X72.465 Y219.905 E168.06393
G0 F6000 X73.279 Y219.905
G1 F1200 X63.088 Y209.713 E169.32028
G0 F6000 X63.902 Y209.713
G1 F1200 X74.094 Y219.905 E170.57669
G0 F6000 X74.908 Y219.905
G1 F1200 X64.717 Y209.713 E171.83304
G0 F6000 X65.531 Y209.713
G1 F1200 X75.723 Y219.905 E173.08946
G0 F6000 X76.537 Y219.905
G1 F1200 X66.346 Y209.713 E174.34581
G0 F6000 X67.161 Y209.713
G1 F1200 X77.352 Y219.905 E175.60216
G0 F6000 X78.167 Y219.905
G1 F1200 X67.975 Y209.713 E176.85857
G0 F6000 X68.79 Y209.713
G1 F1200 X78.981 Y219.905 E178.11492
G0 F6000 X79.796 Y219.905
G1 F1200 X69.604 Y209.713 E179.37133
G0 F6000 X70.419 Y209.713
G1 F1200 X80.61 Y219.905 E180.62769
G0 F6000 X81.425 Y219.905
G1 F1200 X71.233 Y209.713 E181.8841
G0 F6000 X72.048 Y209.713
G1 F1200 X82.24 Y219.905 E183.14051
G0 F6000 X83.054 Y219.905
G1 F1200 X72.863 Y209.713 E184.39686
G0 F6000 X73.677 Y209.713
G1 F1200 X83.869 Y219.905 E185.65327
G0 F6000 X84.683 Y219.905
G1 F1200 X74.492 Y209.713 E186.90963
G0 F6000 X75.306 Y209.713
G1 F1200 X85.498 Y219.905 E188.16604
G0 F6000 X86.312 Y219.905
G1 F1200 X76.121 Y209.713 E189.42239
G0 F6000 X76.936 Y209.713
G1 F1200 X87.127 Y219.905 E190.67874
G0 F6000 X87.942 Y219.905
G1 F1200 X77.75 Y209.713 E191.93515
G0 F6000 X78.565 Y209.713
G1 F1200 X88.756 Y219.905 E193.1915
G0 F6000 X89.571 Y219.905
G1 F1200 X79.379 Y209.713 E194.44792
G0 F6000 X80.194 Y209.713
G1 F1200 X90.385 Y219.905 E195.70427
G0 F6000 X91.2 Y219.905
G1 F1200 X81.008 Y209.713 E196.96068
G0 F6000 X81.823 Y209.713
G1 F1200 X92.015 Y219.905 E198.21709
G0 F6000 X92.829 Y219.905
G1 F1200 X82.638 Y209.713 E199.47344
G0 F6000 X83.452 Y209.713
G1 F1200 X93.644 Y219.905 E200.72986
G0 F6000 X94.458 Y219.905
G1 F1200 X84.267 Y209.713 E201.98621
G0 F6000 X85.081 Y209.713
G1 F1200 X95.273 Y219.905 E203.24262
G0 F6000 X96.088 Y219.905
G1 F1200 X85.896 Y209.713 E204.49903
G0 F6000 X86.711 Y209.713
G1 F1200 X96.902 Y219.905 E205.75538
G0 F6000 X97.717 Y219.905
G1 F1200 X87.525 Y209.713 E207.0118
G0 F6000 X88.34 Y209.713
G1 F1200 X105.655 Y227.029 E209.14635
G0 F6000 X105.655 Y227.843
G1 F1200 X97.864 Y220.052 E210.10678
G0 F6000 X97.864 Y220.866
G1 F1200 X105.655 Y228.658 E211.06728
G0 F6000 X105.655 Y229.473
G1 F1200 X97.864 Y221.681 E212.02777
G0 F6000 X97.864 Y222.496
G1 F1200 X105.655 Y230.287 E212.9882
G0 F6000 X105.655 Y231.102
G1 F1200 X97.864 Y223.31 E213.94869
G0 F6000 X97.864 Y224.125
G1 F1200 X105.655 Y231.916 E214.90912
G0 F6000 X105.655 Y232.731
G1 F1200 X97.864 Y224.939 E215.86962
G0 F6000 X97.423 Y225.313
G1 F1200 X105.655 Y233.546 E216.88447
G0 F6000 X105.655 Y234.36
G1 F1200 X96.608 Y225.313 E217.99974
G0 F6000 X95.793 Y225.313
G1 F1200 X105.655 Y235.175 E219.21547
G0 F6000 X105.655 Y235.989
G1 F1200 X94.979 Y225.313 E220.53155
G0 F6000 X94.164 Y225.313
G1 F1200 X105.655 Y236.804 E221.94809
G0 F6000 X105.655 Y237.618
G1 F1200 X93.35 Y225.313 E223.46498
G0 F6000 X92.535 Y225.313
G1 F1200 X105.655 Y238.433 E225.08234
G0 F6000 X101.913 Y235.505
G1 F1200 X91.72 Y225.313 E226.33882
G0 F6000 X90.906 Y225.313
G1 F1200 X101.098 Y235.505 E227.59523
G0 F6000 X100.284 Y235.505
G1 F1200 X90.091 Y225.313 E228.8517
G0 F6000 X89.277 Y225.313
G1 F1200 X99.469 Y235.505 E230.10812
G0 F6000 X98.654 Y235.505
G1 F1200 X88.462 Y225.313 E231.36453
G0 F6000 X87.648 Y225.313
G1 F1200 X97.84 Y235.505 E232.62094
G0 F6000 X97.025 Y235.505
G1 F1200 X86.833 Y225.313 E233.87736
G0 F6000 X86.018 Y225.313
G1 F1200 X96.211 Y235.505 E235.13383
G0 F6000 X95.396 Y235.505
G1 F1200 X85.204 Y225.313 E236.39024
G0 F6000 X84.389 Y225.313
G1 F1200 X94.581 Y235.505 E237.64665
G0 F6000 X93.767 Y235.505
G1 F1200 X83.575 Y225.313 E238.90307
G0 F6000 X82.76 Y225.313
G1 F1200 X92.952 Y235.505 E240.15948
G0 F6000 X92.138 Y235.505
G1 F1200 X81.945 Y225.313 E241.41595
G0 F6000 X81.131 Y225.313
G1 F1200 X91.323 Y235.505 E242.67237
G0 F6000 X90.508 Y235.505
G1 F1200 X80.316 Y225.313 E243.92878
G0 F6000 X79.502 Y225.313
G1 F1200 X89.694 Y235.505 E245.18519
G0 F6000 X88.879 Y235.505
G1 F1200 X78.687 Y225.313 E246.4416
G0 F6000 X77.872 Y225.313
G1 F1200 X88.065 Y235.505 E247.69808
G0 F6000 X87.25 Y235.505
G1 F1200 X77.058 Y225.313 E248.95449
G0 F6000 X76.243 Y225.313
G1 F1200 X86.436 Y235.505 E250.21097
G0 F6000 X85.621 Y235.505
G1 F1200 X75.429 Y225.313 E251.46738
G0 F6000 X74.614 Y225.313
G1 F1200 X84.806 Y235.505 E252.72379
G0 F6000 X83.992 Y235.505
G1 F1200 X73.8 Y225.313 E253.9802
G0 F6000 X72.985 Y225.313
G1 F1200 X83.177 Y235.505 E255.23662
G0 F6000 X82.363 Y235.505
G1 F1200 X72.17 Y225.313 E256.49309
G0 F6000 X71.356 Y225.313
G1 F1200 X81.548 Y235.505 E257.7495
G0 F6000 X80.733 Y235.505
G1 F1200 X70.541 Y225.313 E259.00592
G0 F6000 X69.727 Y225.313
G1 F1200 X79.919 Y235.505 E260.26233
G0 F6000 X79.104 Y235.505
G1 F1200 X68.912 Y225.313 E261.51874
G0 F6000 X68.097 Y225.313
G1 F1200 X78.29 Y235.505 E262.77522
G1 F1500 E257.77522
G0 F6000 X78.29 Y238.275
G0 X41.527 Y238.263
G0 X41.526 Y206.957
G0 X89.154 Y206.945
G0 X89.154 Y209.713
G1 F1500 E262.77522
G1 F1200 X105.655 Y226.214 E264.80937
G0 F6000 X105.655 Y225.4
G1 F1200 X89.969 Y209.713 E266.74311
G0 F6000 X90.784 Y209.713
G1 F1200 X105.655 Y224.585 E268.57639
G0 F6000 X105.655 Y223.771
G1 F1200 X91.598 Y209.713 E270.30932
G0 F6000 X92.413 Y209.713
G1 F1200 X105.655 Y222.956 E271.94178
G0 F6000 X105.655 Y222.141
G1 F1200 X93.227 Y209.713 E273.47383
G0 F6000 X94.042 Y209.713
G1 F1200 X105.655 Y221.327 E274.90548
G0 F6000 X105.655 Y220.512
G1 F1200 X94.856 Y209.713 E276.23672
G0 F6000 X95.671 Y209.713
G1 F1200 X105.655 Y219.698 E277.46755
G0 F6000 X105.655 Y218.883
G1 F1200 X96.486 Y209.713 E278.59792
G0 F6000 X97.3 Y209.713
G1 F1200 X105.655 Y218.068 E279.62787
G0 F6000 X105.655 Y217.254
G1 F1200 X98.115 Y209.713 E280.55742
G0 F6000 X98.929 Y209.713
G1 F1200 X105.655 Y216.439 E281.38657
G0 F6000 X105.655 Y215.625
G1 F1200 X99.744 Y209.713 E282.1153
G0 F6000 X100.559 Y209.713
G1 F1200 X105.655 Y214.81 E282.74357
G0 F6000 X105.655 Y213.995
G1 F1200 X101.373 Y209.713 E283.27143
G0 F6000 X102.188 Y209.713
G1 F1200 X105.655 Y213.181 E283.69889
G0 F6000 X105.655 Y212.366
G1 F1200 X102.816 Y209.527 E284.04886
G0 F6000 X103.224 Y209.12
G1 F1200 X105.655 Y211.552 E284.34861
G0 F6000 X105.655 Y210.737
G1 F1200 X103.631 Y208.713 E284.59811
G0 F6000 X104.038 Y208.305
G1 F1200 X105.655 Y209.923 E284.79751
G0 F6000 X105.655 Y209.108
G1 F1200 X104.446 Y207.899 E284.94655
G0 F6000 X104.854 Y207.491
G1 F1200 X105.655 Y208.293 E285.04535
G0 F6000 X105.655 Y207.479
G1 F1200 X105.261 Y207.084 E285.09398
G1 F1500 E280.09398
G0 F6000 X103.303 Y205.127
G0 X54.107 Y216.638
G0 X56.664 Y213.88
G1 F1500 E285.09398
G1 F1200 X52.498 Y209.713 E285.60761
G0 F6000 X51.683 Y209.713
G1 F1200 X55.85 Y213.88 E286.12129
G0 F6000 X55.035 Y213.88
G1 F1200 X50.869 Y209.713 E286.63491
G0 F6000 X50.054 Y209.713
G1 F1200 X54.22 Y213.88 E287.14854
G0 F6000 X53.406 Y213.88
G1 F1200 X49.24 Y209.713 E287.66216
G0 F6000 X48.425 Y209.713
G1 F1200 X52.591 Y213.88 E288.17578
G0 F6000 X51.777 Y213.88
G1 F1200 X47.61 Y209.713 E288.68947
G0 F6000 X46.796 Y209.713
G1 F1200 X50.962 Y213.88 E289.20309
G0 F6000 X50.148 Y213.88
G1 F1200 X45.981 Y209.713 E289.71677
G0 F6000 X45.167 Y209.713
G1 F1200 X49.333 Y213.88 E290.2304
G0 F6000 X48.518 Y213.88
G1 F1200 X44.352 Y209.713 E290.74402
G0 F6000 X44.283 Y210.459
G1 F1200 X47.704 Y213.88 E291.16574
G0 F6000 X46.889 Y213.88
G1 F1200 X44.283 Y211.273 E291.48706
G0 F6000 X44.283 Y212.088
G1 F1200 X46.075 Y213.88 E291.70796
G0 F6000 X45.26 Y213.88
G1 F1200 X44.283 Y212.902 E291.82846
G0 F6000 X44.283 Y213.717
G1 F1200 X44.445 Y213.88 E291.8485
G1 F1500 E286.8485
G0 F6000 X41.515 Y213.881
G0 X41.526 Y206.957
G0 X104.099 Y204.336
G0 X105.836 Y205.707
;TYPE:SKIN
G1 F1500 E291.8485
G1 F1200 X105.996 Y205.868 E291.85605
G0 F6000 X106.222 Y205.782
G1 F1200 X105.991 Y205.552 E291.86691
G0 F6000 X106.147 Y205.396
G1 F1200 X106.222 Y205.471 E291.87044
G1 F1500 E286.87044
G0 F6000 X108.425 Y205.471
G0 X108.425 Y239.294
G0 X106.131 Y239.294
G1 F1500 E291.87044
G1 F1200 X106.222 Y239.384 E291.8747
G0 F6000 X106.222 Y239.695
G1 F1200 X105.911 Y239.385 E291.88932
G1 F1500 E286.88932
;MESH:NONMESH
G0 F300 X105.911 Y239.385 Z0.48
G0 F6000 X104.099 Y240.884
G0 X54.107 Y216.638
G0 X55.86 Y214.885
;TIME_ELAPSED:208.784214
;LAYER:1
M140 S80
M106 S8.1
;TYPE:WALL-INNER
;MESH:outillageXT_v2_009-outillageFemChamfer001.stl
G1 F1500 E291.88932
G1 F1350 X45.36 Y214.885 E292.27347
