;FLAVOR:Marlin
;TIME:22782
;Filament used: 14.677m
;Layer height: 0.16
;MINX:162.625
;MINY:82.767
;MINZ:0.28
;MAXX:259.822
;MAXY:205.68
;MAXZ:18.04
;Generated with Cura_SteamEngine 4.12.1
M140 S90
M105
M190 S90
M104 S220
M105
M109 S220
M82 ;absolute extrusion mode
G28 ; home all axes
 M117 Purge extruder
 G92 E0 ; reset extruder
 G1 Z1.0 F3000 ; move z up little to prevent scratching of surface
 G1 X2 Y20 Z0.3 F5000.0 ; move to start-line position
 G1 X2 Y200.0 Z0.3 F1500.0 E15 ; draw 1st line
 G1 X2 Y200.0 Z0.4 F5000.0 ; move to side a little
 G1 X2 Y20 Z0.4 F1500.0 E30 ; draw 2nd line
 G92 E0 ; reset extruder
 G1 Z1.0 F3000 ; move z up little to prevent scratching of surface
G92 E0
G92 E0
G1 F1500 E-5
;LAYER_COUNT:102
;LAYER:0
M107
G1 F300 Z0.48
G0 F6000 X192.397 Y107.219 Z0.48
;TYPE:SKIRT
G1 F300 Z0.28
G1 F1500 E0
G1 F1200 X192.413 Y107.219 E0.00118
G1 X192.413 Y107.875 E0.04957
G1 X192.397 Y107.875 E0.05075
G1 X192.397 Y107.219 E0.09913
G0 F6000 X191.869 Y106.691
G1 F1200 X192.941 Y106.691 E0.1782
G1 X192.941 Y108.403 E0.30447
G1 X191.869 Y108.403 E0.38354
G1 X191.869 Y106.691 E0.50981
G1 F1500 E-4.49019
G1 F300 Z0.48
G0 F6000 X229.506 Y180.044 Z0.48
G1 F300 Z0.28
G1 F1500 E0.50981
G1 F1200 X230.578 Y180.044 E0.58888
G1 X230.578 Y181.756 E0.71515
G1 X229.506 Y181.756 E0.79422
G1 X229.506 Y180.044 E0.9205
G0 F6000 X230.034 Y180.572
G1 F1200 X230.05 Y180.572 E0.92168
G1 X230.05 Y181.228 E0.97006
G1 X230.034 Y181.228 E0.97124
G1 X230.034 Y180.572 E1.01963
G1 F1500 E-3.98037
G1 F300 Z0.48
;MESH:outillageXT_v2_014-outillageFem.stl
G0 F6000 X199.9 Y134.227 Z0.48
;TYPE:WALL-INNER
G1 F300 Z0.28
G1 F1500 E1.01963
G1 F1200 X184.16 Y134.227 E2.18057
G1 X184.16 Y145.167 E2.98748
G1 X199.9 Y145.167 E4.14843
G1 X203.15 Y141.722 E4.49775
G1 X203.15 Y137.672 E4.79647
G1 X199.9 Y134.227 E5.14579
G0 F6000 X199.672 Y134.755
G1 F1200 X184.688 Y134.755 E6.25098
G1 X184.688 Y144.639 E6.98
G1 X199.672 Y144.639 E8.08518
G1 X202.622 Y141.512 E8.40226
G1 X202.622 Y137.882 E8.67
G1 X199.672 Y134.755 E8.98708
G0 F6000 X199.444 Y135.283
;TYPE:WALL-OUTER
G1 F1200 X185.216 Y135.283 E10.0365
G1 X185.216 Y144.111 E10.68763
G1 X199.444 Y144.111 E11.73706
G1 X202.094 Y141.302 E12.02189
G1 X202.094 Y138.092 E12.25865
G1 X199.444 Y135.283 E12.54349
G0 F6000 X199.673 Y134.751
G1 F1500 E7.54349
G1 F300 Z0.48
G0 F6000 X194.525 Y122.467 Z0.48
;TYPE:WALL-INNER
G1 F300 Z0.28
G1 F1500 E12.54349
G1 F1200 X194.525 Y93.227 E14.70016
G1 X190.285 Y93.227 E15.01289
G1 X190.285 Y122.467 E17.16957
G1 X194.525 Y122.467 E17.4823
G0 F6000 X193.997 Y121.939
G1 F1200 X193.997 Y93.755 E19.56109
G1 X190.813 Y93.755 E19.79593
G1 X190.813 Y121.939 E21.87472
G1 X193.997 Y121.939 E22.10956
G0 F6000 X193.469 Y121.411
;TYPE:WALL-OUTER
G1 F1200 X193.469 Y94.283 E24.11046
G1 X191.341 Y94.283 E24.26742
G1 X191.341 Y121.411 E26.26831
G1 X193.469 Y121.411 E26.42527
G1 F1500 E21.42527
G1 F300 Z0.48
G0 F6000 X221.085 Y123.727 Z0.48
;TYPE:WALL-INNER
G1 F300 Z0.28
G1 F1500 E26.42527
G1 F1200 X206.085 Y123.727 E27.53164
G1 X206.085 Y148.807 E29.38148
G1 X178.725 Y148.807 E31.39949
G1 X178.725 Y123.727 E33.24933
G1 X163.725 Y123.727 E34.3557
G1 X163.725 Y123.367 E34.38225
G1 X178.725 Y123.367 E35.13802
G1 X178.725 Y84.227 E38.02489
G1 X163.725 Y84.227 E39.13126
G1 X163.725 Y83.867 E39.15781
G1 X178.725 Y83.867 E39.91358
G1 X206.085 Y83.867 E41.93159
G1 X221.085 Y83.867 E43.03796
G1 X221.085 Y84.227 E43.06451
G1 X206.085 Y84.227 E43.82028
G1 X206.085 Y123.367 E46.70716
G1 X221.085 Y123.367 E47.46293
G1 X221.085 Y123.727 E47.48948
G0 F6000 X221.613 Y124.255
G1 F1200 X206.613 Y124.255 E48.59585
G1 X206.613 Y149.335 E50.44569
G1 X178.197 Y149.335 E52.54159
G1 X178.197 Y124.255 E54.39143
G1 X163.197 Y124.255 E55.4978
G1 X163.197 Y122.839 E55.60224
G1 X178.197 Y122.839 E56.7086
G1 X178.197 Y84.755 E59.51759
G1 X163.197 Y84.755 E60.62395
G1 X163.197 Y83.339 E60.7284
G1 X221.613 Y83.339 E65.03702
G1 X221.613 Y84.755 E65.14146
G1 X206.613 Y84.755 E66.24783
G1 X206.613 Y122.839 E69.05682
G1 X221.613 Y122.839 E70.16318
G1 X221.613 Y124.255 E70.26762
G0 F6000 X222.141 Y124.783
;TYPE:WALL-OUTER
G1 F1200 X207.141 Y124.783 E71.37399
G1 X207.141 Y149.863 E73.22383
G1 X177.669 Y149.863 E75.39762
G1 X177.669 Y124.783 E77.24746
G1 X162.669 Y124.783 E78.35382
G1 X162.669 Y122.311 E78.53615
G1 X177.669 Y122.311 E79.64252
G1 X177.669 Y85.283 E82.37362
G1 X162.669 Y85.283 E83.47998
G1 X162.669 Y82.811 E83.66231
G1 X222.141 Y82.811 E88.04883
G1 X222.141 Y85.283 E88.23116
G1 X207.141 Y85.283 E89.33752
G1 X207.141 Y122.311 E92.06862
G1 X222.141 Y122.311 E93.17499
G1 X222.141 Y124.783 E93.35732
G1 F1500 E88.35732
G1 F300 Z0.48
G0 F6000 X203.692 Y137.457 Z0.48
;TYPE:SKIN
G1 F300 Z0.28
G1 F1500 E93.35732
G1 F1200 X200.134 Y133.685 E93.77454
G1 X183.618 Y133.685 E95.10347
G1 X183.618 Y145.709 E96.07095
G1 X200.134 Y145.709 E97.39988
G1 X203.692 Y141.937 E97.8171
G1 X203.692 Y137.457 E98.17758
G1 F1500 E93.17758
G1 F300 Z0.48
G0 F6000 X205.543 Y148.265 Z0.48
G1 F300 Z0.28
G1 F1500 E98.17758
G1 F1200 X179.267 Y148.265 E100.29182
G1 X179.267 Y84.409 E105.42986
G1 X205.543 Y84.409 E107.5441
G1 X205.543 Y148.265 E112.68214
G1 F1500 E107.68214
G1 F300 Z0.48
G0 F6000 X195.067 Y123.009 Z0.48
G1 F300 Z0.28
G1 F1500 E112.68214
G1 F1200 X195.067 Y92.685 E115.1221
G1 X189.743 Y92.685 E115.55049
G1 X189.743 Y123.009 E117.99044
G1 X195.067 Y123.009 E118.41883
G1 F1500 E113.41883
G1 F300 Z0.48
G0 F6000 X179.791 Y148.022 Z0.48
G1 F300 Z0.28
G1 F1500 E118.41883
G1 F1200 X179.508 Y147.739 E118.45103
G0 F6000 X179.508 Y146.924
G1 F1200 X180.606 Y148.022 E118.57597
G0 F6000 X181.42 Y148.022
G1 F1200 X179.508 Y146.11 E118.79354
G0 F6000 X179.508 Y145.295
G1 F1200 X182.235 Y148.022 E119.10385
G0 F6000 X183.05 Y148.022
G1 F1200 X179.508 Y144.481 E119.50685
G0 F6000 X179.508 Y143.666
G1 F1200 X183.864 Y148.022 E120.00252
G0 F6000 X184.679 Y148.022
G1 F1200 X179.508 Y142.851 E120.59094
G0 F6000 X179.508 Y142.037
G1 F1200 X183.375 Y145.904 E121.03097
G0 F6000 X183.422 Y145.951
G1 F1200 X185.493 Y148.022 E121.26664
G0 F6000 X186.308 Y148.022
G1 F1200 X184.236 Y145.951 E121.50236
G0 F6000 X185.051 Y145.951
G1 F1200 X187.123 Y148.022 E121.73808
G0 F6000 X187.937 Y148.022
G1 F1200 X185.865 Y145.951 E121.9738
G0 F6000 X186.68 Y145.951
G1 F1200 X188.752 Y148.022 E122.20952
G0 F6000 X189.566 Y148.022
G1 F1200 X187.495 Y145.951 E122.44518
G0 F6000 X188.309 Y145.951
G1 F1200 X190.381 Y148.022 E122.6809
G0 F6000 X191.196 Y148.022
G1 F1200 X189.124 Y145.951 E122.91662
G0 F6000 X189.938 Y145.951
G1 F1200 X192.01 Y148.022 E123.15234
G0 F6000 X192.825 Y148.022
G1 F1200 X190.753 Y145.951 E123.38806
G0 F6000 X191.567 Y145.951
G1 F1200 X193.639 Y148.022 E123.62378
G0 F6000 X194.454 Y148.022
G1 F1200 X192.382 Y145.951 E123.8595
G0 F6000 X193.197 Y145.951
G1 F1200 X195.268 Y148.022 E124.09516
G0 F6000 X196.083 Y148.022
G1 F1200 X194.011 Y145.951 E124.33088
G0 F6000 X194.826 Y145.951
G1 F1200 X196.898 Y148.022 E124.5666
G0 F6000 X197.712 Y148.022
G1 F1200 X195.64 Y145.951 E124.80232
G0 F6000 X196.455 Y145.951
G1 F1200 X198.527 Y148.022 E125.03804
G0 F6000 X199.341 Y148.022
G1 F1200 X197.27 Y145.951 E125.2737
G0 F6000 X198.084 Y145.951
G1 F1200 X200.156 Y148.022 E125.50942
G0 F6000 X200.971 Y148.022
G1 F1200 X198.899 Y145.951 E125.74514
G0 F6000 X199.713 Y145.951
G1 F1200 X201.785 Y148.022 E125.98086
G0 F6000 X202.6 Y148.022
G1 F1200 X200.377 Y145.8 E126.23376
G0 F6000 X200.773 Y145.381
G1 F1200 X203.414 Y148.022 E126.53428
G0 F6000 X204.229 Y148.022
G1 F1200 X201.169 Y144.962 E126.88249
G0 F6000 X201.564 Y144.543
G1 F1200 X205.043 Y148.022 E127.27837
G0 F6000 X205.3 Y147.464
G1 F1200 X201.959 Y144.123 E127.65855
G0 F6000 X202.355 Y143.705
G1 F1200 X205.3 Y146.65 E127.99366
G0 F6000 X205.3 Y145.835
G1 F1200 X202.75 Y143.285 E128.28383
G0 F6000 X203.146 Y142.866
G1 F1200 X205.3 Y145.021 E128.529
G0 F6000 X205.3 Y144.206
G1 F1200 X203.541 Y142.447 E128.72916
G0 F6000 X203.933 Y142.024
G1 F1200 X205.3 Y143.392 E128.88477
G0 F6000 X205.3 Y142.577
G1 F1200 X203.933 Y141.209 E129.04038
G0 F6000 X203.933 Y140.395
G1 F1200 X205.3 Y141.762 E129.19593
G0 F6000 X205.3 Y140.948
G1 F1200 X203.933 Y139.58 E129.35154
G0 F6000 X203.933 Y138.766
G1 F1200 X205.3 Y140.133 E129.50709
G0 F6000 X205.3 Y139.319
G1 F1200 X203.933 Y137.951 E129.6627
G0 F6000 X205.3 Y137.689
G1 F1200 X190.862 Y123.251 E131.30563
G0 F6000 X191.676 Y123.251
G1 F1200 X205.3 Y136.875 E132.85593
G0 F6000 X205.3 Y136.06
G1 F1200 X192.491 Y123.251 E134.31349
G0 F6000 X193.306 Y123.251
G1 F1200 X205.3 Y135.246 E135.67836
G0 F6000 X205.3 Y134.431
G1 F1200 X194.12 Y123.251 E136.95055
G0 F6000 X194.935 Y123.251
G1 F1200 X205.3 Y133.617 E138.13006
G0 F6000 X205.3 Y132.802
G1 F1200 X195.307 Y122.809 E139.26718
G0 F6000 X195.307 Y121.995
G1 F1200 X205.3 Y131.987 E140.40425
G0 F6000 X205.3 Y131.173
G1 F1200 X195.307 Y121.18 E141.54137
G0 F6000 X195.307 Y120.365
G1 F1200 X205.3 Y130.358 E142.67849
G0 F6000 X205.3 Y129.544
G1 F1200 X195.307 Y119.551 E143.81561
G0 F6000 X195.307 Y118.736
G1 F1200 X205.3 Y128.729 E144.95273
G0 F6000 X205.3 Y127.914
G1 F1200 X195.307 Y117.922 E146.0898
G0 F6000 X195.307 Y117.107
G1 F1200 X205.3 Y127.1 E147.22692
G0 F6000 X205.3 Y126.285
G1 F1200 X195.307 Y116.292 E148.36404
G0 F6000 X195.307 Y115.478
G1 F1200 X205.3 Y125.471 E149.50116
G0 F6000 X205.3 Y124.656
G1 F1200 X195.307 Y114.663 E150.63828
G0 F6000 X195.307 Y113.849
G1 F1200 X205.3 Y123.841 E151.77534
G0 F6000 X205.3 Y123.027
G1 F1200 X195.307 Y113.034 E152.91246
G0 F6000 X195.307 Y112.219
G1 F1200 X205.3 Y122.212 E154.04959
G0 F6000 X205.3 Y121.398
G1 F1200 X195.307 Y111.405 E155.18671
G0 F6000 X195.307 Y110.59
G1 F1200 X205.3 Y120.583 E156.32383
G0 F6000 X205.3 Y119.769
G1 F1200 X195.307 Y109.776 E157.46095
G0 F6000 X195.307 Y108.961
G1 F1200 X205.3 Y118.954 E158.59807
G0 F6000 X205.3 Y118.139
G1 F1200 X195.307 Y108.147 E159.73513
G0 F6000 X195.307 Y107.332
G1 F1200 X205.3 Y117.325 E160.87225
G0 F6000 X205.3 Y116.51
G1 F1200 X195.307 Y106.517 E162.00938
G0 F6000 X195.307 Y105.703
G1 F1200 X205.3 Y115.696 E163.1465
G0 F6000 X205.3 Y114.881
G1 F1200 X195.307 Y104.888 E164.28362
G0 F6000 X195.307 Y104.074
G1 F1200 X205.3 Y114.066 E165.42068
G0 F6000 X205.3 Y113.252
G1 F1200 X195.307 Y103.259 E166.5578
G0 F6000 X195.307 Y102.444
G1 F1200 X205.3 Y112.437 E167.69492
G0 F6000 X205.3 Y111.623
G1 F1200 X195.307 Y101.63 E168.83204
G0 F6000 X195.307 Y100.815
G1 F1200 X205.3 Y110.808 E169.96917
G0 F6000 X205.3 Y109.993
G1 F1200 X195.307 Y100.001 E171.10623
G0 F6000 X195.307 Y99.186
G1 F1200 X205.3 Y109.179 E172.24335
G0 F6000 X205.3 Y108.364
G1 F1200 X195.307 Y98.371 E173.38047
G0 F6000 X195.307 Y97.557
G1 F1200 X205.3 Y107.55 E174.51759
G0 F6000 X205.3 Y106.735
G1 F1200 X195.307 Y96.742 E175.65471
G0 F6000 X195.307 Y95.928
G1 F1200 X205.3 Y105.921 E176.79183
G0 F6000 X205.3 Y105.106
G1 F1200 X195.307 Y95.113 E177.92896
G0 F6000 X195.307 Y94.299
G1 F1200 X205.3 Y104.291 E179.06602
G0 F6000 X205.3 Y103.477
G1 F1200 X195.307 Y93.484 E180.20314
G0 F6000 X195.307 Y92.669
G1 F1200 X205.3 Y102.662 E181.34026
G0 F6000 X205.3 Y101.848
G1 F1200 X188.103 Y84.651 E183.29714
G0 F6000 X187.289 Y84.651
G1 F1200 X195.08 Y92.442 E184.18369
G0 F6000 X194.266 Y92.442
G1 F1200 X186.474 Y84.651 E185.0703
G0 F6000 X185.66 Y84.651
G1 F1200 X193.451 Y92.442 E185.95685
G0 F6000 X192.637 Y92.442
G1 F1200 X184.845 Y84.651 E186.84346
G0 F6000 X184.03 Y84.651
G1 F1200 X191.822 Y92.442 E187.73007
G0 F6000 X191.007 Y92.442
G1 F1200 X183.216 Y84.651 E188.61662
G0 F6000 X182.401 Y84.651
G1 F1200 X190.193 Y92.442 E189.50323
G0 F6000 X189.5 Y92.564
G1 F1200 X181.587 Y84.651 E190.40366
G0 F6000 X180.772 Y84.651
G1 F1200 X189.5 Y93.379 E191.39683
G0 F6000 X189.5 Y94.193
G1 F1200 X179.957 Y84.651 E192.48269
G0 F6000 X179.508 Y85.016
G1 F1200 X189.5 Y95.008 E193.6197
G0 F6000 X189.5 Y95.822
G1 F1200 X179.508 Y85.83 E194.75671
G0 F6000 X179.508 Y86.645
G1 F1200 X189.5 Y96.637 E195.89371
G0 F6000 X189.5 Y97.452
G1 F1200 X179.508 Y87.459 E197.03078
G0 F6000 X179.508 Y88.274
G1 F1200 X189.5 Y98.266 E198.16779
G0 F6000 X189.5 Y99.081
G1 F1200 X179.508 Y89.089 E199.30479
G0 F6000 X179.508 Y89.903
G1 F1200 X189.5 Y99.895 E200.4418
G0 F6000 X189.5 Y100.71
G1 F1200 X179.508 Y90.718 E201.57881
G0 F6000 X179.508 Y91.532
G1 F1200 X189.5 Y101.524 E202.71581
G0 F6000 X189.5 Y102.339
G1 F1200 X179.508 Y92.347 E203.85282
G0 F6000 X179.508 Y93.162
G1 F1200 X189.5 Y103.154 E204.98983
G0 F6000 X189.5 Y103.968
G1 F1200 X179.508 Y93.976 E206.12684
G0 F6000 X179.508 Y94.791
G1 F1200 X189.5 Y104.783 E207.26384
G0 F6000 X189.5 Y105.597
G1 F1200 X179.508 Y95.605 E208.40085
G0 F6000 X179.508 Y96.42
G1 F1200 X189.5 Y106.412 E209.53786
G0 F6000 X189.5 Y107.227
G1 F1200 X179.508 Y97.234 E210.67492
G0 F6000 X179.508 Y98.049
G1 F1200 X189.5 Y108.041 E211.81193
G0 F6000 X189.5 Y108.856
G1 F1200 X179.508 Y98.864 E212.94894
G0 F6000 X179.508 Y99.678
G1 F1200 X189.5 Y109.67 E214.08594
G0 F6000 X189.5 Y110.485
G1 F1200 X179.508 Y100.493 E215.22295
G0 F6000 X179.508 Y101.307
G1 F1200 X189.5 Y111.3 E216.36001
G0 F6000 X189.5 Y112.114
G1 F1200 X179.508 Y102.122 E217.49702
G0 F6000 X179.508 Y102.937
G1 F1200 X189.5 Y112.929 E218.63403
G0 F6000 X189.5 Y113.743
G1 F1200 X179.508 Y103.751 E219.77104
G0 F6000 X179.508 Y104.566
G1 F1200 X189.5 Y114.558 E220.90804
G0 F6000 X189.5 Y115.372
G1 F1200 X179.508 Y105.38 E222.04505
G0 F6000 X179.508 Y106.195
G1 F1200 X189.5 Y116.187 E223.18206
G0 F6000 X189.5 Y117.002
G1 F1200 X179.508 Y107.01 E224.31906
G0 F6000 X179.508 Y107.824
G1 F1200 X189.5 Y117.816 E225.45607
G0 F6000 X189.5 Y118.631
G1 F1200 X179.508 Y108.639 E226.59308
G0 F6000 X179.508 Y109.453
G1 F1200 X189.5 Y119.445 E227.73009
G0 F6000 X189.5 Y120.26
G1 F1200 X179.508 Y110.268 E228.86709
G0 F6000 X179.508 Y111.082
G1 F1200 X189.5 Y121.075 E230.00416
G0 F6000 X189.5 Y121.889
G1 F1200 X179.508 Y111.897 E231.14116
G0 F6000 X179.508 Y112.712
G1 F1200 X189.5 Y122.704 E232.27817
G0 F6000 X190.047 Y123.251
G1 F1200 X205.3 Y138.504 E234.01384
G1 F1500 E229.01384
G1 F300 Z0.48
G0 F6000 X199.424 Y133.443 Z0.48
G1 F300 Z0.28
G1 F1500 E234.01384
G1 F1200 X179.508 Y113.526 E236.28017
G0 F6000 X179.508 Y114.341
G1 F1200 X198.61 Y133.443 E238.45382
G0 F6000 X197.795 Y133.443
G1 F1200 X179.508 Y115.155 E240.53479
G0 F6000 X179.508 Y115.97
G1 F1200 X196.98 Y133.443 E242.52301
G0 F6000 X196.166 Y133.443
G1 F1200 X179.508 Y116.785 E244.41856
G0 F6000 X179.508 Y117.599
G1 F1200 X195.351 Y133.443 E246.22142
G0 F6000 X194.537 Y133.443
G1 F1200 X179.508 Y118.414 E247.93159
G0 F6000 X179.508 Y119.228
G1 F1200 X193.722 Y133.443 E249.54908
G0 F6000 X192.907 Y133.443
G1 F1200 X179.508 Y120.043 E251.07384
G0 F6000 X179.508 Y120.857
G1 F1200 X192.093 Y133.443 E252.50596
G0 F6000 X191.278 Y133.443
G1 F1200 X179.508 Y121.672 E253.84535
G0 F6000 X179.508 Y122.487
G1 F1200 X190.464 Y133.443 E255.09205
G0 F6000 X189.649 Y133.443
G1 F1200 X179.508 Y123.301 E256.24607
G0 F6000 X179.508 Y124.116
G1 F1200 X188.834 Y133.443 E257.30735
G0 F6000 X188.02 Y133.443
G1 F1200 X179.508 Y124.93 E258.276
G0 F6000 X179.508 Y125.745
G1 F1200 X187.205 Y133.443 E259.15191
G0 F6000 X186.391 Y133.443
G1 F1200 X179.508 Y126.56 E259.93514
G0 F6000 X179.508 Y127.374
G1 F1200 X185.576 Y133.443 E260.62569
G0 F6000 X184.762 Y133.443
G1 F1200 X179.508 Y128.189 E261.22355
G0 F6000 X179.508 Y129.003
G1 F1200 X183.947 Y133.443 E261.72873
G0 F6000 X183.375 Y133.685
G1 F1200 X179.508 Y129.818 E262.16876
G0 F6000 X179.508 Y130.633
G1 F1200 X183.375 Y134.5 E262.60879
G0 F6000 X183.375 Y135.314
G1 F1200 X179.508 Y131.447 E263.04883
G0 F6000 X179.508 Y132.262
G1 F1200 X183.375 Y136.129 E263.48886
G0 F6000 X183.375 Y136.943
G1 F1200 X179.508 Y133.076 E263.92889
G0 F6000 X179.508 Y133.891
G1 F1200 X183.375 Y137.758 E264.36892
G0 F6000 X183.375 Y138.573
G1 F1200 X179.508 Y134.705 E264.80901
G0 F6000 X179.508 Y135.52
G1 F1200 X183.375 Y139.387 E265.24905
G0 F6000 X183.375 Y140.202
G1 F1200 X179.508 Y136.335 E265.68908
G0 F6000 X179.508 Y137.149
G1 F1200 X183.375 Y141.016 E266.12911
G0 F6000 X183.375 Y141.831
G1 F1200 X179.508 Y137.964 E266.56914
