;FLAVOR:Marlin
;TIME:7856
;Filament used: 6.08282m
;Layer height: 0.16
;MINX:150.619
;MINY:75.398
;MINZ:0.28
;MAXX:218.249
;MAXY:136.728
;MAXZ:17.84
;Generated with Cura_SteamEngine 4.12.1
M140 S90
M105
M190 S90
M104 S220
M105
M109 S220
M82 ;absolute extrusion mode
G28 ; home all axes
 M117 Purge extruder
 G92 E0 ; reset extruder
 G1 Z1.0 F3000 ; move z up little to prevent scratching of surface
 G1 X2 Y20 Z0.3 F5000.0 ; move to start-line position
 G1 X2 Y200.0 Z0.3 F1500.0 E15 ; draw 1st line
 G1 X2 Y200.0 Z0.4 F5000.0 ; move to side a little
 G1 X2 Y20 Z0.4 F1500.0 E30 ; draw 2nd line
 G92 E0 ; reset extruder
 G1 Z1.0 F3000 ; move z up little to prevent scratching of surface
G92 E0
G92 E0
G1 F1500 E-5
;LAYER_COUNT:98
;LAYER:0
M107
;MESH:outillageXT_v2_009-outillageMaleChamfer003.stl
G0 F6000 X191.104 Y107.983 Z0.28
;TYPE:WALL-INNER
G1 F1500 E0
G1 F1200 X191.104 Y104.143 E0.30683
G1 X161.964 Y104.143 E2.63524
G1 X161.964 Y107.983 E2.94207
G1 X191.104 Y107.983 E5.27048
G0 F6000 X190.576 Y107.455
G1 F1200 X190.576 Y104.671 E5.49293
G1 X162.492 Y104.671 E7.73696
G1 X162.492 Y107.455 E7.95941
G1 X190.576 Y107.455 E10.20344
G0 F6000 X190.048 Y106.927
;TYPE:WALL-OUTER
G1 F1200 X190.048 Y105.199 E10.34151
G1 X163.02 Y105.199 E12.50116
G1 X163.02 Y106.927 E12.63924
G1 X190.048 Y106.927 E14.79889
G1 F1500 E9.79889
G0 F6000 X190.048 Y121.728
G0 X211.931 Y100.091
G0 X213.904 Y98.118
;TYPE:WALL-INNER
G1 F1500 E14.79889
G1 F1200 X202.964 Y98.118 E15.67304
G1 X202.964 Y113.258 E16.88279
G1 X206.409 Y116.508 E17.26122
G1 X210.459 Y116.508 E17.58483
G1 X213.904 Y113.258 E17.96327
G1 X213.904 Y98.118 E19.17301
G0 F6000 X213.376 Y98.646
G1 F1200 X203.492 Y98.646 E19.96279
G1 X203.492 Y113.03 E21.11213
G1 X206.619 Y115.98 E21.45563
G1 X210.249 Y115.98 E21.74568
G1 X213.376 Y113.03 E22.08918
G1 X213.376 Y98.646 E23.23852
G0 F6000 X212.848 Y99.174
;TYPE:WALL-OUTER
G1 F1200 X204.02 Y99.174 E23.94392
G1 X204.02 Y112.802 E25.03285
G1 X206.829 Y115.452 E25.34142
G1 X210.039 Y115.452 E25.59791
G1 X212.848 Y112.802 E25.90648
G1 X212.848 Y99.174 E26.99541
G1 F1500 E21.99541
G0 F6000 X211.931 Y100.091
G0 X154.945 Y87.789
G0 X152.964 Y88.61
;TYPE:WALL-INNER
G1 F1500 E26.99541
G1 F1200 X156.737 Y92.383 E27.42177
G1 X216.264 Y92.383 E32.17822
G1 X216.264 Y119.743 E34.3644
G1 X156.737 Y119.743 E39.12085
G1 X152.964 Y123.516 E39.54721
G1 X152.964 Y134.743 E40.44429
G1 X152.604 Y134.743 E40.47306
G1 X152.604 Y123.516 E41.08587
G1 X152.604 Y88.61 E43.875
G1 X152.604 Y77.383 E44.77209
G1 X152.964 Y77.383 E44.80085
G1 X152.964 Y88.61 E45.41366
G0 F6000 X153.492 Y88.391
G1 F1200 X156.956 Y91.855 E45.8051
G1 X216.792 Y91.855 E50.58624
G1 X216.792 Y120.271 E52.8568
G1 X156.956 Y120.271 E57.63794
G1 X153.492 Y123.735 E58.02938
G1 X153.492 Y135.271 E58.95115
G1 X152.076 Y135.271 E59.0643
G1 X152.076 Y76.855 E63.73198
G1 X153.492 Y76.855 E63.84512
G1 X153.492 Y88.391 E64.7669
G0 F6000 X154.02 Y88.172
;TYPE:WALL-OUTER
G1 F1200 X157.175 Y91.327 E65.12342
G1 X217.32 Y91.327 E69.92925
G1 X217.32 Y120.799 E72.28419
G1 X157.175 Y120.799 E77.09002
G1 X154.02 Y123.954 E77.44654
G1 X154.02 Y135.799 E78.39301
G1 X151.548 Y135.799 E78.59053
G1 X151.548 Y76.327 E83.34259
G1 X154.02 Y76.327 E83.54011
G1 X154.02 Y88.172 E84.48658
G0 F6000 X153.485 Y88.393
G0 X153.146 Y89.559
;TYPE:SKIN
G1 F1200 X156.513 Y92.925 E84.90158
G1 X215.722 Y92.925 E90.06272
G1 X215.722 Y119.201 E92.35315
G1 X156.513 Y119.201 E97.51429
G1 X153.146 Y122.567 E97.92929
G1 X153.146 Y89.559 E100.80654
G1 F1500 E95.80654
G0 F6000 X154.945 Y87.789
G0 X154.937 Y75.41
G0 X150.631 Y75.41
G0 X150.619 Y103.601
G0 X161.422 Y103.601
G1 F1500 E100.80654
G1 F1200 X161.422 Y108.525 E101.23576
G1 X191.646 Y108.525 E103.87033
G1 X191.646 Y103.601 E104.29954
G1 X161.422 Y103.601 E106.93411
G1 F1500 E101.93411
G0 F6000 X150.619 Y103.601
G0 X204.937 Y100.091
G0 X202.422 Y97.576
G1 F1500 E106.93411
G1 F1200 X202.422 Y113.492 E108.32148
G1 X206.194 Y117.05 E108.77348
G1 X210.674 Y117.05 E109.16399
G1 X214.446 Y113.492 E109.61598
G1 X214.446 Y97.576 E111.00335
G1 X202.422 Y97.576 E112.05146
G1 F1500 E107.05146
G0 F6000 X204.937 Y100.091
G0 X218.249 Y93.291
G0 X215.479 Y93.291
G1 F1500 E112.05146
G1 F1200 X215.355 Y93.166 E112.06681
G0 F6000 X214.54 Y93.166
G1 F1200 X215.479 Y94.106 E112.18262
G0 F6000 X215.479 Y94.92
G1 F1200 X213.725 Y93.166 E112.39885
G0 F6000 X212.911 Y93.166
G1 F1200 X215.479 Y95.735 E112.71548
G0 F6000 X215.479 Y96.549
G1 F1200 X212.096 Y93.166 E113.13252
G0 F6000 X211.282 Y93.166
G1 F1200 X215.479 Y97.364 E113.64996
G0 F6000 X214.686 Y97.386
G1 F1200 X215.479 Y98.178 E113.74765
G0 F6000 X214.686 Y98.2
G1 F1200 X215.479 Y98.993 E113.84541
G0 F6000 X214.686 Y99.015
G1 F1200 X215.479 Y99.808 E113.94317
G0 F6000 X214.686 Y99.83
G1 F1200 X215.479 Y100.622 E114.04086
G0 F6000 X214.686 Y100.644
G1 F1200 X215.479 Y101.437 E114.13862
G0 F6000 X214.686 Y101.459
G1 F1200 X215.479 Y102.251 E114.23631
G0 F6000 X214.686 Y102.273
G1 F1200 X215.479 Y103.066 E114.33407
G0 F6000 X214.686 Y103.088
G1 F1200 X215.479 Y103.881 E114.43183
G0 F6000 X214.686 Y103.902
G1 F1200 X215.479 Y104.695 E114.52958
G0 F6000 X214.686 Y104.717
G1 F1200 X215.479 Y105.51 E114.62734
G0 F6000 X214.686 Y105.532
G1 F1200 X215.479 Y106.324 E114.72504
G0 F6000 X214.686 Y106.346
G1 F1200 X215.479 Y107.139 E114.82279
G0 F6000 X214.686 Y107.161
G1 F1200 X215.479 Y107.953 E114.92049
G0 F6000 X214.686 Y107.975
G1 F1200 X215.479 Y108.768 E115.01824
G0 F6000 X214.686 Y108.79
G1 F1200 X215.479 Y109.583 E115.116
G0 F6000 X214.686 Y109.605
G1 F1200 X215.479 Y110.397 E115.2137
G0 F6000 X214.686 Y110.419
G1 F1200 X215.479 Y111.212 E115.31145
G0 F6000 X214.686 Y111.234
G1 F1200 X215.479 Y112.026 E115.40915
G0 F6000 X214.686 Y112.048
G1 F1200 X215.479 Y112.841 E115.5069
G0 F6000 X214.686 Y112.863
G1 F1200 X215.479 Y113.656 E115.60466
G0 F6000 X215.479 Y114.47
G1 F1200 X214.645 Y113.636 E115.70747
G0 F6000 X214.225 Y114.031
G1 F1200 X215.479 Y115.285 E115.86206
G0 F6000 X215.479 Y116.099
G1 F1200 X213.806 Y114.426 E116.0683
G0 F6000 X213.387 Y114.822
G1 F1200 X215.479 Y116.914 E116.32619
G0 F6000 X215.479 Y117.729
G1 F1200 X212.968 Y115.218 E116.63573
G0 F6000 X212.549 Y115.613
G1 F1200 X215.479 Y118.543 E116.99692
G0 F6000 X215.08 Y118.959
G1 F1200 X212.129 Y116.008 E117.3607
G0 F6000 X211.71 Y116.403
G1 F1200 X214.266 Y118.959 E117.67579
G0 F6000 X213.451 Y118.959
G1 F1200 X211.291 Y116.799 E117.94207
G0 F6000 X210.872 Y117.195
G1 F1200 X212.636 Y118.959 E118.15952
G0 F6000 X211.822 Y118.959
G1 F1200 X210.154 Y117.292 E118.36508
G0 F6000 X209.34 Y117.292
G1 F1200 X211.007 Y118.959 E118.57058
G0 F6000 X210.193 Y118.959
G1 F1200 X208.525 Y117.292 E118.77614
G0 F6000 X207.711 Y117.292
G1 F1200 X209.378 Y118.959 E118.98164
G0 F6000 X208.563 Y118.959
G1 F1200 X206.896 Y117.292 E119.18714
G0 F6000 X205.823 Y117.033
G1 F1200 X207.749 Y118.959 E119.42456
G0 F6000 X206.934 Y118.959
G1 F1200 X191.887 Y103.912 E121.27947
G0 F6000 X191.334 Y103.359
G1 F1200 X181.142 Y93.166 E122.53595
G0 F6000 X181.956 Y93.166
G1 F1200 X202.179 Y113.389 E125.02893
G0 F6000 X202.179 Y112.574
G1 F1200 X182.771 Y93.166 E127.42144
G0 F6000 X183.586 Y93.166
G1 F1200 X202.179 Y111.76 E129.71354
G0 F6000 X202.179 Y110.945
G1 F1200 X184.4 Y93.166 E131.90523
G0 F6000 X185.215 Y93.166
G1 F1200 X202.179 Y110.131 E133.99652
G0 F6000 X202.179 Y109.316
G1 F1200 X186.029 Y93.166 E135.9874
G0 F6000 X186.844 Y93.166
G1 F1200 X202.179 Y108.502 E137.87788
G0 F6000 X202.179 Y107.687
G1 F1200 X187.659 Y93.166 E139.66788
G0 F6000 X188.473 Y93.166
G1 F1200 X202.179 Y106.872 E141.35748
G0 F6000 X202.179 Y106.058
G1 F1200 X189.288 Y93.166 E142.94667
G0 F6000 X190.102 Y93.166
G1 F1200 X202.179 Y105.243 E144.43546
G0 F6000 X202.179 Y104.429
G1 F1200 X190.917 Y93.166 E145.82384
G0 F6000 X191.732 Y93.166
G1 F1200 X202.179 Y103.614 E147.11175
G0 F6000 X202.179 Y102.799
G1 F1200 X192.546 Y93.166 E148.29925
G0 F6000 X193.361 Y93.166
G1 F1200 X202.179 Y101.985 E149.38634
G0 F6000 X202.179 Y101.17
G1 F1200 X194.175 Y93.166 E150.37303
G0 F6000 X194.99 Y93.166
G1 F1200 X202.179 Y100.356 E151.25931
G0 F6000 X202.179 Y99.541
G1 F1200 X195.804 Y93.166 E152.04519
G0 F6000 X196.619 Y93.166
G1 F1200 X202.179 Y98.726 E152.73059
G0 F6000 X202.179 Y97.912
G1 F1200 X197.434 Y93.166 E153.31559
G0 F6000 X198.248 Y93.166
G1 F1200 X202.415 Y97.333 E153.82928
G0 F6000 X203.23 Y97.333
G1 F1200 X199.063 Y93.166 E154.34296
G0 F6000 X199.877 Y93.166
G1 F1200 X204.044 Y97.333 E154.85665
G0 F6000 X204.859 Y97.333
G1 F1200 X200.692 Y93.166 E155.37033
G0 F6000 X201.507 Y93.166
G1 F1200 X205.674 Y97.333 E155.88401
G0 F6000 X206.488 Y97.333
G1 F1200 X202.321 Y93.166 E156.3977
G0 F6000 X203.136 Y93.166
G1 F1200 X207.303 Y97.333 E156.91138
G0 F6000 X208.117 Y97.333
G1 F1200 X203.95 Y93.166 E157.42507
G0 F6000 X204.765 Y93.166
G1 F1200 X208.932 Y97.333 E157.93875
G0 F6000 X209.746 Y97.333
G1 F1200 X205.579 Y93.166 E158.45244
G0 F6000 X206.394 Y93.166
G1 F1200 X210.561 Y97.333 E158.96612
G0 F6000 X211.376 Y97.333
G1 F1200 X207.209 Y93.166 E159.47981
G0 F6000 X208.023 Y93.166
G1 F1200 X212.19 Y97.333 E159.99349
G0 F6000 X213.005 Y97.333
G1 F1200 X208.838 Y93.166 E160.50717
G0 F6000 X209.652 Y93.166
G1 F1200 X213.819 Y97.333 E161.02086
G0 F6000 X214.634 Y97.333
G1 F1200 X210.467 Y93.166 E161.53454
G1 F1500 E156.53454
G0 F6000 X210.467 Y90.398
G0 X204.949 Y104.726
G0 X191.887 Y104.726
G1 F1500 E161.53454
G1 F1200 X206.12 Y118.959 E163.28911
G0 F6000 X205.305 Y118.959
G1 F1200 X191.887 Y105.541 E164.9432
G0 F6000 X191.887 Y106.355
G1 F1200 X204.491 Y118.959 E166.49695
G0 F6000 X203.676 Y118.959
G1 F1200 X191.887 Y107.17 E167.95024
G0 F6000 X191.887 Y107.985
G1 F1200 X202.861 Y118.959 E169.30305
G0 F6000 X202.047 Y118.959
G1 F1200 X191.855 Y108.767 E170.55946
G0 F6000 X191.04 Y108.767
G1 F1200 X201.232 Y118.959 E171.81587
G0 F6000 X200.418 Y118.959
G1 F1200 X190.225 Y108.767 E173.07235
G0 F6000 X189.411 Y108.767
G1 F1200 X199.603 Y118.959 E174.32876
G0 F6000 X198.788 Y118.959
G1 F1200 X188.596 Y108.767 E175.58517
G0 F6000 X187.782 Y108.767
G1 F1200 X197.974 Y118.959 E176.84159
G0 F6000 X197.159 Y118.959
G1 F1200 X186.967 Y108.767 E178.098
G0 F6000 X186.152 Y108.767
G1 F1200 X196.345 Y118.959 E179.35447
G0 F6000 X195.53 Y118.959
G1 F1200 X185.338 Y108.767 E180.61089
G0 F6000 X184.523 Y108.767
G1 F1200 X194.715 Y118.959 E181.8673
G0 F6000 X193.901 Y118.959
G1 F1200 X183.709 Y108.767 E183.12371
G0 F6000 X182.894 Y108.767
G1 F1200 X193.086 Y118.959 E184.38012
G0 F6000 X192.272 Y118.959
G1 F1200 X182.079 Y108.767 E185.6366
G0 F6000 X181.265 Y108.767
G1 F1200 X191.457 Y118.959 E186.89301
G0 F6000 X190.643 Y118.959
G1 F1200 X180.45 Y108.767 E188.14949
G0 F6000 X179.636 Y108.767
G1 F1200 X189.828 Y118.959 E189.4059
G0 F6000 X189.013 Y118.959
G1 F1200 X178.821 Y108.767 E190.66231
G0 F6000 X178.007 Y108.767
G1 F1200 X188.199 Y118.959 E191.91872
G0 F6000 X187.384 Y118.959
G1 F1200 X177.192 Y108.767 E193.17514
G0 F6000 X176.377 Y108.767
G1 F1200 X186.57 Y118.959 E194.43161
G0 F6000 X185.755 Y118.959
G1 F1200 X175.563 Y108.767 E195.68802
G0 F6000 X174.748 Y108.767
G1 F1200 X184.94 Y118.959 E196.94444
G0 F6000 X184.126 Y118.959
G1 F1200 X173.934 Y108.767 E198.20085
G0 F6000 X173.119 Y108.767
G1 F1200 X183.311 Y118.959 E199.45726
G0 F6000 X182.497 Y118.959
G1 F1200 X172.304 Y108.767 E200.71374
G0 F6000 X171.49 Y108.767
G1 F1200 X181.682 Y118.959 E201.97015
G0 F6000 X180.868 Y118.959
G1 F1200 X170.675 Y108.767 E203.22662
G0 F6000 X169.861 Y108.767
G1 F1200 X180.053 Y118.959 E204.48303
G0 F6000 X179.238 Y118.959
G1 F1200 X169.046 Y108.767 E205.73945
G0 F6000 X168.232 Y108.767
G1 F1200 X178.424 Y118.959 E206.99586
G0 F6000 X177.609 Y118.959
G1 F1200 X167.417 Y108.767 E208.25227
G0 F6000 X166.602 Y108.767
G1 F1200 X176.795 Y118.959 E209.50875
G0 F6000 X175.98 Y118.959
G1 F1200 X165.788 Y108.767 E210.76516
G0 F6000 X164.973 Y108.767
G1 F1200 X175.165 Y118.959 E212.02157
G0 F6000 X174.351 Y118.959
G1 F1200 X164.159 Y108.767 E213.27798
G0 F6000 X163.344 Y108.767
G1 F1200 X173.536 Y118.959 E214.5344
G0 F6000 X172.722 Y118.959
G1 F1200 X162.529 Y108.767 E215.79087
G0 F6000 X161.715 Y108.767
G1 F1200 X171.907 Y118.959 E217.04728
G0 F6000 X171.092 Y118.959
G1 F1200 X153.387 Y101.253 E219.22992
G0 F6000 X153.387 Y100.438
G1 F1200 X161.179 Y108.231 E220.19054
G0 F6000 X161.179 Y107.416
G1 F1200 X153.387 Y99.624 E221.15109
G0 F6000 X153.387 Y98.809
G1 F1200 X161.179 Y106.602 E222.1117
G0 F6000 X161.179 Y105.787
G1 F1200 X153.387 Y97.995 E223.07226
G0 F6000 X153.387 Y97.18
G1 F1200 X161.179 Y104.972 E224.03281
G0 F6000 X161.179 Y104.158
G1 F1200 X153.387 Y96.365 E224.99343
G0 F6000 X153.387 Y95.551
G1 F1200 X161.194 Y103.359 E225.95589
G0 F6000 X162.009 Y103.359
G1 F1200 X153.387 Y94.736 E227.01883
G0 F6000 X153.387 Y93.922
G1 F1200 X162.824 Y103.359 E228.18217
G0 F6000 X163.638 Y103.359
G1 F1200 X153.387 Y93.107 E229.44592
G0 F6000 X153.387 Y92.292
G1 F1200 X164.453 Y103.359 E230.81013
G0 F6000 X165.267 Y103.359
G1 F1200 X153.387 Y91.478 E232.27469
G0 F6000 X153.387 Y90.663
G1 F1200 X166.082 Y103.359 E233.83972
G0 F6000 X166.896 Y103.359
G1 F1200 X156.704 Y93.166 E235.0962
G0 F6000 X157.519 Y93.166
G1 F1200 X167.711 Y103.359 E236.35267
G0 F6000 X168.526 Y103.359
G1 F1200 X158.333 Y93.166 E237.60921
G0 F6000 X159.148 Y93.166
G1 F1200 X169.34 Y103.359 E238.86568
G0 F6000 X170.155 Y103.359
G1 F1200 X159.963 Y93.166 E240.12216
G0 F6000 X160.777 Y93.166
G1 F1200 X170.969 Y103.359 E241.37863
G0 F6000 X171.784 Y103.359
G1 F1200 X161.592 Y93.166 E242.6351
G0 F6000 X162.406 Y93.166
G1 F1200 X172.599 Y103.359 E243.89164
G0 F6000 X173.413 Y103.359
G1 F1200 X163.221 Y93.166 E245.14811
G0 F6000 X164.036 Y93.166
G1 F1200 X174.228 Y103.359 E246.40459
G0 F6000 X175.042 Y103.359
G1 F1200 X164.85 Y93.166 E247.66106
G0 F6000 X165.665 Y93.166
G1 F1200 X175.857 Y103.359 E248.91754
G0 F6000 X176.672 Y103.359
G1 F1200 X166.479 Y93.166 E250.17407
G0 F6000 X167.294 Y93.166
G1 F1200 X177.486 Y103.359 E251.43055
G0 F6000 X178.301 Y103.359
G1 F1200 X168.108 Y93.166 E252.68708
G0 F6000 X168.923 Y93.166
G1 F1200 X179.115 Y103.359 E253.94356
G0 F6000 X179.93 Y103.359
G1 F1200 X169.738 Y93.166 E255.20003
G0 F6000 X170.552 Y93.166
G1 F1200 X180.744 Y103.359 E256.45651
G0 F6000 X181.559 Y103.359
G1 F1200 X171.367 Y93.166 E257.71298
G0 F6000 X172.181 Y93.166
G1 F1200 X182.374 Y103.359 E258.96952
G0 F6000 X183.188 Y103.359
G1 F1200 X172.996 Y93.166 E260.22599
G0 F6000 X173.811 Y93.166
G1 F1200 X184.003 Y103.359 E261.48247
G0 F6000 X184.817 Y103.359
G1 F1200 X174.625 Y93.166 E262.73894
G0 F6000 X175.44 Y93.166
G1 F1200 X185.632 Y103.359 E263.99541
G0 F6000 X186.447 Y103.359
G1 F1200 X176.254 Y93.166 E265.25195
G0 F6000 X177.069 Y93.166
G1 F1200 X187.261 Y103.359 E266.50842
G0 F6000 X188.076 Y103.359
G1 F1200 X177.884 Y93.166 E267.7649
G0 F6000 X178.698 Y93.166
G1 F1200 X188.89 Y103.359 E269.02137
G0 F6000 X189.705 Y103.359
G1 F1200 X179.513 Y93.166 E270.27785
G0 F6000 X180.327 Y93.166
G1 F1200 X190.52 Y103.359 E271.53438
G1 F1500 E266.53438
G0 F6000 X190.52 Y90.398
G0 X218.237 Y90.41
G0 X218.237 Y121.716
G0 X170.278 Y121.728
G0 X170.278 Y118.959
G1 F1500 E271.53438
G1 F1200 X153.387 Y102.068 E273.61661
G0 F6000 X153.387 Y102.882
G1 F1200 X169.463 Y118.959 E275.59843
G0 F6000 X168.649 Y118.959
G1 F1200 X153.387 Y103.697 E277.47985
G0 F6000 X153.387 Y104.511
G1 F1200 X167.834 Y118.959 E279.26085
G0 F6000 X167.02 Y118.959
G1 F1200 X153.387 Y105.326 E280.94145
G0 F6000 X153.387 Y106.14
G1 F1200 X166.205 Y118.959 E282.52165
G0 F6000 X165.39 Y118.959
G1 F1200 X153.387 Y106.955 E284.00137
G0 F6000 X153.387 Y107.77
G1 F1200 X164.576 Y118.959 E285.38069
G0 F6000 X163.761 Y118.959
G1 F1200 X153.387 Y108.584 E286.6596
G0 F6000 X153.387 Y109.399
G1 F1200 X162.947 Y118.959 E287.8381
G0 F6000 X162.132 Y118.959
G1 F1200 X153.387 Y110.213 E288.9162
G0 F6000 X153.387 Y111.028
G1 F1200 X161.317 Y118.959 E289.89382
G0 F6000 X160.503 Y118.959
G1 F1200 X153.387 Y111.843 E290.77104
G0 F6000 X153.387 Y112.657
G1 F1200 X159.688 Y118.959 E291.54786
G0 F6000 X158.874 Y118.959
G1 F1200 X153.387 Y113.472 E292.22426
