;FLAVOR:Marlin
;TIME:17517
;Filament used: 13.0525m
;Layer height: 0.16
;MINX:95.784
;MINY:70.769
;MINZ:0.28
;MAXX:175.065
;MAXY:172.652
;MAXZ:17.84
;Generated with Cura_SteamEngine 4.12.1
M140 S90
M105
M190 S90
M104 S220
M105
M109 S220
M82 ;absolute extrusion mode
G28 ; home all axes
 M117 Purge extruder
 G92 E0 ; reset extruder
 G1 Z1.0 F3000 ; move z up little to prevent scratching of surface
 G1 X2 Y20 Z0.3 F5000.0 ; move to start-line position
 G1 X2 Y200.0 Z0.3 F1500.0 E15 ; draw 1st line
 G1 X2 Y200.0 Z0.4 F5000.0 ; move to side a little
 G1 X2 Y20 Z0.4 F1500.0 E30 ; draw 2nd line
 G92 E0 ; reset extruder
 G1 Z1.0 F3000 ; move z up little to prevent scratching of surface
G92 E0
G92 E0
G1 F1500 E-5
;LAYER_COUNT:102
;LAYER:0
M107
;MESH:outillageXT_v2_012-outillageMale.stl
G0 F6000 X119.275 Y90.677 Z0.28
;TYPE:WALL-INNER
G1 F1500 E0
G1 F1200 X115.225 Y90.677 E0.32361
G1 X111.78 Y93.927 E0.70204
G1 X111.78 Y109.667 E1.95974
G1 X122.72 Y109.667 E2.83389
G1 X122.72 Y93.927 E4.09158
G1 X119.275 Y90.677 E4.47001
G0 F6000 X119.065 Y91.205
G1 F1200 X115.435 Y91.205 E4.76006
G1 X112.308 Y94.155 E5.10356
G1 X112.308 Y109.139 E6.30085
G1 X122.192 Y109.139 E7.09062
G1 X122.192 Y94.155 E8.2879
G1 X119.065 Y91.205 E8.63141
G0 F6000 X118.855 Y91.733
;TYPE:WALL-OUTER
G1 F1200 X115.645 Y91.733 E8.8879
G1 X112.836 Y94.383 E9.19647
G1 X112.836 Y108.611 E10.33334
G1 X121.664 Y108.611 E11.03874
G1 X121.664 Y94.383 E12.17561
G1 X118.855 Y91.733 E12.48418
G0 F6000 X119.069 Y91.194
G1 F1500 E7.48418
G0 F6000 X118.487 Y92.659
G0 X161.747 Y101.419
G0 X163.72 Y103.392
;TYPE:WALL-INNER
G1 F1500 E12.48418
G1 F1200 X163.72 Y99.452 E12.799
G1 X134.48 Y99.452 E15.1354
G1 X134.48 Y103.392 E15.45022
G1 X163.72 Y103.392 E17.78662
G0 F6000 X163.192 Y102.864
G1 F1200 X163.192 Y99.98 E18.01706
G1 X135.008 Y99.98 E20.26908
G1 X135.008 Y102.864 E20.49953
G1 X163.192 Y102.864 E22.75154
G0 F6000 X162.664 Y102.336
;TYPE:WALL-OUTER
G1 F1200 X162.664 Y100.508 E22.89761
G1 X135.536 Y100.508 E25.06525
G1 X135.536 Y102.336 E25.21131
G1 X162.664 Y102.336 E27.37895
G1 F1500 E22.37895
G0 F6000 X161.747 Y101.419
G0 X169.734 Y118.621
G0 X170.739 Y119.696
G0 X170.791 Y120.897
G0 X175.065 Y130.102
G0 X173.08 Y130.102
;TYPE:WALL-INNER
G1 F1500 E27.37895
G1 F1200 X172.72 Y130.102 E27.40772
G1 X172.72 Y118.875 E28.3048
G1 X168.947 Y115.102 E28.73116
G1 X107.42 Y115.102 E33.64742
G1 X107.42 Y87.742 E35.8336
G1 X168.947 Y87.742 E40.74986
G1 X172.72 Y83.969 E41.17622
G1 X172.72 Y72.742 E42.0733
G1 X173.08 Y72.742 E42.10206
G1 X173.08 Y83.969 E42.71487
G1 X173.08 Y118.875 E45.50401
G1 X173.08 Y130.102 E46.11682
G0 F6000 X173.608 Y130.63
G1 F1200 X172.192 Y130.63 E46.22996
G1 X172.192 Y119.094 E47.15173
G1 X168.728 Y115.63 E47.54317
G1 X106.892 Y115.63 E52.48412
G1 X106.892 Y87.214 E54.75468
G1 X168.728 Y87.214 E59.69563
G1 X172.192 Y83.75 E60.08707
G1 X172.192 Y72.214 E61.00885
G1 X173.608 Y72.214 E61.12199
G1 X173.608 Y130.63 E65.78967
G0 F6000 X174.136 Y131.158
;TYPE:WALL-OUTER
G1 F1200 X171.664 Y131.158 E65.98719
G1 X171.664 Y119.313 E66.93366
G1 X168.509 Y116.158 E67.29018
G1 X106.364 Y116.158 E72.25582
G1 X106.364 Y86.686 E74.61076
G1 X168.509 Y86.686 E79.5764
G1 X171.664 Y83.531 E79.93292
G1 X171.664 Y71.686 E80.87938
G1 X174.136 Y71.686 E81.07691
G1 X174.136 Y131.158 E85.82897
G1 F1500 E80.82897
G0 F6000 X175.065 Y131.158
G0 X175.053 Y132.075
G0 X170.747 Y132.075
G0 X170.739 Y119.696
G0 X172.538 Y117.926
;TYPE:SKIN
G1 F1500 E85.82897
G1 F1200 X169.171 Y114.56 E86.24397
G1 X107.962 Y114.56 E91.57945
G1 X107.962 Y88.284 E93.86988
G1 X169.171 Y88.284 E99.20535
G1 X172.538 Y84.918 E99.62036
G1 X172.538 Y117.926 E102.4976
G1 F1500 E97.4976
G0 F6000 X170.739 Y119.696
G0 X161.747 Y101.419
G0 X164.262 Y103.934
G1 F1500 E102.4976
G1 F1200 X164.262 Y98.91 E102.93554
G1 X133.938 Y98.91 E105.57882
G1 X133.938 Y103.934 E106.01676
G1 X164.262 Y103.934 E108.66004
G1 F1500 E103.66004
G0 F6000 X161.747 Y101.419
G0 X120.747 Y107.694
G0 X123.262 Y110.209
G1 F1500 E108.66004
G1 F1200 X123.262 Y93.693 E110.09971
G1 X119.49 Y90.135 E110.55171
G1 X115.01 Y90.135 E110.94222
G1 X111.238 Y93.693 E111.39421
G1 X111.238 Y110.209 E112.83388
G1 X123.262 Y110.209 E113.88199
G1 F1500 E108.88199
G0 F6000 X120.747 Y107.694
G0 X108.615 Y117.087
G0 X108.615 Y114.317
G1 F1500 E113.88199
G1 F1200 X108.203 Y113.905 E113.93278
G0 F6000 X108.203 Y113.091
G1 F1200 X109.429 Y114.317 E114.08392
G0 F6000 X110.244 Y114.317
G1 F1200 X108.203 Y112.276 E114.33552
G0 F6000 X108.203 Y111.461
G1 F1200 X111.058 Y114.317 E114.68753
G0 F6000 X111.873 Y114.317
G1 F1200 X108.203 Y110.647 E115.13995
G0 F6000 X108.203 Y109.832
G1 F1200 X112.688 Y114.317 E115.69283
G0 F6000 X113.502 Y114.317
G1 F1200 X108.203 Y109.018 E116.34606
G0 F6000 X108.203 Y108.203
G1 F1200 X114.317 Y114.317 E117.09976
G0 F6000 X115.131 Y114.317
G1 F1200 X111.266 Y110.451 E117.57628
G0 F6000 X110.995 Y110.18
G1 F1200 X108.203 Y107.389 E117.9204
G0 F6000 X108.203 Y106.574
G1 F1200 X110.995 Y109.366 E118.26458
G0 F6000 X110.995 Y108.551
G1 F1200 X108.203 Y105.759 E118.60876
G0 F6000 X108.203 Y104.945
G1 F1200 X110.995 Y107.736 E118.95288
G0 F6000 X110.995 Y106.922
G1 F1200 X108.203 Y104.13 E119.29707
G0 F6000 X108.203 Y103.316
G1 F1200 X110.995 Y106.107 E119.64119
G0 F6000 X110.995 Y105.293
G1 F1200 X108.203 Y102.501 E119.98537
G0 F6000 X108.203 Y101.686
G1 F1200 X110.995 Y104.478 E120.32955
G0 F6000 X110.995 Y103.663
G1 F1200 X108.203 Y100.872 E120.67367
G0 F6000 X108.203 Y100.057
G1 F1200 X110.995 Y102.849 E121.01785
G0 F6000 X110.995 Y102.034
G1 F1200 X108.203 Y99.243 E121.36197
G0 F6000 X108.203 Y98.428
G1 F1200 X110.995 Y101.22 E121.70616
G0 F6000 X110.995 Y100.405
G1 F1200 X108.203 Y97.613 E122.05034
G0 F6000 X108.203 Y96.799
G1 F1200 X110.995 Y99.591 E122.39452
G0 F6000 X110.995 Y98.776
G1 F1200 X108.203 Y95.984 E122.7387
G0 F6000 X108.203 Y95.17
G1 F1200 X110.995 Y97.961 E123.08282
G0 F6000 X110.995 Y97.147
G1 F1200 X108.203 Y94.355 E123.427
G0 F6000 X108.203 Y93.541
G1 F1200 X110.995 Y96.332 E123.77113
G0 F6000 X110.995 Y95.518
G1 F1200 X108.203 Y92.726 E124.11531
G0 F6000 X108.203 Y91.911
G1 F1200 X110.995 Y94.703 E124.45949
G0 F6000 X110.995 Y93.888
G1 F1200 X108.203 Y91.097 E124.80361
G0 F6000 X108.203 Y90.282
G1 F1200 X111.259 Y93.338 E125.18034
G0 F6000 X111.679 Y92.943
G1 F1200 X108.203 Y89.468 E125.60878
G0 F6000 X108.203 Y88.653
G1 F1200 X112.098 Y92.548 E126.08893
G0 F6000 X112.517 Y92.152
G1 F1200 X108.89 Y88.526 E126.53599
G0 F6000 X109.705 Y88.526
G1 F1200 X112.936 Y91.757 E126.93428
G0 F6000 X113.355 Y91.361
G1 F1200 X110.52 Y88.526 E127.28377
G0 F6000 X111.334 Y88.526
G1 F1200 X113.774 Y90.966 E127.58456
G0 F6000 X114.194 Y90.571
G1 F1200 X112.149 Y88.526 E127.83665
G0 F6000 X112.963 Y88.526
G1 F1200 X114.612 Y90.175 E128.03993
G0 F6000 X115.145 Y89.893
G1 F1200 X113.778 Y88.526 E128.20845
G0 F6000 X114.593 Y88.526
G1 F1200 X115.959 Y89.893 E128.3769
G0 F6000 X116.774 Y89.893
G1 F1200 X115.407 Y88.526 E128.54542
G0 F6000 X116.222 Y88.526
G1 F1200 X117.589 Y89.893 E128.71394
G0 F6000 X118.403 Y89.893
G1 F1200 X117.036 Y88.526 E128.88245
G0 F6000 X117.851 Y88.526
G1 F1200 X119.218 Y89.893 E129.05097
G0 F6000 X119.48 Y88.526
G1 F1200 X133.695 Y102.741 E130.80331
G0 F6000 X133.695 Y103.555
G1 F1200 X118.665 Y88.526 E132.65607
G0 F6000 X120.295 Y88.526
G1 F1200 X133.695 Y101.926 E134.30794
G0 F6000 X133.695 Y101.112
G1 F1200 X121.109 Y88.526 E135.85947
G0 F6000 X121.924 Y88.526
G1 F1200 X133.695 Y100.297 E137.31054
G0 F6000 X133.695 Y99.482
G1 F1200 X122.738 Y88.526 E138.66119
G0 F6000 X123.553 Y88.526
G1 F1200 X133.695 Y98.668 E139.91144
G0 F6000 X134.509 Y98.667
G1 F1200 X124.368 Y88.526 E141.16157
G0 F6000 X125.182 Y88.526
G1 F1200 X135.323 Y98.667 E142.41169
G0 F6000 X136.138 Y98.667
G1 F1200 X125.997 Y88.526 E143.66182
G0 F6000 X126.811 Y88.526
G1 F1200 X136.953 Y98.667 E144.91201
G0 F6000 X137.767 Y98.667
G1 F1200 X127.626 Y88.526 E146.16213
G0 F6000 X128.44 Y88.526
G1 F1200 X138.582 Y98.667 E147.41232
G0 F6000 X139.396 Y98.667
G1 F1200 X129.255 Y88.526 E148.66245
G0 F6000 X130.07 Y88.526
G1 F1200 X140.211 Y98.667 E149.91257
G0 F6000 X141.026 Y98.667
G1 F1200 X130.884 Y88.526 E151.16276
G0 F6000 X131.699 Y88.526
G1 F1200 X141.84 Y98.667 E152.41288
G0 F6000 X142.655 Y98.667
G1 F1200 X132.513 Y88.526 E153.66307
G0 F6000 X133.328 Y88.526
G1 F1200 X143.469 Y98.667 E154.9132
G0 F6000 X144.284 Y98.667
G1 F1200 X134.143 Y88.526 E156.16332
G0 F6000 X134.957 Y88.526
G1 F1200 X145.099 Y98.667 E157.41351
G0 F6000 X145.913 Y98.667
G1 F1200 X135.772 Y88.526 E158.66364
G0 F6000 X136.586 Y88.526
G1 F1200 X146.728 Y98.667 E159.91382
G0 F6000 X147.542 Y98.667
G1 F1200 X137.401 Y88.526 E161.16395
G0 F6000 X138.216 Y88.526
G1 F1200 X148.357 Y98.667 E162.41407
G0 F6000 X149.171 Y98.667
G1 F1200 X139.03 Y88.526 E163.6642
G0 F6000 X139.845 Y88.526
G1 F1200 X149.986 Y98.667 E164.91433
G0 F6000 X150.801 Y98.667
G1 F1200 X140.659 Y88.526 E166.16451
G0 F6000 X141.474 Y88.526
G1 F1200 X151.615 Y98.667 E167.41464
G0 F6000 X152.43 Y98.667
G1 F1200 X142.288 Y88.526 E168.66483
G0 F6000 X143.103 Y88.526
G1 F1200 X153.244 Y98.667 E169.91495
G0 F6000 X154.059 Y98.667
G1 F1200 X143.918 Y88.526 E171.16508
G0 F6000 X144.732 Y88.526
G1 F1200 X154.874 Y98.667 E172.41526
G0 F6000 X155.688 Y98.667
G1 F1200 X145.547 Y88.526 E173.66539
G0 F6000 X146.361 Y88.526
G1 F1200 X156.503 Y98.667 E174.91558
G0 F6000 X157.317 Y98.667
G1 F1200 X147.176 Y88.526 E176.1657
G0 F6000 X147.991 Y88.526
G1 F1200 X158.132 Y98.667 E177.41583
G0 F6000 X158.946 Y98.667
G1 F1200 X148.805 Y88.526 E178.66595
G0 F6000 X149.62 Y88.526
G1 F1200 X159.761 Y98.667 E179.91608
G0 F6000 X160.576 Y98.667
G1 F1200 X150.434 Y88.526 E181.16627
G0 F6000 X151.249 Y88.526
G1 F1200 X161.39 Y98.667 E182.41639
G0 F6000 X162.205 Y98.667
G1 F1200 X152.064 Y88.526 E183.66652
G0 F6000 X152.878 Y88.526
G1 F1200 X163.019 Y98.667 E184.91664
G0 F6000 X163.834 Y98.667
G1 F1200 X153.693 Y88.526 E186.16677
G0 F6000 X154.507 Y88.526
G1 F1200 X172.295 Y106.313 E188.35951
G0 F6000 X172.295 Y105.498
G1 F1200 X155.322 Y88.526 E190.45179
G0 F6000 X156.136 Y88.526
G1 F1200 X172.295 Y104.684 E192.44372
G0 F6000 X172.295 Y103.869
G1 F1200 X156.951 Y88.526 E194.33518
G0 F6000 X157.766 Y88.526
G1 F1200 X172.295 Y103.055 E196.12623
G0 F6000 X172.295 Y102.24
G1 F1200 X158.58 Y88.526 E197.81688
G0 F6000 X159.395 Y88.526
G1 F1200 X172.295 Y101.425 E199.40706
G0 F6000 X172.295 Y100.611
G1 F1200 X160.209 Y88.526 E200.89689
G0 F6000 X161.024 Y88.526
G1 F1200 X172.295 Y99.796 E202.28625
G0 F6000 X172.295 Y98.982
G1 F1200 X161.839 Y88.526 E203.57521
G0 F6000 X162.653 Y88.526
G1 F1200 X172.295 Y98.167 E204.76376
G0 F6000 X172.295 Y97.353
G1 F1200 X163.468 Y88.526 E205.8519
G0 F6000 X164.282 Y88.526
G1 F1200 X172.295 Y96.538 E206.83964
G0 F6000 X172.295 Y95.723
G1 F1200 X165.097 Y88.526 E207.72691
G0 F6000 X165.911 Y88.526
G1 F1200 X172.295 Y94.909 E208.51383
G0 F6000 X172.295 Y94.094
G1 F1200 X166.726 Y88.526 E209.20028
G0 F6000 X167.541 Y88.526
G1 F1200 X172.295 Y93.28 E209.78633
G0 F6000 X172.295 Y92.465
G1 F1200 X168.355 Y88.526 E210.27197
G0 F6000 X169.17 Y88.526
G1 F1200 X172.295 Y91.65 E210.65714
G0 F6000 X172.295 Y90.836
G1 F1200 X169.627 Y88.169 E210.98597
G0 F6000 X170.035 Y87.761
G1 F1200 X172.295 Y90.021 E211.26457
G0 F6000 X172.295 Y89.207
G1 F1200 X170.442 Y87.354 E211.493
G0 F6000 X170.85 Y86.947
G1 F1200 X172.295 Y88.392 E211.67113
G0 F6000 X172.295 Y87.578
G1 F1200 X171.257 Y86.54 E211.79909
G0 F6000 X171.665 Y86.133
G1 F1200 X172.295 Y86.763 E211.87675
G0 F6000 X172.295 Y85.948
G1 F1200 X172.072 Y85.726 E211.90418
G1 F1500 E206.90418
G0 F6000 X170.114 Y83.768
G0 X161.747 Y101.425
G0 X164.503 Y99.336
G1 F1500 E211.90418
G1 F1200 X172.295 Y107.128 E212.86474
G0 F6000 X172.295 Y107.942
G1 F1200 X164.503 Y100.151 E213.82523
G0 F6000 X164.503 Y100.965
G1 F1200 X172.295 Y108.757 E214.78578
G0 F6000 X172.295 Y109.571
G1 F1200 X164.503 Y101.78 E215.74628
G0 F6000 X164.503 Y102.594
G1 F1200 X172.295 Y110.386 E216.70683
G0 F6000 X172.295 Y111.201
G1 F1200 X164.503 Y103.409 E217.66738
G0 F6000 X164.455 Y104.175
G1 F1200 X172.295 Y112.015 E218.63386
G0 F6000 X172.295 Y112.83
G1 F1200 X163.64 Y104.175 E219.7008
G0 F6000 X162.826 Y104.175
G1 F1200 X172.295 Y113.644 E220.86808
G0 F6000 X172.295 Y114.459
G1 F1200 X162.011 Y104.175 E222.13583
G0 F6000 X161.197 Y104.175
G1 F1200 X172.295 Y115.273 E223.50393
G0 F6000 X172.295 Y116.088
G1 F1200 X160.382 Y104.175 E224.9725
G0 F6000 X159.567 Y104.175
G1 F1200 X172.295 Y116.903 E226.54154
G0 F6000 X168.894 Y114.317
G1 F1200 X158.753 Y104.175 E227.79173
G0 F6000 X157.938 Y104.175
G1 F1200 X168.079 Y114.317 E229.04191
G0 F6000 X167.265 Y114.317
G1 F1200 X157.124 Y104.175 E230.2921
G0 F6000 X156.309 Y104.175
G1 F1200 X166.45 Y114.317 E231.54229
G0 F6000 X165.636 Y114.317
G1 F1200 X155.494 Y104.175 E232.79254
G0 F6000 X154.68 Y104.175
G1 F1200 X164.821 Y114.317 E234.04272
G0 F6000 X164.007 Y114.317
G1 F1200 X153.865 Y104.175 E235.29297
G0 F6000 X153.051 Y104.175
G1 F1200 X163.192 Y114.317 E236.54316
G0 F6000 X162.377 Y114.317
G1 F1200 X152.236 Y104.175 E237.79335
G0 F6000 X151.421 Y104.175
G1 F1200 X161.563 Y114.317 E239.0436
G0 F6000 X160.748 Y114.317
G1 F1200 X150.607 Y104.175 E240.29378
G0 F6000 X149.792 Y104.175
G1 F1200 X159.934 Y114.317 E241.54403
G0 F6000 X159.119 Y114.317
G1 F1200 X148.978 Y104.175 E242.79422
G0 F6000 X148.163 Y104.175
G1 F1200 X158.304 Y114.317 E244.04441
G0 F6000 X157.49 Y114.317
G1 F1200 X147.349 Y104.175 E245.29459
G0 F6000 X146.534 Y104.175
G1 F1200 X156.675 Y114.317 E246.54478
G0 F6000 X155.861 Y114.317
G1 F1200 X145.719 Y104.175 E247.79503
G0 F6000 X144.905 Y104.175
G1 F1200 X155.046 Y114.317 E249.04522
G0 F6000 X154.232 Y114.317
G1 F1200 X144.09 Y104.175 E250.29547
G0 F6000 X143.276 Y104.175
G1 F1200 X153.417 Y114.317 E251.54565
G0 F6000 X152.602 Y114.317
G1 F1200 X142.461 Y104.175 E252.79584
G0 F6000 X141.646 Y104.175
G1 F1200 X151.788 Y114.317 E254.04609
G0 F6000 X150.973 Y114.317
G1 F1200 X140.832 Y104.175 E255.29628
G0 F6000 X140.017 Y104.175
G1 F1200 X150.159 Y114.317 E256.54653
G0 F6000 X149.344 Y114.317
G1 F1200 X139.203 Y104.175 E257.79671
G0 F6000 X138.388 Y104.175
G1 F1200 X148.529 Y114.317 E259.0469
G0 F6000 X147.715 Y114.317
G1 F1200 X137.573 Y104.175 E260.29715
G0 F6000 X136.759 Y104.175
G1 F1200 X146.9 Y114.317 E261.54734
G0 F6000 X146.086 Y114.317
G1 F1200 X135.944 Y104.175 E262.79759
G0 F6000 X135.13 Y104.175
G1 F1200 X145.271 Y114.317 E264.04777
G0 F6000 X144.456 Y114.317
G1 F1200 X134.315 Y104.175 E265.29796
G1 F1500 E260.29796
G0 F6000 X136.453 Y101.419
G0 X134.681 Y117.087
G0 X134.681 Y114.317
G1 F1500 E265.29796
G1 F1200 X123.503 Y103.138 E266.67598
G0 F6000 X123.503 Y102.324
G1 F1200 X135.496 Y114.317 E268.15441
G0 F6000 X136.311 Y114.317
G1 F1200 X123.503 Y101.509 E269.73331
G0 F6000 X123.503 Y100.694
G1 F1200 X137.125 Y114.317 E271.41262
G0 F6000 X137.94 Y114.317
G1 F1200 X123.503 Y99.88 E273.19233
G0 F6000 X123.503 Y99.065
G1 F1200 X138.754 Y114.317 E275.07245
G0 F6000 X139.569 Y114.317
G1 F1200 X123.503 Y98.251 E277.05298
G0 F6000 X123.503 Y97.436
G1 F1200 X140.384 Y114.317 E279.13397
G0 F6000 X141.198 Y114.317
G1 F1200 X123.503 Y96.621 E281.31537
G0 F6000 X123.503 Y95.807
G1 F1200 X142.013 Y114.317 E283.59718
G0 F6000 X142.827 Y114.317
G1 F1200 X123.503 Y94.992 E285.9794
G0 F6000 X123.503 Y94.178
G1 F1200 X143.642 Y114.317 E288.46202
G1 F1500 E283.46202
G0 F6000 X143.642 Y117.087
G0 X133.867 Y117.087
G0 X133.867 Y114.317
G1 F1500 E288.46202
G1 F1200 X123.503 Y103.953 E289.73964
G0 F6000 X123.503 Y104.767
G1 F1200 X133.052 Y114.317 E290.91685
G0 F6000 X132.238 Y114.317
G1 F1200 X123.503 Y105.582 E291.99365
G0 F6000 X123.503 Y106.396
G1 F1200 X131.423 Y114.317 E292.97004
G0 F6000 X130.608 Y114.317
G1 F1200 X123.503 Y107.211 E293.84597
G0 F6000 X123.503 Y108.026
G1 F1200 X129.794 Y114.317 E294.62149
G0 F6000 X128.979 Y114.317
G1 F1200 X123.503 Y108.84 E295.2966
G0 F6000 X123.503 Y109.655
G1 F1200 X128.165 Y114.317 E295.87131
G0 F6000 X127.35 Y114.317
G1 F1200 X123.484 Y110.451 E296.34788
G0 F6000 X122.67 Y110.451
