;FLAVOR:Marlin
;TIME:15792
;Filament used: 12.5099m
;Layer height: 0.16
;MINX:104.411
;MINY:98.937
;MINZ:0.28
;MAXX:214.082
;MAXY:200.039
;MAXZ:19.88
;Generated with Cura_SteamEngine 4.12.1
M140 S95
M105
M190 S95
M104 S220
M105
M109 S220
M82 ;absolute extrusion mode
G28 ; home all axes
 M117 Purge extruder
 G92 E0 ; reset extruder
 G1 Z1.0 F3000 ; move z up little to prevent scratching of surface
 G1 X2 Y20 Z0.3 F5000.0 ; move to start-line position
 G1 X2 Y200.0 Z0.3 F1500.0 E15 ; draw 1st line
 G1 X2 Y200.0 Z0.4 F5000.0 ; move to side a little
 G1 X2 Y20 Z0.4 F1500.0 E30 ; draw 2nd line
 G92 E0 ; reset extruder
 G1 Z1.0 F3000 ; move z up little to prevent scratching of surface
G92 E0
G92 E0
G1 F1500 E-5
;LAYER_COUNT:103
;LAYER:0
M107
G0 F6000 X198.696 Y105.491 Z0.28
;TYPE:SKIRT
G1 F1500 E0
G1 F1200 X198.769 Y105.41 E0.00871
G1 X199.081 Y105.108 E0.04341
G1 X199.398 Y104.842 E0.07647
G1 X199.744 Y104.591 E0.11063
G1 X200.104 Y104.366 E0.14455
G1 X200.485 Y104.163 E0.17905
G1 X200.848 Y104.001 E0.21081
G1 X201.244 Y103.857 E0.24448
G1 X201.66 Y103.738 E0.27905
G1 X202.068 Y103.651 E0.31239
G1 X202.498 Y103.591 E0.34708
G1 X202.909 Y103.562 E0.38
G1 X203.329 Y103.562 E0.41356
G1 X203.739 Y103.591 E0.4464
G1 X204.169 Y103.651 E0.48109
G1 X204.577 Y103.738 E0.51443
G1 X204.993 Y103.857 E0.549
G1 X205.383 Y103.999 E0.58216
G1 X205.772 Y104.173 E0.61622
G1 X206.124 Y104.36 E0.64806
G1 X206.495 Y104.592 E0.68303
G1 X206.834 Y104.837 E0.71645
G1 X207.156 Y105.108 E0.75008
G1 X207.468 Y105.41 E0.78477
G1 X207.741 Y105.713 E0.81736
G1 X208.003 Y106.047 E0.85128
G1 X208.244 Y106.404 E0.8857
G1 X208.449 Y106.76 E0.91852
G1 X208.631 Y107.134 E0.95176
G1 X208.79 Y107.526 E0.98556
G1 X208.927 Y107.949 E1.02109
G1 X209.023 Y108.332 E1.05264
G1 X209.097 Y108.753 E1.08679
G1 X209.14 Y109.162 E1.11965
G1 X209.155 Y109.592 E1.15403
G1 X209.14 Y110.03 E1.18905
G1 X209.097 Y110.437 E1.22175
G1 X209.025 Y110.849 E1.25517
G1 X208.923 Y111.259 E1.28893
G1 X208.79 Y111.666 E1.32315
G1 X208.633 Y112.056 E1.35674
G1 X208.455 Y112.421 E1.38919
G1 X208.223 Y112.819 E1.426
G1 X208.223 Y109.451 E1.69511
G1 X208.183 Y108.89 E1.74005
G1 X208.064 Y108.34 E1.78502
G1 X207.868 Y107.813 E1.82995
G1 X207.6 Y107.319 E1.87485
G1 X207.264 Y106.867 E1.91986
G1 X206.868 Y106.468 E1.96477
G1 X206.419 Y106.129 E2.00973
G1 X205.926 Y105.857 E2.05472
G1 X205.4 Y105.658 E2.09966
G1 X204.851 Y105.535 E2.14461
G1 X204.263 Y105.491 E2.19173
G1 X198.696 Y105.491 E2.63655
G0 F6000 X198.39 Y105.042
G1 F1200 X198.726 Y104.716 E2.67396
G1 X199.076 Y104.423 E2.71043
G1 X199.446 Y104.154 E2.74698
G1 X199.834 Y103.911 E2.78357
G1 X200.257 Y103.687 E2.82181
G1 X200.659 Y103.507 E2.85701
G1 X201.076 Y103.356 E2.89244
G1 X201.532 Y103.225 E2.93035
G1 X201.969 Y103.132 E2.96605
G1 X202.447 Y103.065 E3.00462
G1 X202.885 Y103.034 E3.03971
G1 X203.352 Y103.034 E3.07702
G1 X203.791 Y103.065 E3.11219
G1 X204.268 Y103.132 E3.15068
G1 X204.705 Y103.225 E3.18638
G1 X205.161 Y103.356 E3.22429
G1 X205.572 Y103.505 E3.25922
G1 X205.994 Y103.693 E3.29613
G1 X206.399 Y103.908 E3.33277
G1 X206.783 Y104.149 E3.369
G1 X207.164 Y104.426 E3.40664
G1 X207.511 Y104.716 E3.44277
G1 X207.847 Y105.042 E3.48018
G1 X208.149 Y105.376 E3.51616
G1 X208.432 Y105.737 E3.55281
G1 X208.682 Y106.109 E3.58862
G1 X208.922 Y106.524 E3.62693
G1 X209.118 Y106.928 E3.66281
G1 X209.286 Y107.344 E3.69866
G1 X209.431 Y107.789 E3.73606
G1 X209.54 Y108.224 E3.77189
G1 X209.62 Y108.678 E3.80872
G1 X209.667 Y109.134 E3.84535
G1 X209.684 Y109.596 E3.88229
G1 X209.667 Y110.059 E3.91931
G1 X209.62 Y110.514 E3.95586
G1 X209.542 Y110.955 E3.99165
G1 X209.43 Y111.405 E4.0287
G1 X209.283 Y111.856 E4.06661
G1 X209.12 Y112.261 E4.10149
G1 X208.917 Y112.676 E4.1384
G1 X208.682 Y113.083 E4.17596
G1 X208.436 Y113.448 E4.21113
G1 X208.146 Y113.819 E4.24875
G1 X207.84 Y114.16 E4.28536
G1 X207.695 Y114.3 E4.30147
G1 X207.695 Y109.451 E4.68892
G1 X207.655 Y108.929 E4.73076
G1 X207.536 Y108.419 E4.7726
G1 X207.341 Y107.933 E4.81444
G1 X207.074 Y107.483 E4.85625
G1 X206.742 Y107.078 E4.8981
G1 X206.352 Y106.728 E4.93997
G1 X205.914 Y106.442 E4.98177
G1 X205.437 Y106.226 E5.02361
G1 X204.933 Y106.085 E5.06543
G1 X204.263 Y106.019 E5.11922
G1 X197.615 Y106.019 E5.65042
G1 X197.805 Y105.737 E5.67759
G1 X198.088 Y105.376 E5.71425
G1 X198.39 Y105.042 E5.75023
G0 F6000 X198.01 Y104.674
G1 F1200 X198.369 Y104.326 E5.79018
G1 X198.747 Y104.01 E5.82955
G1 X199.158 Y103.711 E5.87016
G1 X199.565 Y103.457 E5.90849
G1 X200.024 Y103.213 E5.95003
G1 X200.46 Y103.018 E5.98819
G1 X200.912 Y102.854 E6.02661
G1 X201.401 Y102.713 E6.06728
G1 X201.888 Y102.61 E6.10705
G1 X202.38 Y102.541 E6.14675
G1 X202.876 Y102.506 E6.18648
G1 X203.362 Y102.506 E6.22531
G1 X203.857 Y102.541 E6.26496
G1 X204.349 Y102.61 E6.30466
G1 X204.836 Y102.713 E6.34444
G1 X205.325 Y102.854 E6.3851
G1 X205.771 Y103.016 E6.42302
G1 X206.227 Y103.219 E6.4629
G1 X206.669 Y103.454 E6.5029
G1 X207.078 Y103.71 E6.54145
G1 X207.487 Y104.007 E6.58184
G1 X207.868 Y104.326 E6.62155
G1 X208.227 Y104.674 E6.6615
G1 X208.557 Y105.04 E6.70088
G1 X208.848 Y105.412 E6.73861
G1 X209.141 Y105.845 E6.78039
G1 X209.379 Y106.259 E6.81855
G1 X209.602 Y106.717 E6.85925
G1 X209.783 Y107.164 E6.89778
G1 X209.94 Y107.646 E6.93829
G1 X210.057 Y108.115 E6.97691
G1 X210.145 Y108.616 E7.01756
G1 X210.194 Y109.09 E7.05563
G1 X210.212 Y109.596 E7.09609
G1 X210.194 Y110.103 E7.13663
G1 X210.145 Y110.574 E7.17447
G1 X210.059 Y111.063 E7.21414
G1 X209.936 Y111.556 E7.25474
G1 X209.78 Y112.037 E7.29514
G1 X209.6 Y112.482 E7.3335
G1 X209.389 Y112.914 E7.37192
G1 X209.128 Y113.367 E7.41369
G1 X208.865 Y113.757 E7.45128
G1 X208.548 Y114.163 E7.49244
G1 X208.221 Y114.527 E7.53153
G1 X207.872 Y114.864 E7.5703
G1 X207.498 Y115.177 E7.60927
G1 X207.167 Y115.418 E7.64198
G1 X207.167 Y109.451 E8.11877
G1 X207.127 Y108.971 E8.15726
G1 X207.008 Y108.504 E8.19577
G1 X206.814 Y108.064 E8.23419
G1 X206.55 Y107.661 E8.27269
G1 X206.223 Y107.308 E8.31113
G1 X205.841 Y107.013 E8.3497
G1 X205.417 Y106.786 E8.38813
G1 X204.961 Y106.632 E8.42659
G1 X204.263 Y106.547 E8.48277
G1 X196.718 Y106.547 E9.08565
G1 X196.858 Y106.259 E9.11124
G1 X197.096 Y105.845 E9.14939
G1 X197.389 Y105.412 E9.19117
G1 X197.68 Y105.04 E9.22891
G1 X198.01 Y104.674 E9.26828
G0 F6000 X197.631 Y104.307
G1 F1200 X198.022 Y103.929 E9.31174
G1 X198.416 Y103.598 E9.35286
G1 X198.865 Y103.272 E9.39719
G1 X199.302 Y102.999 E9.43836
G1 X199.796 Y102.736 E9.48308
G1 X200.255 Y102.531 E9.52325
G1 X200.762 Y102.347 E9.56635
G1 X201.27 Y102.201 E9.60858
G1 X201.794 Y102.09 E9.65138
G1 X202.326 Y102.015 E9.69431
G1 X202.853 Y101.978 E9.73652
G1 X203.385 Y101.978 E9.77903
G1 X203.911 Y102.015 E9.82117
G1 X204.443 Y102.09 E9.86409
G1 X204.967 Y102.201 E9.90689
G1 X205.475 Y102.347 E9.94913
G1 X205.97 Y102.527 E9.99121
G1 X206.472 Y102.751 E10.03514
G1 X206.91 Y102.983 E10.07474
G1 X207.382 Y103.279 E10.11926
G1 X207.818 Y103.595 E10.16229
G1 X208.215 Y103.929 E10.20374
G1 X208.606 Y104.307 E10.2472
G1 X208.957 Y104.696 E10.28906
G1 X209.288 Y105.119 E10.33198
G1 X209.586 Y105.559 E10.37444
G1 X209.846 Y106.012 E10.41618
G1 X210.087 Y106.506 E10.4601
G1 X210.277 Y106.976 E10.5006
G1 X210.447 Y107.5 E10.54462
G1 X210.574 Y108.007 E10.58639
G1 X210.668 Y108.541 E10.62971
G1 X210.721 Y109.047 E10.67036
G1 X210.74 Y109.596 E10.71426
G1 X210.721 Y110.146 E10.75823
G1 X210.668 Y110.652 E10.79888
G1 X210.575 Y111.182 E10.84188
G1 X210.448 Y111.689 E10.88364
G1 X210.277 Y112.214 E10.92776
G1 X210.082 Y112.699 E10.96953
G1 X209.855 Y113.163 E11.0108
G1 X209.58 Y113.639 E11.05473
G1 X209.287 Y114.074 E11.09664
G1 X208.949 Y114.506 E11.14047
G1 X208.608 Y114.887 E11.18132
G1 X208.216 Y115.265 E11.22484
G1 X207.813 Y115.602 E11.26681
G1 X207.386 Y115.912 E11.30897
G1 X206.935 Y116.193 E11.35143
G1 X206.639 Y116.351 E11.37824
G1 X206.639 Y109.451 E11.92958
G1 X206.599 Y109.017 E11.96441
G1 X206.481 Y108.598 E11.99919
G1 X206.288 Y108.208 E12.03396
G1 X206.027 Y107.859 E12.06878
G1 X205.707 Y107.564 E12.10356
G1 X205.338 Y107.332 E12.13839
G1 X204.933 Y107.171 E12.17321
G1 X204.506 Y107.087 E12.20798
G1 X204.263 Y107.075 E12.22742
G1 X195.928 Y107.075 E12.89343
G1 X195.96 Y106.976 E12.90174
G1 X196.15 Y106.506 E12.94225
G1 X196.391 Y106.012 E12.98617
G1 X196.651 Y105.559 E13.0279
G1 X196.949 Y105.119 E13.07036
G1 X197.28 Y104.696 E13.11328
G1 X197.631 Y104.307 E13.15515
G0 F6000 X197.252 Y103.939
G1 F1200 X197.659 Y103.545 E13.20041
G1 X198.103 Y103.172 E13.24674
G1 X198.567 Y102.835 E13.29257
G1 X199.044 Y102.537 E13.33751
G1 X199.554 Y102.266 E13.38365
G1 X200.067 Y102.037 E13.42854
G1 X200.584 Y101.849 E13.4725
G1 X201.143 Y101.689 E13.51896
G1 X201.709 Y101.568 E13.56521
G1 X202.274 Y101.489 E13.61079
G1 X202.83 Y101.45 E13.65533
G1 X203.408 Y101.45 E13.70151
G1 X203.963 Y101.489 E13.74597
G1 X204.528 Y101.568 E13.79156
G1 X205.094 Y101.689 E13.8378
G1 X205.653 Y101.849 E13.88426
G1 X206.175 Y102.039 E13.92865
G1 X206.681 Y102.265 E13.97293
G1 X207.185 Y102.532 E14.01851
G1 X207.677 Y102.84 E14.06489
G1 X208.133 Y103.171 E14.10991
G1 X208.578 Y103.545 E14.15636
G1 X208.985 Y103.939 E14.20162
G1 X209.365 Y104.359 E14.24688
G1 X209.705 Y104.793 E14.29093
G1 X210.033 Y105.28 E14.33785
G1 X210.322 Y105.782 E14.38413
G1 X210.563 Y106.277 E14.42812
G1 X210.774 Y106.799 E14.47311
G1 X210.954 Y107.354 E14.51973
G1 X211.092 Y107.901 E14.56481
G1 X211.191 Y108.465 E14.61056
G1 X211.248 Y109.016 E14.65483
G1 X211.269 Y109.596 E14.7012
G1 X211.248 Y110.176 E14.74757
G1 X211.191 Y110.725 E14.79168
G1 X211.092 Y111.286 E14.8372
G1 X210.954 Y111.838 E14.88266
G1 X210.772 Y112.399 E14.92979
G1 X210.562 Y112.921 E14.97475
G1 X210.324 Y113.407 E15.01799
G1 X210.029 Y113.918 E15.06513
G1 X209.715 Y114.383 E15.10997
G1 X209.357 Y114.842 E15.15648
G1 X208.981 Y115.26 E15.2014
G1 X208.571 Y115.656 E15.24695
G1 X208.143 Y116.014 E15.29153
G1 X207.68 Y116.351 E15.33729
G1 X207.193 Y116.655 E15.38317
G1 X206.688 Y116.923 E15.42885
G1 X206.167 Y117.156 E15.47445
G1 X206.111 Y117.176 E15.4792
G1 X206.111 Y109.451 E16.09646
G1 X206.071 Y109.069 E16.12715
G1 X205.953 Y108.704 E16.1578
G1 X205.762 Y108.371 E16.18848
G1 X205.507 Y108.084 E16.21915
G1 X205.197 Y107.857 E16.24986
G1 X204.848 Y107.698 E16.2805
G1 X204.473 Y107.615 E16.31119
G1 X204.263 Y107.603 E16.328
G1 X195.22 Y107.603 E17.05057
G1 X195.283 Y107.354 E17.07109
G1 X195.463 Y106.799 E17.11771
G1 X195.674 Y106.277 E17.1627
G1 X195.915 Y105.782 E17.20669
G1 X196.204 Y105.28 E17.25298
G1 X196.532 Y104.793 E17.29989
G1 X196.872 Y104.359 E17.34395
G1 X197.252 Y103.939 E17.3892
G0 F6000 X196.876 Y103.567
G1 F1200 X197.31 Y103.147 E17.43746
G1 X197.775 Y102.757 E17.48596
G1 X198.262 Y102.403 E17.53406
G1 X198.785 Y102.077 E17.58331
G1 X199.317 Y101.794 E17.63146
G1 X199.868 Y101.548 E17.67967
G1 X200.421 Y101.347 E17.72669
G1 X201.025 Y101.173 E17.77691
G1 X201.614 Y101.049 E17.82501
G1 X202.209 Y100.965 E17.87302
G1 X202.821 Y100.922 E17.92204
G1 X203.417 Y100.922 E17.96967
G1 X204.028 Y100.965 E18.01861
G1 X204.623 Y101.049 E18.06662
G1 X205.212 Y101.173 E18.11472
G1 X205.816 Y101.347 E18.16494
G1 X206.375 Y101.55 E18.21246
G1 X206.914 Y101.791 E18.25964
G1 X207.454 Y102.077 E18.30847
G1 X207.961 Y102.394 E18.35625
G1 X208.472 Y102.765 E18.4067
G1 X208.927 Y103.147 E18.45417
G1 X209.361 Y103.567 E18.50243
G1 X209.766 Y104.016 E18.55075
G1 X210.133 Y104.485 E18.59833
G1 X210.481 Y104.999 E18.64793
G1 X210.78 Y105.517 E18.69572
G1 X211.047 Y106.066 E18.7445
G1 X211.272 Y106.621 E18.79235
G1 X211.465 Y107.216 E18.84234
G1 X211.606 Y107.78 E18.88879
G1 X211.714 Y108.392 E18.93845
G1 X211.776 Y108.987 E18.98625
G1 X211.797 Y109.596 E19.03494
G1 X211.776 Y110.207 E19.08379
G1 X211.714 Y110.801 E19.13151
G1 X211.61 Y111.391 E19.17938
G1 X211.459 Y111.998 E19.22936
G1 X211.272 Y112.571 E19.27752
G1 X211.049 Y113.125 E19.32524
G1 X210.787 Y113.661 E19.37291
G1 X210.474 Y114.201 E19.42278
G1 X210.144 Y114.691 E19.46999
G1 X209.759 Y115.185 E19.52003
G1 X209.363 Y115.626 E19.56739
G1 X208.926 Y116.048 E19.61593
G1 X208.474 Y116.427 E19.66306
G1 X207.968 Y116.794 E19.71301
G1 X207.462 Y117.11 E19.76068
G1 X206.921 Y117.397 E19.80961
G1 X206.363 Y117.646 E19.85844
G1 X205.813 Y117.846 E19.9052
G1 X205.583 Y117.912 E19.92432
G1 X205.583 Y109.451 E20.60039
G1 X205.543 Y109.129 E20.62632
G1 X205.426 Y108.827 E20.65219
G1 X205.239 Y108.562 E20.67811
G1 X204.992 Y108.351 E20.70407
G1 X204.702 Y108.206 E20.72998
G1 X204.263 Y108.131 E20.76556
G1 X194.569 Y108.131 E21.54015
G1 X194.631 Y107.78 E21.56863
G1 X194.772 Y107.216 E21.61509
G1 X194.965 Y106.621 E21.66507
G1 X195.19 Y106.066 E21.71292
G1 X195.457 Y105.517 E21.7617
G1 X195.756 Y104.999 E21.80949
G1 X196.104 Y104.485 E21.85909
G1 X196.471 Y104.016 E21.90667
G1 X196.876 Y103.567 E21.95499
G0 F6000 X196.493 Y103.203
G1 F1200 X196.955 Y102.757 E22.0063
G1 X197.45 Y102.341 E22.05797
G1 X197.968 Y101.965 E22.10911
G1 X198.522 Y101.619 E22.1613
G1 X199.089 Y101.317 E22.21263
G1 X199.663 Y101.061 E22.26285
G1 X200.27 Y100.84 E22.31447
G1 X200.884 Y100.664 E22.36551
G1 X201.529 Y100.527 E22.41819
G1 X202.157 Y100.439 E22.46886
G1 X202.798 Y100.394 E22.52021
G1 X203.44 Y100.394 E22.57151
G1 X204.08 Y100.439 E22.62277
G1 X204.708 Y100.527 E22.67344
G1 X205.353 Y100.664 E22.72613
G1 X205.967 Y100.84 E22.77717
G1 X206.574 Y101.061 E22.82878
G1 X207.159 Y101.322 E22.87997
G1 X207.7 Y101.609 E22.9289
G1 X208.263 Y101.961 E22.98196
G1 X208.793 Y102.347 E23.03435
G1 X209.282 Y102.757 E23.08534
G1 X209.744 Y103.203 E23.13665
G1 X210.167 Y103.672 E23.18711
G1 X210.568 Y104.184 E23.23908
G1 X210.931 Y104.721 E23.29087
G1 X211.247 Y105.27 E23.34149
G1 X211.531 Y105.854 E23.39338
G1 X211.769 Y106.442 E23.44406
G1 X211.971 Y107.064 E23.49632
G1 X212.123 Y107.671 E23.54632
G1 X212.236 Y108.31 E23.59817
G1 X212.302 Y108.944 E23.6491
G1 X212.325 Y109.594 E23.70107
G1 X212.302 Y110.249 E23.75344
G1 X212.236 Y110.879 E23.80406
G1 X212.127 Y111.502 E23.85459
G1 X211.971 Y112.129 E23.90622
G1 X211.77 Y112.748 E23.95822
G1 X211.53 Y113.342 E24.00941
G1 X211.253 Y113.909 E24.05984
G1 X210.92 Y114.485 E24.113
G1 X210.573 Y115 E24.16262
G1 X210.16 Y115.528 E24.21618
G1 X209.748 Y115.987 E24.26547
G1 X209.273 Y116.446 E24.31825
G1 X208.798 Y116.844 E24.36776
G1 X208.269 Y117.229 E24.42004
G1 X207.724 Y117.568 E24.47133
G1 X207.149 Y117.873 E24.52333
G1 X206.556 Y118.139 E24.57527
G1 X205.976 Y118.349 E24.62456
G1 X205.347 Y118.529 E24.67683
G1 X205.055 Y118.592 E24.7007
G1 X205.055 Y109.451 E25.4311
G1 X205.015 Y109.203 E25.45118
G1 X204.9 Y108.98 E25.47123
G1 X204.721 Y108.805 E25.49123
G1 X204.496 Y108.694 E25.51128
G1 X204.263 Y108.659 E25.5301
G1 X193.965 Y108.659 E26.35295
G1 X194.001 Y108.31 E26.38099
G1 X194.114 Y107.671 E26.43284
G1 X194.266 Y107.064 E26.48284
G1 X194.468 Y106.442 E26.5351
G1 X194.706 Y105.854 E26.58578
G1 X194.99 Y105.27 E26.63767
G1 X195.306 Y104.721 E26.68829
G1 X195.669 Y104.184 E26.74008
G1 X196.07 Y103.672 E26.79204
G1 X196.493 Y103.203 E26.84251
G0 F6000 X196.105 Y102.845
G1 F1200 X196.609 Y102.357 E26.89857
G1 X197.119 Y101.929 E26.95177
G1 X197.686 Y101.518 E27.00772
G1 X198.253 Y101.164 E27.06113
G1 X198.856 Y100.843 E27.11572
G1 X199.475 Y100.566 E27.1699
G1 X200.091 Y100.343 E27.22225
G1 X200.767 Y100.149 E27.27845
G1 X201.433 Y100.007 E27.33286
G1 X202.105 Y99.913 E27.38708
G1 X202.775 Y99.866 E27.44074
G1 X203.463 Y99.866 E27.49572
G1 X204.132 Y99.913 E27.54931
G1 X204.804 Y100.007 E27.60352
G1 X205.47 Y100.149 E27.65794
G1 X206.146 Y100.343 E27.71413
G1 X206.762 Y100.567 E27.76651
G1 X207.386 Y100.845 E27.82109
G1 X207.977 Y101.159 E27.87457
G1 X208.558 Y101.522 E27.92931
G1 X209.118 Y101.929 E27.98462
G1 X209.628 Y102.357 E28.03782
G1 X210.132 Y102.845 E28.09388
G1 X210.574 Y103.335 E28.14661
G1 X210.99 Y103.866 E28.20051
G1 X211.379 Y104.442 E28.25604
G1 X211.721 Y105.037 E28.31088
G1 X212.009 Y105.628 E28.36341
G1 X212.268 Y106.268 E28.41858
G1 X212.479 Y106.918 E28.47318
G1 X212.639 Y107.558 E28.5259
G1 X212.759 Y108.236 E28.58091
G1 X212.83 Y108.919 E28.63578
G1 X212.854 Y109.596 E28.68991
