;FLAVOR:Marlin
;TIME:23993
;Filament used: 15.5747m
;Layer height: 0.16
;MINX:108.9
;MINY:106.108
;MINZ:0.28
;MAXX:219.294
;MAXY:194.555
;MAXZ:59.24
;Generated with Cura_SteamEngine 4.12.1
M140 S95
M105
M190 S95
M104 S220
M105
M109 S220
M82 ;absolute extrusion mode
G28 ; home all axes
 M117 Purge extruder
 G92 E0 ; reset extruder
 G1 Z1.0 F3000 ; move z up little to prevent scratching of surface
 G1 X2 Y20 Z0.3 F5000.0 ; move to start-line position
 G1 X2 Y200.0 Z0.3 F1500.0 E15 ; draw 1st line
 G1 X2 Y200.0 Z0.4 F5000.0 ; move to side a little
 G1 X2 Y20 Z0.4 F1500.0 E30 ; draw 2nd line
 G92 E0 ; reset extruder
 G1 Z1.0 F3000 ; move z up little to prevent scratching of surface
G92 E0
G92 E0
G1 F1500 E-5
;LAYER_COUNT:334
;LAYER:0
M107
G0 F6000 X202.592 Y113.519 Z0.28
;TYPE:SKIRT
G1 F1500 E0
G1 F1200 X202.832 Y113.163 E0.03431
G1 X203.096 Y112.825 E0.06858
G1 X203.363 Y112.527 E0.10055
G1 X203.67 Y112.232 E0.13457
G1 X203.999 Y111.955 E0.16893
G1 X204.334 Y111.713 E0.20195
G1 X204.695 Y111.487 E0.23599
G1 X205.082 Y111.281 E0.27102
G1 X205.454 Y111.116 E0.30353
G1 X205.844 Y110.973 E0.33673
G1 X206.257 Y110.855 E0.37105
G1 X206.661 Y110.769 E0.40405
G1 X207.086 Y110.71 E0.43834
G1 X207.505 Y110.68 E0.4719
G1 X207.925 Y110.68 E0.50546
G1 X208.343 Y110.71 E0.53895
G1 X208.765 Y110.768 E0.57298
G1 X209.165 Y110.854 E0.60568
G1 X209.588 Y110.975 E0.64083
G1 X209.985 Y111.12 E0.6746
G1 X210.348 Y111.281 E0.70633
G1 X210.735 Y111.487 E0.74136
G1 X211.09 Y111.709 E0.77482
G1 X211.438 Y111.961 E0.80915
G1 X211.749 Y112.223 E0.84164
G1 X212.069 Y112.531 E0.87713
G1 X212.333 Y112.825 E0.90871
G1 X212.6 Y113.166 E0.94331
G1 X212.83 Y113.509 E0.97631
G1 X213.048 Y113.885 E1.01104
G1 X213.225 Y114.248 E1.04331
G1 X213.389 Y114.653 E1.07822
G1 X213.524 Y115.066 E1.11294
G1 X213.619 Y115.452 E1.1447
G1 X213.694 Y115.872 E1.17879
G1 X213.737 Y116.284 E1.21189
G1 X213.752 Y116.714 E1.24627
G1 X213.737 Y117.144 E1.28065
G1 X213.694 Y117.556 E1.31375
G1 X213.621 Y117.965 E1.34695
G1 X213.521 Y118.369 E1.38021
G1 X213.393 Y118.764 E1.41338
G1 X213.225 Y119.18 E1.44923
G1 X213.165 Y119.302 E1.46009
G1 X213.2 Y118.839 E1.4972
G1 X213.2 Y117.479 E1.60587
G1 X213.16 Y116.918 E1.65081
G1 X213.041 Y116.368 E1.69577
G1 X212.845 Y115.841 E1.7407
G1 X212.577 Y115.347 E1.7856
G1 X212.241 Y114.895 E1.83061
G1 X211.845 Y114.496 E1.87553
G1 X211.396 Y114.157 E1.92048
G1 X210.903 Y113.885 E1.96547
G1 X210.377 Y113.686 E2.01041
G1 X209.828 Y113.563 E2.05536
G1 X209.24 Y113.519 E2.10248
G1 X202.592 Y113.519 E2.63368
G0 F6000 X202.144 Y113.239
G1 F1200 X202.403 Y112.854 E2.67076
G1 X202.694 Y112.482 E2.70849
G1 X202.977 Y112.167 E2.74233
G1 X203.322 Y111.835 E2.78059
G1 X203.67 Y111.542 E2.81694
G1 X204.046 Y111.269 E2.85407
G1 X204.431 Y111.029 E2.89032
G1 X204.838 Y110.812 E2.92717
G1 X205.264 Y110.623 E2.96441
G1 X205.689 Y110.468 E3.00056
G1 X206.129 Y110.342 E3.03713
G1 X206.562 Y110.249 E3.07252
G1 X207.035 Y110.184 E3.11067
G1 X207.481 Y110.152 E3.1464
G1 X207.948 Y110.152 E3.18371
G1 X208.395 Y110.184 E3.21952
G1 X208.864 Y110.249 E3.25735
G1 X209.293 Y110.341 E3.29241
G1 X209.744 Y110.47 E3.32989
G1 X210.175 Y110.627 E3.36655
G1 X210.592 Y110.812 E3.403
G1 X210.999 Y111.029 E3.43985
G1 X211.388 Y111.272 E3.4765
G1 X211.751 Y111.536 E3.51237
G1 X212.112 Y111.839 E3.55002
G1 X212.445 Y112.16 E3.58698
G1 X212.735 Y112.482 E3.62161
G1 X213.029 Y112.858 E3.65975
G1 X213.28 Y113.231 E3.69567
G1 X213.515 Y113.636 E3.73308
G1 X213.71 Y114.037 E3.76871
G1 X213.883 Y114.467 E3.80575
G1 X214.029 Y114.913 E3.84325
G1 X214.132 Y115.328 E3.87741
G1 X214.22 Y115.82 E3.91735
G1 X214.264 Y116.239 E3.95101
G1 X214.281 Y116.714 E3.98899
G1 X214.264 Y117.189 E4.02697
G1 X214.22 Y117.608 E4.06064
G1 X214.134 Y118.09 E4.09976
G1 X214.031 Y118.508 E4.13416
G1 X213.883 Y118.963 E4.17239
G1 X213.71 Y119.391 E4.20928
G1 X213.515 Y119.792 E4.2449
G1 X213.28 Y120.197 E4.28232
G1 X213.029 Y120.57 E4.31824
G1 X212.735 Y120.946 E4.35638
G1 X212.451 Y121.262 E4.39033
G1 X212.232 Y121.473 E4.41463
G1 X212.232 Y120.516 E4.4911
G1 X212.249 Y120.49 E4.49358
G1 X212.465 Y120.013 E4.53542
G1 X212.606 Y119.509 E4.57724
G1 X212.672 Y118.839 E4.63103
G1 X212.672 Y117.479 E4.7397
G1 X212.632 Y116.957 E4.78153
G1 X212.513 Y116.447 E4.82338
G1 X212.318 Y115.961 E4.86522
G1 X212.051 Y115.511 E4.90703
G1 X211.719 Y115.106 E4.94888
G1 X211.329 Y114.756 E4.99075
G1 X210.891 Y114.47 E5.03255
G1 X210.414 Y114.254 E5.07439
G1 X209.91 Y114.113 E5.1162
G1 X209.24 Y114.047 E5.17
G1 X201.714 Y114.047 E5.77136
G1 X201.919 Y113.627 E5.8087
G1 X202.144 Y113.239 E5.84454
G0 F6000 X201.696 Y112.958
G1 F1200 X201.977 Y112.543 E5.88459
G1 X202.286 Y112.147 E5.92472
G1 X202.605 Y111.792 E5.96286
G1 X202.965 Y111.445 E6.00281
G1 X203.35 Y111.122 E6.04297
G1 X203.749 Y110.832 E6.08238
G1 X204.161 Y110.575 E6.12118
G1 X204.612 Y110.335 E6.162
G1 X205.062 Y110.134 E6.20138
G1 X205.516 Y109.969 E6.23998
G1 X206.005 Y109.829 E6.28062
G1 X206.477 Y109.728 E6.31919
G1 X206.969 Y109.66 E6.35888
G1 X207.472 Y109.624 E6.39917
G1 X207.958 Y109.624 E6.43801
G1 X208.46 Y109.66 E6.47822
G1 X208.952 Y109.728 E6.51791
G1 X209.414 Y109.827 E6.55566
G1 X209.916 Y109.971 E6.59739
G1 X210.376 Y110.138 E6.63649
G1 X210.818 Y110.335 E6.67516
G1 X211.269 Y110.575 E6.71598
G1 X211.676 Y110.829 E6.75432
G1 X212.089 Y111.129 E6.79511
G1 X212.461 Y111.441 E6.8339
G1 X212.821 Y111.788 E6.87385
G1 X213.143 Y112.147 E6.91239
G1 X213.453 Y112.544 E6.95263
G1 X213.73 Y112.954 E6.99217
G1 X213.977 Y113.382 E7.03166
G1 X214.193 Y113.827 E7.07118
G1 X214.382 Y114.293 E7.11136
G1 X214.539 Y114.772 E7.15164
G1 X214.651 Y115.225 E7.18893
G1 X214.743 Y115.741 E7.23081
G1 X214.791 Y116.209 E7.2684
G1 X214.809 Y116.714 E7.30878
G1 X214.791 Y117.219 E7.34915
G1 X214.743 Y117.687 E7.38674
G1 X214.65 Y118.203 E7.42864
G1 X214.538 Y118.657 E7.466
G1 X214.385 Y119.128 E7.50557
G1 X214.193 Y119.601 E7.54636
G1 X213.977 Y120.046 E7.58589
G1 X213.73 Y120.474 E7.62537
G1 X213.453 Y120.884 E7.66491
G1 X213.146 Y121.278 E7.70482
G1 X212.823 Y121.637 E7.74341
G1 X212.461 Y121.987 E7.78364
G1 X212.089 Y122.299 E7.82244
G1 X211.704 Y122.579 E7.86048
G1 X211.704 Y120.368 E8.03714
G1 X211.905 Y119.993 E8.07114
G1 X212.059 Y119.537 E8.1096
G1 X212.144 Y118.839 E8.16578
G1 X212.144 Y117.479 E8.27445
G1 X212.104 Y116.999 E8.31294
G1 X211.985 Y116.532 E8.35145
G1 X211.791 Y116.092 E8.38987
G1 X211.527 Y115.689 E8.42837
G1 X211.2 Y115.336 E8.46682
G1 X210.818 Y115.041 E8.50538
G1 X210.394 Y114.814 E8.54381
G1 X209.938 Y114.66 E8.58227
G1 X209.24 Y114.575 E8.63845
G1 X200.955 Y114.575 E9.30046
G1 X201.049 Y114.286 E9.32474
G1 X201.238 Y113.817 E9.36515
G1 X201.447 Y113.39 E9.40313
G1 X201.696 Y112.958 E9.44298
G0 F6000 X201.25 Y112.674
G1 F1200 X201.548 Y112.234 E9.48544
G1 X201.884 Y111.803 E9.52911
G1 X202.219 Y111.431 E9.56911
G1 X202.617 Y111.048 E9.61324
G1 X203.02 Y110.709 E9.65532
G1 X203.455 Y110.393 E9.69828
G1 X203.898 Y110.117 E9.73999
G1 X204.39 Y109.855 E9.78453
G1 X204.855 Y109.648 E9.8252
G1 X205.357 Y109.465 E9.86789
G1 X205.867 Y109.319 E9.91028
G1 X206.39 Y109.207 E9.95302
G1 X206.919 Y109.134 E9.99569
G1 X207.449 Y109.096 E10.03815
G1 X207.981 Y109.096 E10.08065
G1 X208.51 Y109.134 E10.12303
G1 X209.039 Y109.207 E10.1657
G1 X209.556 Y109.318 E10.20795
G1 X210.085 Y109.469 E10.25191
G1 X210.571 Y109.646 E10.29324
G1 X211.04 Y109.855 E10.33427
G1 X211.532 Y110.117 E10.37881
G1 X211.969 Y110.39 E10.41998
G1 X212.419 Y110.716 E10.46438
G1 X212.817 Y111.051 E10.50595
G1 X213.196 Y111.416 E10.54799
G1 X213.545 Y111.803 E10.58963
G1 X213.882 Y112.235 E10.63341
G1 X214.179 Y112.677 E10.67596
G1 X214.444 Y113.133 E10.7181
G1 X214.678 Y113.616 E10.76099
G1 X214.877 Y114.106 E10.80325
G1 X215.043 Y114.616 E10.8461
G1 X215.169 Y115.127 E10.88816
G1 X215.265 Y115.664 E10.93174
G1 X215.318 Y116.164 E10.97192
G1 X215.337 Y116.714 E11.01589
G1 X215.318 Y117.264 E11.05987
G1 X215.265 Y117.764 E11.10004
G1 X215.169 Y118.301 E11.14363
G1 X215.043 Y118.813 E11.18576
G1 X214.88 Y119.314 E11.22786
G1 X214.678 Y119.812 E11.2708
G1 X214.444 Y120.295 E11.31369
G1 X214.179 Y120.751 E11.35583
G1 X213.882 Y121.193 E11.39838
G1 X213.545 Y121.624 E11.4421
G1 X213.21 Y121.997 E11.48216
G1 X212.809 Y122.384 E11.52669
G1 X212.419 Y122.712 E11.5674
G1 X211.969 Y123.038 E11.61181
G1 X211.532 Y123.311 E11.65298
G1 X211.176 Y123.501 E11.68522
G1 X211.176 Y120.205 E11.94858
G1 X211.359 Y119.914 E11.97605
G1 X211.52 Y119.509 E12.01088
G1 X211.604 Y119.082 E12.04565
G1 X211.616 Y118.839 E12.06509
G1 X211.616 Y117.479 E12.17376
G1 X211.576 Y117.045 E12.20859
G1 X211.458 Y116.626 E12.24337
G1 X211.265 Y116.236 E12.27814
G1 X211.004 Y115.887 E12.31296
G1 X210.684 Y115.592 E12.34774
G1 X210.315 Y115.36 E12.38256
G1 X209.91 Y115.199 E12.41739
G1 X209.483 Y115.115 E12.45216
G1 X209.24 Y115.103 E12.4716
G1 X200.266 Y115.103 E13.18866
G1 X200.387 Y114.614 E13.22891
G1 X200.549 Y114.115 E13.27083
G1 X200.756 Y113.601 E13.31511
G1 X200.977 Y113.147 E13.35546
G1 X201.25 Y112.674 E13.39909
G0 F6000 X200.802 Y112.394
G1 F1200 X201.12 Y111.922 E13.44457
G1 X201.469 Y111.477 E13.48976
G1 X201.847 Y111.056 E13.53497
G1 X202.26 Y110.658 E13.5808
G1 X202.7 Y110.288 E13.62673
G1 X203.158 Y109.956 E13.67193
G1 X203.634 Y109.659 E13.71676
G1 X204.146 Y109.386 E13.76313
G1 X204.666 Y109.155 E13.80859
G1 X205.201 Y108.96 E13.85409
G1 X205.739 Y108.806 E13.89881
G1 X206.292 Y108.688 E13.94399
G1 X206.867 Y108.608 E13.99038
G1 X207.426 Y108.568 E14.03516
G1 X208.004 Y108.568 E14.08134
G1 X208.562 Y108.608 E14.12604
G1 X209.137 Y108.688 E14.17243
G1 X209.666 Y108.801 E14.21565
G1 X210.252 Y108.969 E14.26436
G1 X210.765 Y109.155 E14.30797
G1 X211.284 Y109.386 E14.35336
G1 X211.796 Y109.659 E14.39972
G1 X212.267 Y109.953 E14.44409
G1 X212.732 Y110.29 E14.48997
G1 X213.173 Y110.661 E14.53602
G1 X213.579 Y111.053 E14.58112
G1 X213.953 Y111.468 E14.62576
G1 X214.311 Y111.927 E14.67227
G1 X214.625 Y112.393 E14.71717
G1 X214.913 Y112.89 E14.76307
G1 X215.157 Y113.393 E14.80774
G1 X215.376 Y113.933 E14.8543
G1 X215.553 Y114.475 E14.89986
G1 X215.686 Y115.014 E14.94422
G1 X215.788 Y115.584 E14.99049
G1 X215.845 Y116.136 E15.03483
G1 X215.866 Y116.714 E15.08104
G1 X215.845 Y117.292 E15.12726
G1 X215.788 Y117.844 E15.1716
G1 X215.686 Y118.414 E15.21787
G1 X215.554 Y118.95 E15.26198
G1 X215.377 Y119.492 E15.30754
G1 X215.157 Y120.035 E15.35435
G1 X214.913 Y120.538 E15.39902
G1 X214.627 Y121.032 E15.44463
G1 X214.311 Y121.501 E15.48982
G1 X213.947 Y121.968 E15.53713
G1 X213.59 Y122.365 E15.57979
G1 X213.172 Y122.767 E15.62613
G1 X212.732 Y123.138 E15.67212
G1 X212.267 Y123.475 E15.71801
G1 X211.796 Y123.769 E15.76237
G1 X211.284 Y124.042 E15.80873
G1 X210.765 Y124.273 E15.85413
G1 X210.648 Y124.315 E15.86406
G1 X210.648 Y120.027 E16.20669
G1 X210.834 Y119.773 E16.23184
G1 X210.993 Y119.424 E16.26249
G1 X211.076 Y119.049 E16.29318
G1 X211.088 Y118.839 E16.30999
G1 X211.088 Y117.479 E16.41865
G1 X211.048 Y117.097 E16.44935
G1 X210.93 Y116.732 E16.48
G1 X210.739 Y116.399 E16.51067
G1 X210.484 Y116.112 E16.54135
G1 X210.174 Y115.885 E16.57205
G1 X209.825 Y115.726 E16.60269
G1 X209.45 Y115.643 E16.63338
G1 X209.24 Y115.631 E16.65019
G1 X199.638 Y115.631 E17.41743
G1 X199.644 Y115.573 E17.42209
G1 X199.743 Y115.019 E17.46706
G1 X199.88 Y114.465 E17.51266
G1 X200.056 Y113.924 E17.55811
G1 X200.269 Y113.396 E17.60361
G1 X200.517 Y112.888 E17.64878
G1 X200.802 Y112.394 E17.69435
G0 F6000 X200.35 Y112.12
G1 F1200 X200.699 Y111.604 E17.74412
G1 X201.067 Y111.133 E17.79188
G1 X201.467 Y110.688 E17.83969
G1 X201.903 Y110.268 E17.88807
G1 X202.364 Y109.88 E17.93621
G1 X202.868 Y109.516 E17.98589
G1 X203.376 Y109.198 E18.03378
G1 X203.919 Y108.908 E18.08297
G1 X204.464 Y108.667 E18.13058
G1 X205.029 Y108.461 E18.17864
G1 X205.618 Y108.292 E18.2276
G1 X206.204 Y108.167 E18.27548
G1 X206.802 Y108.084 E18.32372
G1 X207.417 Y108.04 E18.37298
G1 X208.013 Y108.04 E18.42061
G1 X208.627 Y108.084 E18.46979
G1 X209.222 Y108.166 E18.51778
G1 X209.804 Y108.291 E18.56535
G1 X210.412 Y108.465 E18.61588
G1 X210.967 Y108.667 E18.66307
G1 X211.511 Y108.908 E18.71062
G1 X212.054 Y109.198 E18.7598
G1 X212.572 Y109.521 E18.80858
G1 X213.055 Y109.872 E18.85629
G1 X213.529 Y110.271 E18.9058
G1 X213.959 Y110.686 E18.95355
G1 X214.354 Y111.125 E19.00074
G1 X214.74 Y111.619 E19.05083
G1 X215.075 Y112.115 E19.09865
G1 X215.379 Y112.641 E19.1472
G1 X215.638 Y113.174 E19.19455
G1 X215.871 Y113.749 E19.24412
G1 X216.063 Y114.336 E19.29347
G1 X216.203 Y114.904 E19.34022
G1 X216.31 Y115.505 E19.38899
G1 X216.373 Y116.105 E19.4372
G1 X216.394 Y116.714 E19.48589
G1 X216.373 Y117.323 E19.53458
G1 X216.31 Y117.923 E19.58279
G1 X216.205 Y118.513 E19.63067
G1 X216.059 Y119.103 E19.67924
G1 X215.874 Y119.671 E19.72697
G1 X215.638 Y120.254 E19.77722
G1 X215.379 Y120.787 E19.82458
G1 X215.075 Y121.313 E19.87312
G1 X214.74 Y121.809 E19.92094
G1 X214.355 Y122.303 E19.97099
G1 X213.962 Y122.739 E20.01789
G1 X213.529 Y123.158 E20.06604
G1 X213.055 Y123.556 E20.11549
G1 X212.572 Y123.907 E20.1632
G1 X212.054 Y124.23 E20.21198
G1 X211.511 Y124.52 E20.26117
G1 X210.967 Y124.761 E20.30871
G1 X210.412 Y124.963 E20.3559
G1 X210.12 Y125.047 E20.38018
G1 X210.12 Y119.821 E20.79776
G1 X210.129 Y119.815 E20.79862
G1 X210.34 Y119.568 E20.82458
G1 X210.485 Y119.278 E20.85049
G1 X210.56 Y118.839 E20.88607
G1 X210.56 Y117.479 E20.99474
G1 X210.52 Y117.157 E21.02067
G1 X210.403 Y116.855 E21.04655
G1 X210.216 Y116.59 E21.07246
G1 X209.969 Y116.379 E21.09842
G1 X209.679 Y116.234 E21.12433
G1 X209.24 Y116.159 E21.15992
G1 X199.055 Y116.159 E21.97374
G1 X199.057 Y116.107 E21.9779
G1 X199.12 Y115.507 E22.0261
G1 X199.227 Y114.903 E22.07512
G1 X199.37 Y114.324 E22.12277
G1 X199.559 Y113.744 E22.17151
G1 X199.786 Y113.18 E22.22009
G1 X200.048 Y112.644 E22.26776
G1 X200.35 Y112.12 E22.31609
G0 F6000 X199.909 Y111.83
G1 F1200 X200.265 Y111.302 E22.36697
G1 X200.659 Y110.798 E22.41809
G1 X201.088 Y110.321 E22.46935
G1 X201.555 Y109.871 E22.52117
G1 X202.044 Y109.46 E22.57221
G1 X202.564 Y109.083 E22.62354
G1 X203.113 Y108.74 E22.67526
G1 X203.687 Y108.434 E22.72724
G1 X204.269 Y108.176 E22.7781
G1 X204.873 Y107.955 E22.8295
G1 X205.476 Y107.783 E22.8796
G1 X206.119 Y107.645 E22.93215
G1 X206.75 Y107.558 E22.98304
G1 X207.394 Y107.512 E23.03463
G1 X208.036 Y107.512 E23.08593
G1 X208.679 Y107.558 E23.13744
G1 X209.31 Y107.645 E23.18834
G1 X209.943 Y107.781 E23.24007
G1 X210.567 Y107.959 E23.29192
G1 X211.161 Y108.176 E23.34245
G1 X211.743 Y108.434 E23.39332
G1 X212.317 Y108.74 E23.4453
G1 X212.866 Y109.083 E23.49702
G1 X213.393 Y109.465 E23.54903
G1 X213.87 Y109.866 E23.59882
G1 X214.338 Y110.318 E23.65081
G1 X214.762 Y110.79 E23.70151
G1 X215.169 Y111.31 E23.75427
G1 X215.52 Y111.831 E23.80447
G1 X215.848 Y112.398 E23.85681
G1 X216.123 Y112.963 E23.90702
G1 X216.366 Y113.563 E23.95874
G1 X216.568 Y114.183 E24.01085
G1 X216.718 Y114.79 E24.06081
G1 X216.834 Y115.439 E24.11349
G1 X216.899 Y116.061 E24.16346
G1 X216.922 Y116.714 E24.21567
G1 X216.899 Y117.367 E24.26788
G1 X216.834 Y117.989 E24.31785
G1 X216.718 Y118.638 E24.37053
G1 X216.569 Y119.242 E24.42024
G1 X216.367 Y119.861 E24.47227
G1 X216.123 Y120.465 E24.52432
G1 X215.848 Y121.03 E24.57453
G1 X215.52 Y121.597 E24.62687
G1 X215.169 Y122.118 E24.67706
G1 X214.756 Y122.646 E24.73063
G1 X214.349 Y123.1 E24.77935
G1 X213.869 Y123.562 E24.83258
G1 X213.393 Y123.963 E24.88231
G1 X212.866 Y124.345 E24.93432
G1 X212.317 Y124.688 E24.98604
G1 X211.743 Y124.994 E25.03802
G1 X211.161 Y125.252 E25.08889
G1 X210.567 Y125.469 E25.13942
G1 X209.943 Y125.647 E25.19127
G1 X209.592 Y125.722 E25.21995
G1 X209.592 Y119.537 E25.71416
G1 X209.711 Y119.476 E25.72484
G1 X209.886 Y119.297 E25.74484
G1 X209.997 Y119.072 E25.76489
G1 X210.032 Y118.839 E25.78372
G1 X210.032 Y117.479 E25.89239
G1 X209.992 Y117.231 E25.91246
G1 X209.877 Y117.008 E25.93251
G1 X209.698 Y116.833 E25.95251
G1 X209.473 Y116.722 E25.97256
G1 X209.24 Y116.687 E25.99138
G1 X198.508 Y116.687 E26.84891
G1 X198.53 Y116.077 E26.89769
G1 X198.597 Y115.431 E26.94958
