;FLAVOR:Marlin
;TIME:15238
;Filament used: 9.38757m
;Layer height: 0.16
;MINX:91.642
;MINY:136.23
;MINZ:0.28
;MAXX:151.471
;MAXY:223.728
;MAXZ:59.4
;Generated with Cura_SteamEngine 4.12.1
M140 S90
M105
M190 S90
M104 S220
M105
M109 S220
M82 ;absolute extrusion mode
G28 ; home all axes
 M117 Purge extruder
 G92 E0 ; reset extruder
 G1 Z1.0 F3000 ; move z up little to prevent scratching of surface
 G1 X2 Y20 Z0.3 F5000.0 ; move to start-line position
 G1 X2 Y200.0 Z0.3 F1500.0 E15 ; draw 1st line
 G1 X2 Y200.0 Z0.4 F5000.0 ; move to side a little
 G1 X2 Y20 Z0.4 F1500.0 E30 ; draw 2nd line
 G92 E0 ; reset extruder
 G1 Z1.0 F3000 ; move z up little to prevent scratching of surface
G92 E0
G92 E0
G1 F1500 E-5
;LAYER_COUNT:334
;LAYER:0
M107
G1 F300 Z0.48
G0 F6000 X137.82 Y141.4 Z0.48
;TYPE:SKIRT
G1 F300 Z0.28
G1 F1500 E0
G1 F1200 X138.692 Y140.789 E0.07199
G1 X139.641 Y140.346 E0.1428
G1 X140.649 Y140.076 E0.21335
G1 X141.698 Y139.984 E0.28455
G1 X142.745 Y140.076 E0.35561
G1 X143.758 Y140.347 E0.42651
G1 X144.712 Y140.793 E0.49771
G1 X145.573 Y141.396 E0.56878
G1 X146.315 Y142.137 E0.63968
G1 X146.915 Y142.993 E0.71036
G1 X147.361 Y143.95 E0.78174
G1 X147.631 Y144.96 E0.85243
G1 X147.723 Y146.009 E0.92363
G1 X147.631 Y147.058 E0.99482
G1 X147.36 Y148.069 E1.06559
G1 X146.916 Y149.022 E1.13667
G1 X146.311 Y149.886 E1.20799
G1 X145.571 Y150.626 E1.27874
G1 X144.716 Y151.225 E1.34933
G1 X143.76 Y151.67 E1.42062
G1 X143.309 Y151.791 E1.45219
G1 X143.309 Y149.333 E1.61838
G1 X143.269 Y148.772 E1.65641
G1 X143.15 Y148.222 E1.69445
G1 X143.05 Y147.917 E1.71616
G1 X142.854 Y147.39 E1.75417
G1 X142.586 Y146.896 E1.79217
G1 X142.25 Y146.444 E1.83025
G1 X142.049 Y146.228 E1.8502
G1 X141.92 Y146.099 E1.86253
G1 X141.495 Y145.73 E1.90059
G1 X141.022 Y145.426 E1.9386
G1 X140.511 Y145.191 E1.97663
G1 X139.972 Y145.032 E2.01462
G1 X139.415 Y144.95 E2.05269
G1 X139.12 Y144.939 E2.07265
G1 X135.772 Y144.939 E2.29901
G1 X136.038 Y143.943 E2.36871
G1 X136.479 Y142.997 E2.43928
G1 X137.082 Y142.137 E2.5103
G1 X137.82 Y141.4 E2.58081
G0 F6000 X137.484 Y140.99
G1 F1200 X138.423 Y140.332 E2.65834
G1 X139.459 Y139.848 E2.73565
G1 X140.558 Y139.554 E2.81257
G1 X141.698 Y139.454 E2.88994
G1 X142.835 Y139.554 E2.96711
G1 X143.939 Y139.849 E3.04437
G1 X144.976 Y140.334 E3.12177
G1 X145.913 Y140.989 E3.19907
G1 X146.722 Y141.797 E3.27637
G1 X147.376 Y142.732 E3.35352
G1 X147.858 Y143.766 E3.43065
G1 X148.153 Y144.869 E3.50785
G1 X148.253 Y146.009 E3.58522
G1 X148.153 Y147.15 E3.66266
G1 X147.858 Y148.251 E3.73973
G1 X147.375 Y149.287 E3.81701
G1 X146.721 Y150.222 E3.89416
G1 X145.911 Y151.032 E3.97161
G1 X144.978 Y151.686 E4.04864
G1 X143.944 Y152.168 E4.12577
G1 X142.833 Y152.464 E4.20351
G1 X142.781 Y152.469 E4.20704
G1 X142.781 Y149.333 E4.41907
G1 X142.741 Y148.811 E4.45447
G1 X142.622 Y148.301 E4.48988
G1 X142.522 Y147.996 E4.51158
G1 X142.327 Y147.51 E4.54698
G1 X142.06 Y147.06 E4.58236
G1 X141.676 Y146.601 E4.62282
G1 X141.547 Y146.472 E4.63516
G1 X141.149 Y146.131 E4.67059
G1 X140.705 Y145.855 E4.70594
G1 X140.223 Y145.649 E4.74138
G1 X139.716 Y145.519 E4.77677
G1 X139.12 Y145.467 E4.81722
G1 X135.19 Y145.467 E5.08293
G1 X135.243 Y144.873 E5.12325
G1 X135.539 Y143.765 E5.20079
G1 X136.021 Y142.731 E5.27792
G1 X136.675 Y141.797 E5.35501
G1 X137.484 Y140.99 E5.43227
G0 F6000 X137.141 Y140.586
G1 F1200 X138.162 Y139.871 E5.51655
G1 X139.276 Y139.35 E5.59969
G1 X140.466 Y139.032 E5.68298
G1 X141.698 Y138.923 E5.7666
G1 X142.926 Y139.032 E5.84995
G1 X144.126 Y139.352 E5.93392
G1 X145.24 Y139.873 E6.01707
G1 X146.252 Y140.582 E6.10061
G1 X147.129 Y141.457 E6.18437
G1 X147.835 Y142.466 E6.26763
G1 X148.356 Y143.584 E6.35103
G1 X148.675 Y144.777 E6.43452
G1 X148.784 Y146.009 E6.51814
G1 X148.675 Y147.241 E6.60177
G1 X148.355 Y148.435 E6.68534
G1 X147.837 Y149.549 E6.76841
G1 X147.123 Y150.568 E6.85253
G1 X146.254 Y151.437 E6.93562
G1 X145.244 Y152.145 E7.01902
G1 X144.121 Y152.668 E7.10277
G1 X142.932 Y152.986 E7.18599
G1 X142.253 Y153.046 E7.23208
G1 X142.253 Y149.333 E7.48312
G1 X142.213 Y148.853 E7.51568
G1 X142.094 Y148.386 E7.54827
G1 X141.994 Y148.081 E7.56997
G1 X141.8 Y147.641 E7.60248
G1 X141.536 Y147.238 E7.63505
G1 X141.302 Y146.975 E7.65885
G1 X141.173 Y146.846 E7.67119
G1 X140.806 Y146.534 E7.70376
G1 X140.392 Y146.288 E7.73632
G1 X139.943 Y146.114 E7.76887
G1 X139.471 Y146.016 E7.80147
G1 X139.12 Y145.995 E7.82524
G1 X134.614 Y145.995 E8.1299
G1 X134.721 Y144.776 E8.21263
G1 X135.04 Y143.583 E8.29613
G1 X135.561 Y142.467 E8.3794
G1 X136.268 Y141.457 E8.46275
G1 X137.141 Y140.586 E8.54613
G0 F6000 X136.801 Y140.178
G1 F1200 X137.893 Y139.413 E8.63628
G1 X139.094 Y138.853 E8.72587
G1 X140.375 Y138.51 E8.81553
G1 X141.698 Y138.393 E8.90533
G1 X143.024 Y138.51 E8.99533
G1 X144.299 Y138.851 E9.08457
G1 X145.506 Y139.415 E9.17464
G1 X146.595 Y140.178 E9.26454
G1 X147.534 Y141.115 E9.35423
G1 X148.293 Y142.199 E9.4437
G1 X148.854 Y143.405 E9.53363
G1 X149.197 Y144.686 E9.62329
G1 X149.314 Y146.009 E9.71309
G1 X149.197 Y147.333 E9.80296
G1 X148.854 Y148.613 E9.89255
G1 X148.293 Y149.819 E9.98248
G1 X147.532 Y150.905 E10.07214
G1 X146.594 Y151.843 E10.16183
G1 X145.51 Y152.603 E10.25134
G1 X144.3 Y153.166 E10.34157
G1 X143.023 Y153.508 E10.43095
G1 X141.725 Y153.622 E10.51905
G1 X141.725 Y149.333 E10.80903
G1 X141.685 Y148.899 E10.8385
G1 X141.567 Y148.48 E10.86793
G1 X141.467 Y148.175 E10.88963
G1 X141.274 Y147.785 E10.91906
G1 X140.929 Y147.348 E10.9567
G1 X140.8 Y147.219 E10.96903
G1 X140.465 Y146.94 E10.99851
G1 X140.085 Y146.728 E11.02793
G1 X139.673 Y146.588 E11.05735
G1 X139.12 Y146.523 E11.095
G1 X134.128 Y146.523 E11.43251
G1 X134.082 Y146.009 E11.4674
G1 X134.199 Y144.685 E11.55727
G1 X134.542 Y143.404 E11.64693
G1 X135.104 Y142.2 E11.73677
G1 X135.863 Y141.115 E11.82629
G1 X136.801 Y140.178 E11.91593
G0 F6000 X136.462 Y139.772
G1 F1200 X137.632 Y138.953 E12.01249
G1 X138.91 Y138.355 E12.10789
G1 X140.284 Y137.988 E12.20404
G1 X141.698 Y137.863 E12.30002
G1 X143.115 Y137.988 E12.3962
G1 X144.481 Y138.353 E12.49179
G1 X145.771 Y138.957 E12.5881
G1 X146.933 Y139.77 E12.68398
G1 X147.94 Y140.775 E12.78017
G1 X148.754 Y141.937 E12.8761
G1 X149.351 Y143.221 E12.97184
G1 X149.719 Y144.595 E13.06801
G1 X149.844 Y146.009 E13.16398
G1 X149.719 Y147.424 E13.26002
G1 X149.351 Y148.797 E13.35613
G1 X148.754 Y150.08 E13.45181
G1 X147.938 Y151.245 E13.54797
G1 X146.933 Y152.25 E13.64407
G1 X145.771 Y153.064 E13.73999
G1 X144.483 Y153.664 E13.83606
G1 X143.115 Y154.03 E13.93181
G1 X141.698 Y154.155 E14.02798
G1 X141.197 Y154.111 E14.06199
G1 X141.197 Y149.333 E14.38503
G1 X141.157 Y148.951 E14.411
G1 X140.939 Y148.281 E14.45864
G1 X140.748 Y147.948 E14.48459
G1 X140.556 Y147.721 E14.5047
G1 X140.427 Y147.592 E14.51703
G1 X140.128 Y147.35 E14.54304
G1 X139.787 Y147.175 E14.56895
G1 X139.416 Y147.075 E14.59493
G1 X139.12 Y147.051 E14.61501
G1 X133.644 Y147.051 E14.98525
G1 X133.552 Y146.009 E15.05597
G1 X133.677 Y144.593 E15.15208
G1 X134.043 Y143.226 E15.24776
G1 X134.646 Y141.934 E15.34416
G1 X135.457 Y140.775 E15.4398
G1 X136.462 Y139.772 E15.5358
G0 F6000 X136.122 Y139.365
G1 F1200 X137.361 Y138.497 E15.63808
G1 X138.732 Y137.856 E15.74041
G1 X140.192 Y137.466 E15.84258
G1 X141.698 Y137.333 E15.9448
G1 X143.206 Y137.466 E16.04716
G1 X144.662 Y137.855 E16.14905
G1 X146.039 Y138.499 E16.25183
G1 X147.273 Y139.363 E16.35368
G1 X148.347 Y140.435 E16.45628
G1 X149.21 Y141.668 E16.55803
G1 X149.851 Y143.043 E16.6606
G1 X150.241 Y144.503 E16.76278
G1 X150.374 Y146.009 E16.86499
G1 X150.241 Y147.516 E16.96728
G1 X149.851 Y148.975 E17.06939
G1 X149.21 Y150.35 E17.17196
G1 X148.343 Y151.588 E17.27415
G1 X147.276 Y152.655 E17.37617
G1 X146.041 Y153.52 E17.47811
G1 X144.662 Y154.162 E17.58096
G1 X143.206 Y154.552 E17.68287
G1 X141.698 Y154.685 E17.78523
G1 X140.669 Y154.594 E17.85507
G1 X140.669 Y149.333 E18.21077
G1 X140.629 Y149.011 E18.23271
G1 X140.538 Y148.775 E18.24981
G1 X140.529 Y148.706 E18.25452
G1 X140.412 Y148.404 E18.27641
G1 X140.182 Y148.095 E18.30246
G1 X140.053 Y147.966 E18.31479
G1 X139.798 Y147.766 E18.3367
G1 X139.501 Y147.635 E18.35865
G1 X139.12 Y147.579 E18.38469
G1 X133.171 Y147.579 E18.78691
G1 X133.155 Y147.518 E18.79117
G1 X133.022 Y146.009 E18.89359
G1 X133.155 Y144.502 E18.99588
G1 X133.546 Y143.04 E19.0982
G1 X134.185 Y141.67 E19.20041
G1 X135.05 Y140.435 E19.30235
G1 X136.122 Y139.365 E19.40475
G0 F6000 X135.779 Y138.96
G1 F1200 X137.097 Y138.037 E19.51354
G1 X138.551 Y137.359 E19.62201
G1 X140.101 Y136.944 E19.7305
G1 X141.698 Y136.803 E19.8389
G1 X143.298 Y136.944 E19.94749
G1 X144.845 Y137.358 E20.05577
G1 X146.301 Y138.039 E20.16445
G1 X147.616 Y138.959 E20.27295
G1 X148.751 Y140.092 E20.38138
G1 X149.671 Y141.406 E20.48984
G1 X150.348 Y142.859 E20.59822
G1 X150.763 Y144.412 E20.7069
G1 X150.904 Y146.009 E20.8153
G1 X150.763 Y147.607 E20.92376
G1 X150.348 Y149.159 E21.03238
G1 X149.671 Y150.612 E21.14076
G1 X148.75 Y151.927 E21.2493
G1 X147.616 Y153.061 E21.35773
G1 X146.303 Y153.981 E21.46613
G1 X144.846 Y154.66 E21.57481
G1 X143.297 Y155.074 E21.68322
G1 X141.698 Y155.215 E21.79175
G1 X140.141 Y155.078 E21.89742
G1 X140.141 Y149.333 E22.28585
G1 X140.101 Y149.085 E22.30283
G1 X140.032 Y148.973 E22.31173
G1 X140.001 Y148.78 E22.32494
G1 X139.809 Y148.468 E22.34971
G1 X139.68 Y148.339 E22.36205
G1 X139.477 Y148.192 E22.37899
G1 X139.12 Y148.107 E22.40381
G1 X132.766 Y148.107 E22.83341
G1 X132.633 Y147.609 E22.86826
G1 X132.492 Y146.009 E22.97685
G1 X132.633 Y144.411 E23.08532
G1 X133.048 Y142.861 E23.19381
G1 X133.727 Y141.404 E23.30249
G1 X134.646 Y140.092 E23.41079
G1 X135.779 Y138.96 E23.51908
G0 F6000 X135.443 Y138.551
G1 F1200 X136.831 Y137.578 E23.63368
G1 X138.368 Y136.861 E23.74835
G1 X140.009 Y136.422 E23.8632
G1 X141.698 Y136.273 E23.97784
G1 X143.389 Y136.422 E24.09261
G1 X145.027 Y136.86 E24.20725
G1 X146.569 Y137.581 E24.32234
G1 X147.952 Y138.549 E24.43648
G1 X149.16 Y139.755 E24.55189
G1 X150.13 Y141.14 E24.66621
G1 X150.845 Y142.676 E24.78076
G1 X151.285 Y144.32 E24.89583
G1 X151.434 Y146.009 E25.01047
G1 X151.285 Y147.699 E25.12517
G1 X150.845 Y149.342 E25.24017
G1 X150.13 Y150.878 E25.35472
G1 X149.159 Y152.264 E25.46914
G1 X147.953 Y153.47 E25.58445
G1 X146.569 Y154.44 E25.69872
G1 X145.029 Y155.157 E25.81358
G1 X143.389 Y155.596 E25.92836
G1 X141.698 Y155.745 E26.04314
G1 X140.008 Y155.596 E26.15784
G1 X139.613 Y155.49 E26.18549
G1 X139.613 Y149.333 E26.60177
G1 X139.513 Y149.028 E26.62348
G1 X139.436 Y148.841 E26.63715
G1 X139.307 Y148.712 E26.64948
G1 X139.12 Y148.635 E26.66316
G1 X132.361 Y148.635 E27.12014
G1 X132.111 Y147.7 E27.18558
G1 X131.962 Y146.009 E27.30035
G1 X132.111 Y144.319 E27.41506
G1 X132.55 Y142.678 E27.52991
G1 X133.268 Y141.138 E27.64479
G1 X134.237 Y139.755 E27.75897
G1 X135.443 Y138.551 E27.87418
G1 F1500 E22.87418
G1 F300 Z0.48
G0 F6000 X111.009 Y144.541 Z0.48
G1 F300 Z0.28
G1 F1500 E27.87418
G1 F1200 X111.158 Y146.231 E27.98889
G1 X111.009 Y147.921 E28.1036
G1 X110.818 Y148.636 E28.15363
G1 X104.378 Y148.636 E28.58905
G1 X104.191 Y148.713 E28.60272
G1 X104.062 Y148.842 E28.61506
G1 X103.985 Y149.029 E28.62873
G1 X103.885 Y149.334 E28.65043
G1 X103.885 Y155.611 E29.07483
G1 X103.113 Y155.818 E29.12887
G1 X101.422 Y155.967 E29.24364
G1 X99.732 Y155.818 E29.35835
G1 X98.091 Y155.379 E29.4732
G1 X96.551 Y154.661 E29.58808
G1 X95.167 Y153.691 E29.70235
G1 X93.962 Y152.486 E29.81757
G1 X92.992 Y151.102 E29.93183
G1 X92.274 Y149.562 E30.04672
G1 X91.835 Y147.921 E30.16157
G1 X91.686 Y146.231 E30.27627
G1 X91.835 Y144.541 E30.39098
G1 X92.274 Y142.9 E30.50583
G1 X92.99 Y141.364 E30.62041
G1 X93.964 Y139.975 E30.73511
G1 X95.164 Y138.773 E30.84995
G1 X96.555 Y137.799 E30.96476
G1 X98.091 Y137.083 E31.07934
G1 X99.732 Y136.644 E31.19419
G1 X101.422 Y136.495 E31.30889
G1 X103.112 Y136.644 E31.4236
G1 X104.753 Y137.083 E31.53845
G1 X106.293 Y137.801 E31.65333
G1 X107.676 Y138.77 E31.76751
G1 X108.883 Y139.977 E31.88292
G1 X109.852 Y141.36 E31.99709
G1 X110.57 Y142.9 E32.11197
G1 X111.009 Y144.541 E32.22682
G0 F6000 X110.487 Y144.633
G1 F1200 X110.628 Y146.231 E32.33529
G1 X110.487 Y147.83 E32.44382
G1 X110.413 Y148.108 E32.46327
G1 X104.378 Y148.108 E32.8713
G1 X104.13 Y148.148 E32.88829
G1 X103.818 Y148.34 E32.91305
G1 X103.689 Y148.469 E32.92539
G1 X103.542 Y148.672 E32.94233
G1 X103.483 Y148.921 E32.95964
G1 X103.442 Y148.977 E32.96433
G1 X103.357 Y149.334 E32.98914
G1 X103.357 Y155.206 E33.38615
G1 X103.021 Y155.296 E33.40967
G1 X101.422 Y155.437 E33.5182
G1 X99.824 Y155.296 E33.62666
G1 X98.274 Y154.881 E33.73515
G1 X96.817 Y154.202 E33.84383
G1 X95.504 Y153.282 E33.95223
G1 X94.371 Y152.149 E34.06056
G1 X93.451 Y150.836 E34.16896
G1 X92.772 Y149.379 E34.27764
G1 X92.357 Y147.829 E34.38613
G1 X92.216 Y146.231 E34.49459
G1 X92.357 Y144.633 E34.60306
G1 X92.772 Y143.083 E34.71155
G1 X93.449 Y141.63 E34.81992
G1 X94.373 Y140.312 E34.92875
G1 X95.501 Y139.182 E35.0367
G1 X96.821 Y138.258 E35.14564
G1 X98.274 Y137.581 E35.25402
G1 X99.824 Y137.166 E35.36251
G1 X101.422 Y137.025 E35.47097
G1 X103.02 Y137.166 E35.57944
G1 X104.57 Y137.581 E35.68793
G1 X106.027 Y138.26 E35.79661
G1 X107.339 Y139.179 E35.90491
G1 X108.474 Y140.314 E36.01343
G1 X109.393 Y141.626 E36.12174
G1 X110.072 Y143.083 E36.23042
G1 X110.487 Y144.633 E36.33891
G0 F6000 X109.965 Y144.724
G1 F1200 X110.098 Y146.231 E36.44119
G1 X109.979 Y147.58 E36.53276
G1 X104.378 Y147.58 E36.91145
G1 X104.056 Y147.62 E36.93338
G1 X103.754 Y147.737 E36.95528
G1 X103.445 Y147.967 E36.98132
G1 X103.316 Y148.096 E36.99366
G1 X103.116 Y148.351 E37.01557
G1 X102.985 Y148.648 E37.03752
G1 X102.885 Y148.953 E37.05922
G1 X102.829 Y149.334 E37.08526
G1 X102.829 Y154.783 E37.45367
G1 X101.422 Y154.907 E37.54917
G1 X99.915 Y154.774 E37.65145
G1 X98.453 Y154.383 E37.75377
G1 X97.083 Y153.744 E37.85598
G1 X95.843 Y152.875 E37.95836
G1 X94.778 Y151.81 E38.06019
G1 X93.909 Y150.57 E38.16257
G1 X93.27 Y149.2 E38.26477
G1 X92.879 Y147.737 E38.36716
G1 X92.746 Y146.231 E38.46938
G1 X92.879 Y144.724 E38.57167
G1 X93.27 Y143.262 E38.67399
G1 X93.907 Y141.896 E38.77589
G1 X94.777 Y140.654 E38.87842
G1 X95.841 Y139.589 E38.9802
G1 X97.091 Y138.714 E39.08336
G1 X98.453 Y138.079 E39.18497
G1 X99.915 Y137.688 E39.28729
G1 X101.422 Y137.555 E39.38957
G1 X102.929 Y137.688 E39.49186
G1 X104.391 Y138.079 E39.59418
G1 X105.761 Y138.718 E39.69639
G1 X107 Y139.586 E39.79867
G1 X108.067 Y140.653 E39.90069
G1 X108.935 Y141.892 E40.00298
G1 X109.574 Y143.262 E40.10518
G1 X109.965 Y144.724 E40.20751
G0 F6000 X109.443 Y144.816
G1 F1200 X109.568 Y146.231 E40.30355
G1 X109.495 Y147.052 E40.35928
G1 X104.378 Y147.052 E40.70524
G1 X103.996 Y147.092 E40.73121
G1 X103.631 Y147.21 E40.75715
G1 X103.298 Y147.401 E40.7831
G1 X103.071 Y147.593 E40.8032
G1 X102.942 Y147.722 E40.81554
G1 X102.7 Y148.021 E40.84155
G1 X102.525 Y148.362 E40.86746
G1 X102.425 Y148.667 E40.88916
G1 X102.325 Y149.038 E40.91514
G1 X102.301 Y149.334 E40.93522
G1 X102.301 Y154.299 E41.27091
G1 X101.422 Y154.377 E41.33057
G1 X100.006 Y154.252 E41.42668
G1 X98.639 Y153.886 E41.52236
G1 X97.347 Y153.283 E41.61876
G1 X96.186 Y152.47 E41.71459
G1 X95.183 Y151.467 E41.81049
G1 X94.37 Y150.306 E41.90632
G1 X93.767 Y149.014 E42.00272
G1 X93.401 Y147.647 E42.0984
G1 X93.276 Y146.231 E42.19451
G1 X93.401 Y144.816 E42.29055
G1 X93.768 Y143.445 E42.38651
G1 X94.368 Y142.158 E42.48252
G1 X95.181 Y140.997 E42.57835
G1 X96.186 Y139.991 E42.67449
G1 X97.35 Y139.177 E42.77052
G1 X98.637 Y138.576 E42.86656
G1 X100.006 Y138.21 E42.96237
G1 X101.422 Y138.085 E43.05848
G1 X102.837 Y138.21 E43.15452
G1 X104.206 Y138.576 E43.25033
G1 X105.497 Y139.179 E43.34667
G1 X106.657 Y139.991 E43.44241
G1 X107.662 Y140.996 E43.5385
G1 X108.474 Y142.156 E43.63424
G1 X109.077 Y143.447 E43.73057
G1 X109.443 Y144.816 E43.82638
G0 F6000 X108.921 Y144.907
G1 F1200 X109.038 Y146.231 E43.91625
G1 X109.012 Y146.524 E43.93614
G1 X104.378 Y146.524 E44.24945
G1 X103.944 Y146.564 E44.27892
G1 X103.525 Y146.682 E44.30835
G1 X103.135 Y146.875 E44.33777
G1 X102.698 Y147.22 E44.37541
G1 X102.569 Y147.349 E44.38775
