;FLAVOR:Marlin
;TIME:1034
;Filament used: 0.598927m
;Layer height: 0.16
;MINX:141.04
;MINY:122.461
;MINZ:0.28
;MAXX:158.96
;MAXY:163.381
;MAXZ:7.24
;Generated with Cura_SteamEngine 4.12.1
M140 S100
M105
M190 S100
M104 S210
M105
M109 S210
M82 ;absolute extrusion mode
G28 ; home all axes
 M117 Purge extruder
 G92 E0 ; reset extruder
 G1 Z1.0 F3000 ; move z up little to prevent scratching of surface
 G1 X2 Y20 Z0.3 F5000.0 ; move to start-line position
 G1 X2 Y200.0 Z0.3 F1500.0 E15 ; draw 1st line
 G1 X2 Y200.0 Z0.4 F5000.0 ; move to side a little
 G1 X2 Y20 Z0.4 F1500.0 E30 ; draw 2nd line
 G92 E0 ; reset extruder
 G1 Z1.0 F3000 ; move z up little to prevent scratching of surface
G92 E0
G92 E0
G1 F1500 E-5
;LAYER_COUNT:38
;LAYER:0
M107
G1 F300 Z0.48
G0 F6000 X141.999 Y123.992 Z0.48
;TYPE:SKIRT
G1 F300 Z0.28
G1 F1500 E0
G1 F1200 X142.2 Y123.776 E0.01995
G1 X142.355 Y123.621 E0.03477
G1 X142.78 Y123.252 E0.07282
G1 X143.253 Y122.948 E0.11084
G1 X143.764 Y122.713 E0.14887
G1 X144.303 Y122.554 E0.18686
G1 X144.86 Y122.472 E0.22493
G1 X145.155 Y122.461 E0.24489
G1 X154.845 Y122.461 E0.90004
G1 X155.406 Y122.501 E0.93807
G1 X155.956 Y122.62 E0.97611
G1 X156.483 Y122.816 E1.01413
G1 X156.977 Y123.084 E1.05213
G1 X157.429 Y123.42 E1.0902
G1 X157.645 Y123.621 E1.11015
G1 X157.8 Y123.776 E1.12497
G1 X158.169 Y124.201 E1.16303
G1 X158.473 Y124.674 E1.20104
G1 X158.708 Y125.185 E1.23907
G1 X158.867 Y125.724 E1.27707
G1 X158.949 Y126.281 E1.31513
G1 X158.96 Y126.576 E1.33509
G1 X158.96 Y128.766 E1.48316
G1 X158.96 Y131.685 E1.68052
G1 X158.96 Y154.016 E3.19034
G1 X158.96 Y156.935 E3.3877
G1 X158.96 Y159.266 E3.5453
G1 X158.92 Y159.827 E3.58333
G1 X158.801 Y160.377 E3.62137
G1 X158.605 Y160.904 E3.65939
G1 X158.337 Y161.398 E3.69739
G1 X158.001 Y161.85 E3.73547
G1 X157.8 Y162.066 E3.75542
G1 X157.645 Y162.221 E3.77024
G1 X157.22 Y162.59 E3.80829
G1 X156.747 Y162.894 E3.84631
G1 X156.236 Y163.129 E3.88433
G1 X155.697 Y163.288 E3.92233
G1 X155.14 Y163.37 E3.96039
G1 X154.845 Y163.381 E3.98035
G1 X145.155 Y163.381 E4.63551
G1 X144.594 Y163.341 E4.67353
G1 X144.044 Y163.222 E4.71158
G1 X143.517 Y163.026 E4.74959
G1 X143.023 Y162.758 E4.78759
G1 X142.571 Y162.422 E4.82567
G1 X142.355 Y162.221 E4.84562
G1 X142.2 Y162.066 E4.86044
G1 X141.831 Y161.641 E4.8985
G1 X141.527 Y161.168 E4.93651
G1 X141.292 Y160.657 E4.97454
G1 X141.133 Y160.118 E5.01253
G1 X141.051 Y159.561 E5.0506
G1 X141.04 Y159.266 E5.07056
G1 X141.04 Y157.076 E5.21863
G1 X141.041 Y154.157 E5.41598
G1 X141.04 Y131.826 E6.92581
G1 X141.041 Y128.907 E7.12317
G1 X141.04 Y126.576 E7.28077
G1 X141.08 Y126.015 E7.31879
G1 X141.199 Y125.465 E7.35684
G1 X141.395 Y124.938 E7.39486
G1 X141.663 Y124.444 E7.43286
G1 X141.999 Y123.992 E7.47093
G0 F6000 X142.573 Y124.149
G1 F1200 X142.728 Y123.994 E7.48576
G1 X143.126 Y123.653 E7.52119
G1 X143.57 Y123.377 E7.55654
G1 X144.052 Y123.171 E7.59198
G1 X144.559 Y123.041 E7.62737
G1 X145.155 Y122.989 E7.66781
G1 X154.845 Y122.989 E8.32297
G1 X155.367 Y123.029 E8.35836
G1 X155.877 Y123.148 E8.39377
G1 X156.363 Y123.343 E8.42918
G1 X156.813 Y123.61 E8.46455
G1 X157.272 Y123.994 E8.50502
G1 X157.427 Y124.149 E8.51984
G1 X157.768 Y124.547 E8.55527
G1 X158.044 Y124.991 E8.59062
G1 X158.25 Y125.473 E8.62606
G1 X158.38 Y125.98 E8.66145
G1 X158.432 Y126.576 E8.7019
G1 X158.432 Y128.766 E8.84996
G1 X158.432 Y131.685 E9.04732
G1 X158.432 Y154.016 E10.55715
G1 X158.432 Y156.935 E10.7545
G1 X158.432 Y159.266 E10.91211
G1 X158.392 Y159.788 E10.9475
G1 X158.273 Y160.298 E10.98291
G1 X158.078 Y160.784 E11.01832
G1 X157.811 Y161.234 E11.05369
G1 X157.427 Y161.693 E11.09415
G1 X157.272 Y161.848 E11.10898
G1 X156.874 Y162.189 E11.14441
G1 X156.43 Y162.465 E11.17976
G1 X155.948 Y162.671 E11.2152
G1 X155.441 Y162.801 E11.25059
G1 X154.845 Y162.853 E11.29103
G1 X145.155 Y162.853 E11.94619
G1 X144.633 Y162.813 E11.98158
G1 X144.123 Y162.694 E12.01699
G1 X143.637 Y162.499 E12.0524
G1 X143.187 Y162.232 E12.08777
G1 X142.728 Y161.848 E12.12824
G1 X142.573 Y161.693 E12.14306
G1 X142.232 Y161.295 E12.17849
G1 X141.956 Y160.851 E12.21384
G1 X141.75 Y160.369 E12.24928
G1 X141.62 Y159.862 E12.28467
G1 X141.568 Y159.266 E12.32512
G1 X141.568 Y157.076 E12.47318
G1 X141.569 Y154.157 E12.67054
G1 X141.568 Y131.826 E14.18037
G1 X141.569 Y128.907 E14.37772
G1 X141.568 Y126.576 E14.53533
G1 X141.608 Y126.054 E14.57072
G1 X141.727 Y125.544 E14.60613
G1 X141.922 Y125.058 E14.64154
G1 X142.189 Y124.608 E14.67691
G1 X142.573 Y124.149 E14.71737
G0 F6000 X142.713 Y124.786
G1 F1200 X142.947 Y124.523 E14.74118
G1 X143.102 Y124.368 E14.756
G1 X143.469 Y124.056 E14.78856
G1 X143.883 Y123.81 E14.82112
G1 X144.332 Y123.636 E14.85368
G1 X144.804 Y123.538 E14.88627
G1 X145.155 Y123.517 E14.91005
G1 X154.845 Y123.517 E15.5652
G1 X155.325 Y123.557 E15.59777
G1 X155.792 Y123.676 E15.63035
G1 X156.232 Y123.87 E15.66286
G1 X156.635 Y124.134 E15.69544
G1 X156.898 Y124.368 E15.71924
G1 X157.053 Y124.523 E15.73406
G1 X157.365 Y124.89 E15.76663
G1 X157.611 Y125.304 E15.79919
G1 X157.785 Y125.753 E15.83174
G1 X157.883 Y126.225 E15.86434
G1 X157.904 Y126.576 E15.88811
G1 X157.904 Y128.766 E16.03618
G1 X157.904 Y131.685 E16.23354
G1 X157.904 Y154.016 E17.74336
G1 X157.904 Y156.935 E17.94072
G1 X157.904 Y159.266 E18.09832
G1 X157.864 Y159.746 E18.13089
G1 X157.745 Y160.213 E18.16347
G1 X157.551 Y160.653 E18.19598
G1 X157.287 Y161.056 E18.22855
G1 X157.053 Y161.319 E18.25236
G1 X156.898 Y161.474 E18.26718
G1 X156.531 Y161.786 E18.29974
G1 X156.117 Y162.032 E18.3323
G1 X155.668 Y162.206 E18.36486
G1 X155.196 Y162.304 E18.39745
G1 X154.845 Y162.325 E18.42123
G1 X145.155 Y162.325 E19.07638
G1 X144.675 Y162.285 E19.10895
G1 X144.208 Y162.166 E19.14153
G1 X143.768 Y161.972 E19.17404
G1 X143.365 Y161.708 E19.20662
G1 X143.102 Y161.474 E19.23042
G1 X142.947 Y161.319 E19.24524
G1 X142.635 Y160.952 E19.27781
G1 X142.389 Y160.538 E19.31037
G1 X142.215 Y160.089 E19.34292
G1 X142.117 Y159.617 E19.37552
G1 X142.096 Y159.266 E19.39929
G1 X142.096 Y157.076 E19.54736
G1 X142.097 Y154.157 E19.74472
G1 X142.096 Y131.826 E21.25454
G1 X142.097 Y128.907 E21.4519
G1 X142.096 Y126.576 E21.6095
G1 X142.136 Y126.096 E21.64207
G1 X142.255 Y125.629 E21.67465
G1 X142.449 Y125.189 E21.70716
G1 X142.713 Y124.786 E21.73974
G0 F6000 X143.32 Y124.896
G1 F1200 X143.475 Y124.741 E21.75456
G1 X143.81 Y124.462 E21.78403
G1 X144.19 Y124.25 E21.81345
G1 X144.602 Y124.11 E21.84287
G1 X145.155 Y124.045 E21.88052
G1 X154.845 Y124.045 E22.53567
G1 X155.279 Y124.085 E22.56514
G1 X155.698 Y124.203 E22.59457
G1 X156.088 Y124.396 E22.62399
G1 X156.525 Y124.741 E22.66163
G1 X156.68 Y124.896 E22.67645
G1 X156.959 Y125.231 E22.70593
G1 X157.171 Y125.611 E22.73535
G1 X157.311 Y126.023 E22.76477
G1 X157.376 Y126.576 E22.80242
G1 X157.376 Y128.766 E22.95049
G1 X157.376 Y131.685 E23.14784
G1 X157.376 Y154.016 E24.65767
G1 X157.376 Y156.935 E24.85503
G1 X157.376 Y159.266 E25.01263
G1 X157.336 Y159.7 E25.0421
G1 X157.218 Y160.119 E25.07153
G1 X157.025 Y160.509 E25.10095
G1 X156.68 Y160.946 E25.13859
G1 X156.525 Y161.101 E25.15341
G1 X156.19 Y161.38 E25.18289
G1 X155.81 Y161.592 E25.21231
G1 X155.398 Y161.732 E25.24173
G1 X154.845 Y161.797 E25.27937
G1 X145.155 Y161.797 E25.93453
G1 X144.721 Y161.757 E25.96399
G1 X144.302 Y161.639 E25.99343
G1 X143.912 Y161.446 E26.02285
G1 X143.475 Y161.101 E26.06049
G1 X143.32 Y160.946 E26.07531
G1 X143.041 Y160.611 E26.10479
G1 X142.829 Y160.231 E26.13421
G1 X142.689 Y159.819 E26.16363
G1 X142.624 Y159.266 E26.20127
G1 X142.624 Y157.076 E26.34934
G1 X142.625 Y154.157 E26.5467
G1 X142.624 Y131.826 E28.05652
G1 X142.625 Y128.907 E28.25388
G1 X142.624 Y126.576 E28.41148
G1 X142.664 Y126.142 E28.44095
G1 X142.782 Y125.723 E28.47038
G1 X142.975 Y125.333 E28.4998
G1 X143.32 Y124.896 E28.53745
G0 F6000 X143.693 Y125.269
G1 F1200 X143.848 Y125.114 E28.55227
G1 X144.147 Y124.872 E28.57827
G1 X144.488 Y124.697 E28.60419
G1 X144.859 Y124.597 E28.63017
G1 X145.155 Y124.573 E28.65025
G1 X154.845 Y124.573 E29.3054
G1 X155.227 Y124.613 E29.33137
G1 X155.592 Y124.731 E29.3573
G1 X155.925 Y124.922 E29.38326
G1 X156.152 Y125.114 E29.40336
G1 X156.307 Y125.269 E29.41818
G1 X156.549 Y125.568 E29.44419
G1 X156.724 Y125.909 E29.4701
G1 X156.824 Y126.28 E29.49608
G1 X156.848 Y126.576 E29.51616
G1 X156.848 Y128.766 E29.66423
G1 X156.848 Y131.685 E29.86159
G1 X156.848 Y154.016 E31.37141
G1 X156.848 Y156.935 E31.56877
G1 X156.848 Y159.266 E31.72637
G1 X156.808 Y159.648 E31.75234
G1 X156.69 Y160.013 E31.77827
G1 X156.499 Y160.346 E31.80423
G1 X156.307 Y160.573 E31.82433
G1 X156.152 Y160.728 E31.83915
G1 X155.853 Y160.97 E31.86516
G1 X155.512 Y161.145 E31.89107
G1 X155.141 Y161.245 E31.91705
G1 X154.845 Y161.269 E31.93713
G1 X145.155 Y161.269 E32.59228
G1 X144.773 Y161.229 E32.61825
G1 X144.408 Y161.111 E32.64419
G1 X144.075 Y160.92 E32.67014
G1 X143.848 Y160.728 E32.69024
G1 X143.693 Y160.573 E32.70507
G1 X143.451 Y160.274 E32.73107
G1 X143.276 Y159.933 E32.75699
G1 X143.176 Y159.562 E32.78297
G1 X143.152 Y159.266 E32.80304
G1 X143.152 Y157.076 E32.95111
G1 X143.153 Y154.157 E33.14847
G1 X143.152 Y131.826 E34.6583
G1 X143.153 Y128.907 E34.85565
G1 X143.152 Y126.576 E35.01325
G1 X143.192 Y126.194 E35.03922
G1 X143.31 Y125.829 E35.06516
G1 X143.501 Y125.496 E35.09111
G1 X143.693 Y125.269 E35.11122
G0 F6000 X144.067 Y125.643
G1 F1200 X144.222 Y125.488 E35.12604
G1 X144.477 Y125.288 E35.14795
G1 X144.774 Y125.157 E35.16989
G1 X145.155 Y125.101 E35.19593
G1 X154.845 Y125.101 E35.85108
G1 X155.167 Y125.141 E35.87302
G1 X155.469 Y125.258 E35.89492
G1 X155.778 Y125.488 E35.92096
G1 X155.933 Y125.643 E35.93578
G1 X156.133 Y125.898 E35.95769
G1 X156.264 Y126.195 E35.97964
G1 X156.32 Y126.576 E36.00568
G1 X156.32 Y128.766 E36.15375
G1 X156.32 Y131.685 E36.3511
G1 X156.32 Y154.016 E37.86093
G1 X156.32 Y156.935 E38.05829
G1 X156.32 Y159.266 E38.21589
G1 X156.28 Y159.588 E38.23783
G1 X156.163 Y159.89 E38.25972
G1 X155.933 Y160.199 E38.28577
G1 X155.778 Y160.354 E38.30059
G1 X155.523 Y160.554 E38.3225
G1 X155.226 Y160.685 E38.34445
G1 X154.845 Y160.741 E38.37048
G1 X145.155 Y160.741 E39.02564
G1 X144.833 Y160.701 E39.04757
G1 X144.531 Y160.584 E39.06947
G1 X144.222 Y160.354 E39.09552
G1 X144.067 Y160.199 E39.11034
G1 X143.867 Y159.944 E39.13225
G1 X143.736 Y159.647 E39.15419
G1 X143.68 Y159.266 E39.18023
G1 X143.68 Y157.076 E39.3283
G1 X143.681 Y154.158 E39.52559
G1 X143.68 Y131.826 E41.03548
G1 X143.681 Y128.908 E41.23277
G1 X143.68 Y126.576 E41.39044
G1 X143.72 Y126.254 E41.41238
G1 X143.837 Y125.952 E41.43428
G1 X144.067 Y125.643 E41.46032
G0 F6000 X144.44 Y126.016
G1 F1200 X144.595 Y125.861 E41.47514
G1 X144.798 Y125.714 E41.49209
G1 X145.155 Y125.629 E41.5169
G1 X154.845 Y125.629 E42.17205
G1 X155.093 Y125.669 E42.18904
G1 X155.405 Y125.861 E42.21381
G1 X155.56 Y126.016 E42.22863
G1 X155.707 Y126.219 E42.24557
G1 X155.792 Y126.576 E42.27038
G1 X155.792 Y128.766 E42.41845
G1 X155.792 Y131.685 E42.61581
G1 X155.792 Y154.016 E44.12563
G1 X155.792 Y156.935 E44.32299
G1 X155.792 Y159.266 E44.48059
G1 X155.752 Y159.514 E44.49758
G1 X155.56 Y159.826 E44.52235
G1 X155.405 Y159.981 E44.53717
G1 X155.202 Y160.128 E44.55411
G1 X154.845 Y160.213 E44.57893
G1 X145.155 Y160.213 E45.23408
G1 X144.907 Y160.173 E45.25106
G1 X144.595 Y159.981 E45.27583
G1 X144.44 Y159.826 E45.29065
G1 X144.293 Y159.623 E45.3076
G1 X144.208 Y159.266 E45.33241
G1 X144.208 Y157.076 E45.48048
G1 X144.209 Y154.158 E45.67777
G1 X144.208 Y131.826 E47.18766
G1 X144.209 Y128.908 E47.38495
G1 X144.208 Y126.576 E47.54262
G1 X144.248 Y126.328 E47.5596
G1 X144.44 Y126.016 E47.58437
G0 F6000 X144.813 Y126.389
G1 F1200 X144.968 Y126.234 E47.59919
G1 X145.155 Y126.157 E47.61287
G1 X154.845 Y126.157 E48.26802
G1 X155.032 Y126.234 E48.28169
G1 X155.187 Y126.389 E48.29651
G1 X155.264 Y126.576 E48.31019
G1 X155.264 Y128.766 E48.45825
G1 X155.237 Y128.832 E48.46308
G1 X155.264 Y128.907 E48.46847
G1 X155.264 Y131.685 E48.65629
G1 X155.264 Y154.016 E50.16611
G1 X155.237 Y154.082 E50.17094
G1 X155.264 Y154.157 E50.17633
G1 X155.264 Y156.935 E50.36415
G1 X155.264 Y157.076 E50.37368
G1 X155.264 Y159.266 E50.52175
G1 X155.187 Y159.453 E50.53542
G1 X155.032 Y159.608 E50.55024
G1 X154.845 Y159.685 E50.56392
G1 X145.155 Y159.685 E51.21907
G1 X144.968 Y159.608 E51.23274
G1 X144.813 Y159.453 E51.24756
G1 X144.736 Y159.266 E51.26124
G1 X144.736 Y157.076 E51.40931
G1 X144.763 Y157.01 E51.41413
G1 X144.736 Y156.935 E51.41952
G1 X144.737 Y154.158 E51.60727
G1 X144.736 Y131.826 E53.11717
G1 X144.763 Y131.76 E53.12199
G1 X144.736 Y131.685 E53.12738
G1 X144.737 Y128.908 E53.31513
G1 X144.736 Y126.576 E53.4728
G1 X144.813 Y126.389 E53.48648
G1 F1500 E48.48648
G1 F300 Z0.48
G0 F6000 X145.265 Y129.285 Z0.48
G1 F300 Z0.28
G1 F1500 E53.48648
G1 F1200 X154.736 Y129.285 E54.12682
G1 X154.736 Y131.307 E54.26353
G1 X145.264 Y131.307 E54.90395
G1 X145.265 Y129.285 E55.04065
G0 F6000 X145.793 Y129.813
G1 F1200 X154.208 Y129.813 E55.6096
G1 X154.208 Y130.779 E55.67492
G1 X145.792 Y130.779 E56.24393
G1 X145.793 Y129.813 E56.30924
G1 F1500 E51.30924
G1 F300 Z0.48
G0 F6000 X145.265 Y154.535 Z0.48
G1 F300 Z0.28
G1 F1500 E56.30924
G1 F1200 X154.736 Y154.535 E56.94959
G1 X154.736 Y156.557 E57.0863
G1 X145.264 Y156.557 E57.72671
G1 X145.265 Y154.535 E57.86342
G0 F6000 X145.793 Y155.063
G1 F1200 X154.208 Y155.063 E58.43237
G1 X154.208 Y156.029 E58.49768
G1 X145.792 Y156.029 E59.0667
G1 X145.793 Y155.063 E59.13201
G1 F1500 E54.13201
G1 F300 Z0.48
;MESH:bride-brideBody.stl
G0 F6000 X154.736 Y159.157 Z0.48
;TYPE:WALL-OUTER
G1 F300 Z0.28
G1 F1500 E59.13201
G1 F1200 X145.264 Y159.157 E59.77242
G1 X145.264 Y157.185 E59.90575
G1 X154.736 Y157.185 E60.54617
G1 X154.736 Y159.157 E60.6795
G1 F1500 E55.6795
G1 F300 Z0.48
G0 F6000 X145.792 Y158.629 Z0.48
;TYPE:WALL-INNER
G1 F300 Z0.28
G1 F1500 E60.6795
G1 F1200 X145.792 Y157.713 E60.74143
G1 X154.208 Y157.713 E61.31044
G1 X154.208 Y158.629 E61.37238
G1 X145.792 Y158.629 E61.94139
G0 F6000 X146.142 Y158.276
;TYPE:SKIN
G1 F1200 X146.347 Y158.17 E61.95482
G1 X153.503 Y158.17 E62.37103
G1 X153.937 Y157.982 E62.39854
G1 F1500 E57.39854
G1 F300 Z0.48
G0 F6000 X154.736 Y153.907 Z0.48
;TYPE:WALL-OUTER
G1 F300 Z0.28
G1 F1500 E62.39854
G1 F1200 X145.264 Y153.907 E63.03895
G1 X145.264 Y131.935 E64.5245
G1 X154.736 Y131.935 E65.16492
G1 X154.736 Y153.907 E66.65047
G1 F1500 E61.65047
G1 F300 Z0.48
G0 F6000 X148.214 Y144.985 Z0.48
G1 F300 Z0.28
G1 F1500 E66.65047
G1 F1200 X148.043 Y145.438 E66.68321
G1 X147.984 Y145.921 E66.7161
G1 X148.043 Y146.404 E66.749
G1 X148.214 Y146.858 E66.7818
G1 X148.491 Y147.257 E66.81464
G1 X148.855 Y147.58 E66.84755
G1 X149.285 Y147.806 E66.88039
G1 X149.757 Y147.922 E66.91325
G1 X150.243 Y147.922 E66.94611
G1 X150.715 Y147.806 E66.97897
G1 X151.145 Y147.58 E67.01182
G1 X151.509 Y147.257 E67.04472
G1 X151.786 Y146.858 E67.07756
G1 X151.957 Y146.404 E67.11036
G1 X152.016 Y145.921 E67.14326
G1 X151.957 Y145.438 E67.17616
G1 X151.786 Y144.985 E67.2089
G1 X151.509 Y144.583 E67.2419
G1 X151.145 Y144.262 E67.27472
G1 X150.715 Y144.036 E67.30756
G1 X150.243 Y143.92 E67.34042
G1 X149.757 Y143.92 E67.37328
G1 X149.285 Y144.036 E67.40615
G1 X148.855 Y144.262 E67.43899
G1 X148.491 Y144.583 E67.4718
G1 X148.214 Y144.985 E67.50481
G0 F6000 X147.743 Y144.738
;TYPE:WALL-INNER
G1 F1200 X147.527 Y145.311 E67.54621
G1 X147.452 Y145.921 E67.58777
G1 X147.527 Y146.531 E67.62932
G1 X147.743 Y147.105 E67.67078
G1 X148.093 Y147.61 E67.71233
G1 X148.553 Y148.018 E67.7539
G1 X149.096 Y148.303 E67.79536
G1 X149.693 Y148.45 E67.83693
G1 X150.307 Y148.45 E67.87844
G1 X150.904 Y148.303 E67.92001
G1 X151.447 Y148.018 E67.96148
G1 X151.907 Y147.61 E68.00305
G1 X152.257 Y147.105 E68.04459
G1 X152.473 Y146.531 E68.08606
G1 X152.548 Y145.921 E68.12761
G1 X152.473 Y145.311 E68.16916
G1 X152.257 Y144.738 E68.21057
G1 X151.907 Y144.23 E68.25227
G1 X151.447 Y143.824 E68.29376
G1 X150.904 Y143.539 E68.33522
G1 X150.307 Y143.392 E68.37679
G1 X149.693 Y143.392 E68.4183
G1 X149.096 Y143.539 E68.45987
G1 X148.553 Y143.824 E68.50133
G1 X148.093 Y144.23 E68.54282
G1 X147.743 Y144.738 E68.58453
G0 F6000 X147.272 Y144.491
