;FLAVOR:Marlin
;TIME:11734
;Filament used: 7.61223m
;Layer height: 0.16
;MINX:122.36
;MINY:83.983
;MINZ:0.28
;MAXX:177.284
;MAXY:183.256
;MAXZ:30.12
;Generated with Cura_SteamEngine 4.12.1
M140 S100
M105
M190 S100
M104 S210
M105
M109 S210
M82 ;absolute extrusion mode
G28 ; home all axes
 M117 Purge extruder
 G92 E0 ; reset extruder
 G1 Z1.0 F3000 ; move z up little to prevent scratching of surface
 G1 X2 Y20 Z0.3 F5000.0 ; move to start-line position
 G1 X2 Y200.0 Z0.3 F1500.0 E15 ; draw 1st line
 G1 X2 Y200.0 Z0.4 F5000.0 ; move to side a little
 G1 X2 Y20 Z0.4 F1500.0 E30 ; draw 2nd line
 G92 E0 ; reset extruder
 G1 Z1.0 F3000 ; move z up little to prevent scratching of surface
G92 E0
G92 E0
G1 F1500 E-5
;LAYER_COUNT:154
;LAYER:0
M107
G1 F300 Z0.48
G0 F6000 X128.014 Y89.862 Z0.48
;TYPE:SKIRT
G1 F300 Z0.28
G1 F1500 E0
G1 F1200 X128.751 Y89.127 E0.07037
G1 X129.617 Y88.52 E0.14188
G1 X130.565 Y88.078 E0.2126
G1 X131.576 Y87.807 E0.28336
G1 X132.626 Y87.715 E0.35463
G1 X133.67 Y87.807 E0.42549
G1 X134.692 Y88.08 E0.49701
G1 X135.635 Y88.52 E0.56736
G1 X136.503 Y89.128 E0.63902
G1 X136.826 Y89.451 E0.6699
G1 X132.614 Y89.451 E0.95468
G1 X132.053 Y89.491 E0.99271
G1 X131.503 Y89.61 E1.03075
G1 X130.976 Y89.806 E1.06877
G1 X130.482 Y90.074 E1.10677
G1 X130.03 Y90.41 E1.14484
G1 X129.814 Y90.611 E1.16479
G1 X129.6 Y90.825 E1.18526
G1 X129.231 Y91.25 E1.22331
G1 X128.927 Y91.723 E1.26133
G1 X128.692 Y92.234 E1.29935
G1 X128.533 Y92.773 E1.33735
G1 X128.451 Y93.33 E1.37541
G1 X128.44 Y93.625 E1.39537
G1 X128.44 Y98.043 E1.69408
G1 X128.014 Y97.618 E1.73476
G1 X127.405 Y96.747 E1.80662
G1 X126.966 Y95.807 E1.87676
G1 X126.693 Y94.784 E1.94835
G1 X126.601 Y93.74 E2.01921
G1 X126.693 Y92.696 E2.09007
G1 X126.966 Y91.673 E2.16166
G1 X127.405 Y90.733 E2.2318
G1 X128.014 Y89.862 E2.30366
G0 F6000 X127.604 Y89.526
G1 F1200 X128.411 Y88.721 E2.38072
G1 X129.353 Y88.06 E2.45853
G1 X130.383 Y87.58 E2.53536
G1 X131.485 Y87.285 E2.61249
G1 X132.626 Y87.185 E2.68993
G1 X133.762 Y87.285 E2.76703
G1 X134.87 Y87.581 E2.84457
G1 X135.905 Y88.064 E2.9218
G1 X136.839 Y88.718 E2.99889
G1 X137.648 Y89.527 E3.07624
G1 X137.964 Y89.979 E3.11353
G1 X132.614 Y89.979 E3.47525
G1 X132.092 Y90.019 E3.51065
G1 X131.582 Y90.138 E3.54605
G1 X131.096 Y90.333 E3.58146
G1 X130.646 Y90.6 E3.61684
G1 X130.187 Y90.984 E3.6573
G1 X129.973 Y91.198 E3.67776
G1 X129.632 Y91.596 E3.7132
G1 X129.356 Y92.04 E3.74854
G1 X129.15 Y92.522 E3.78398
G1 X129.02 Y93.029 E3.81937
G1 X128.968 Y93.625 E3.85982
G1 X128.968 Y99.15 E4.23337
G1 X128.411 Y98.759 E4.27938
G1 X127.604 Y97.954 E4.35645
G1 X126.948 Y97.016 E4.43384
G1 X126.468 Y95.987 E4.51061
G1 X126.171 Y94.876 E4.58836
G1 X126.071 Y93.74 E4.66547
G1 X126.171 Y92.604 E4.74257
G1 X126.468 Y91.493 E4.82032
G1 X126.948 Y90.464 E4.89709
G1 X127.604 Y89.526 E4.97448
G0 F6000 X127.2 Y89.184
G1 F1200 X128.071 Y88.313 E5.05776
G1 X129.083 Y87.605 E5.14127
G1 X130.205 Y87.081 E5.22499
G1 X131.393 Y86.763 E5.30814
G1 X132.626 Y86.654 E5.39183
G1 X133.859 Y86.763 E5.47552
G1 X135.052 Y87.082 E5.55902
G1 X136.165 Y87.602 E5.64208
G1 X137.185 Y88.316 E5.72626
G1 X138.05 Y89.181 E5.80897
G1 X138.764 Y90.201 E5.89315
G1 X138.907 Y90.507 E5.91598
G1 X132.614 Y90.507 E6.34146
G1 X132.134 Y90.547 E6.37403
G1 X131.667 Y90.666 E6.40661
G1 X131.227 Y90.86 E6.43912
G1 X130.824 Y91.124 E6.4717
G1 X130.561 Y91.358 E6.4955
G1 X130.347 Y91.572 E6.51596
G1 X130.035 Y91.939 E6.54853
G1 X129.789 Y92.353 E6.58109
G1 X129.615 Y92.802 E6.61364
G1 X129.517 Y93.274 E6.64624
G1 X129.496 Y93.625 E6.67001
G1 X129.496 Y100.068 E7.10563
G1 X129.083 Y99.875 E7.13645
G1 X128.071 Y99.167 E7.21996
G1 X127.2 Y98.296 E7.30324
G1 X126.49 Y97.283 E7.38688
G1 X125.967 Y96.161 E7.47057
G1 X125.649 Y94.973 E7.55372
G1 X125.54 Y93.74 E7.63741
G1 X125.649 Y92.507 E7.7211
G1 X125.967 Y91.319 E7.80425
G1 X126.49 Y90.197 E7.88795
G1 X127.2 Y89.184 E7.97159
G0 F6000 X126.796 Y88.841
G1 F1200 X127.729 Y87.909 E8.06075
G1 X128.821 Y87.144 E8.15089
G1 X130.021 Y86.584 E8.24043
G1 X131.302 Y86.241 E8.33009
G1 X132.626 Y86.124 E8.41995
G1 X133.95 Y86.241 E8.50982
G1 X135.231 Y86.584 E8.59948
G1 X136.435 Y87.146 E8.68932
G1 X137.522 Y87.907 E8.77903
G1 X138.459 Y88.844 E8.86862
G1 X139.22 Y89.931 E8.95834
G1 X139.736 Y91.035 E9.04073
G1 X132.614 Y91.035 E9.52226
G1 X132.18 Y91.075 E9.55173
G1 X131.761 Y91.193 E9.58116
G1 X131.371 Y91.386 E9.61058
G1 X130.934 Y91.731 E9.64822
G1 X130.72 Y91.945 E9.66868
G1 X130.441 Y92.28 E9.69816
G1 X130.229 Y92.66 E9.72758
G1 X130.089 Y93.072 E9.757
G1 X130.024 Y93.625 E9.79465
G1 X130.024 Y100.897 E10.28632
G1 X128.821 Y100.336 E10.37606
G1 X127.729 Y99.571 E10.46621
G1 X126.796 Y98.639 E10.55537
G1 X126.029 Y97.544 E10.64576
G1 X125.47 Y96.345 E10.7352
G1 X125.127 Y95.064 E10.82486
G1 X125.01 Y93.74 E10.91473
G1 X125.127 Y92.416 E11.0046
G1 X125.47 Y91.135 E11.09426
G1 X126.029 Y89.936 E11.1837
G1 X126.796 Y88.841 E11.27409
G0 F6000 X126.386 Y88.504
G1 F1200 X127.392 Y87.499 E11.37023
G1 X128.553 Y86.686 E11.46606
G1 X129.84 Y86.086 E11.56207
G1 X131.211 Y85.719 E11.65803
G1 X132.626 Y85.594 E11.75407
G1 X134.042 Y85.719 E11.85018
G1 X135.409 Y86.085 E11.94586
G1 X136.701 Y86.688 E12.04226
G1 X137.862 Y87.501 E12.13809
G1 X138.865 Y88.504 E12.23399
G1 X139.678 Y89.665 E12.32982
G1 X140.281 Y90.957 E12.42622
G1 X140.443 Y91.563 E12.46863
G1 X132.614 Y91.563 E12.99796
G1 X132.232 Y91.603 E13.02393
G1 X131.867 Y91.721 E13.04986
G1 X131.534 Y91.912 E13.07582
G1 X131.307 Y92.104 E13.09592
G1 X131.093 Y92.318 E13.11638
G1 X130.851 Y92.617 E13.14239
G1 X130.676 Y92.958 E13.1683
G1 X130.576 Y93.329 E13.19428
G1 X130.552 Y93.625 E13.21436
G1 X130.552 Y101.585 E13.75255
G1 X129.84 Y101.394 E13.80239
G1 X128.553 Y100.794 E13.89839
G1 X127.392 Y99.981 E13.99422
G1 X126.386 Y98.976 E14.09037
G1 X125.572 Y97.812 E14.1864
G1 X124.971 Y96.525 E14.28243
G1 X124.605 Y95.156 E14.37825
G1 X124.48 Y93.74 E14.47436
G1 X124.605 Y92.324 E14.57046
G1 X124.971 Y90.955 E14.66628
G1 X125.572 Y89.668 E14.76231
G1 X126.386 Y88.504 E14.85835
G0 F6000 X125.985 Y88.158
G1 F1200 X127.049 Y87.095 E14.96003
G1 X128.291 Y86.225 E15.06256
G1 X129.657 Y85.588 E15.16446
G1 X131.119 Y85.197 E15.26679
G1 X132.626 Y85.064 E15.36907
G1 X134.133 Y85.197 E15.47136
G1 X135.595 Y85.588 E15.57368
G1 X136.965 Y86.227 E15.67589
G1 X138.205 Y87.096 E15.77826
G1 X139.27 Y88.161 E15.88009
G1 X140.139 Y89.401 E15.98247
G1 X140.778 Y90.771 E16.08468
G1 X141.131 Y92.091 E16.17706
G1 X132.614 Y92.091 E16.75291
G1 X132.292 Y92.131 E16.77484
G1 X131.99 Y92.248 E16.79674
G1 X131.681 Y92.478 E16.82279
G1 X131.467 Y92.692 E16.84325
G1 X131.267 Y92.947 E16.86516
G1 X131.136 Y93.244 E16.88711
G1 X131.08 Y93.625 E16.91314
G1 X131.08 Y102.273 E17.49784
G1 X129.657 Y101.892 E17.59744
G1 X128.291 Y101.255 E17.69935
G1 X127.049 Y100.385 E17.80187
G1 X125.984 Y99.321 E17.90366
G1 X125.109 Y98.07 E18.00688
G1 X124.474 Y96.709 E18.10842
G1 X124.083 Y95.247 E18.21074
G1 X123.95 Y93.74 E18.31303
G1 X124.083 Y92.233 E18.41531
G1 X124.474 Y90.771 E18.51763
G1 X125.109 Y89.409 E18.61924
G1 X125.985 Y88.158 E18.72249
G0 F6000 X125.577 Y87.819
G1 F1200 X126.707 Y86.691 E18.83044
G1 X128.025 Y85.767 E18.93927
G1 X129.478 Y85.09 E19.04765
G1 X131.028 Y84.675 E19.15614
G1 X132.626 Y84.534 E19.2646
G1 X134.224 Y84.675 E19.37307
G1 X135.774 Y85.09 E19.48155
G1 X137.231 Y85.769 E19.59024
G1 X138.544 Y86.689 E19.69863
G1 X139.677 Y87.822 E19.80697
G1 X140.597 Y89.135 E19.91536
G1 X141.276 Y90.592 E20.02404
G1 X141.691 Y92.142 E20.13253
G1 X141.733 Y92.619 E20.16491
G1 X132.614 Y92.619 E20.78146
G1 X132.366 Y92.659 E20.79844
G1 X132.054 Y92.851 E20.82321
G1 X131.84 Y93.065 E20.84367
G1 X131.693 Y93.268 E20.86062
G1 X131.608 Y93.625 E20.88543
G1 X131.608 Y102.856 E21.50955
G1 X131.028 Y102.805 E21.54891
G1 X129.478 Y102.39 E21.6574
G1 X128.025 Y101.713 E21.76578
G1 X126.707 Y100.789 E21.87461
G1 X125.577 Y99.661 E21.98256
G1 X124.653 Y98.341 E22.0915
G1 X123.976 Y96.888 E22.19988
G1 X123.561 Y95.338 E22.30837
G1 X123.42 Y93.74 E22.41683
G1 X123.561 Y92.142 E22.52529
G1 X123.976 Y90.592 E22.63378
G1 X124.653 Y89.139 E22.74216
G1 X125.577 Y87.819 E22.8511
G0 F6000 X125.168 Y87.482
G1 F1200 X126.37 Y86.282 E22.96594
G1 X127.759 Y85.308 E23.08064
G1 X129.295 Y84.592 E23.19522
G1 X130.936 Y84.153 E23.31007
G1 X132.626 Y84.004 E23.42477
G1 X134.316 Y84.153 E23.53948
G1 X135.957 Y84.592 E23.65433
G1 X137.497 Y85.31 E23.76921
G1 X138.881 Y86.28 E23.88348
G1 X140.086 Y87.485 E23.9987
G1 X141.056 Y88.869 E24.11297
G1 X141.774 Y90.408 E24.22779
G1 X142.213 Y92.05 E24.3427
G1 X142.31 Y93.147 E24.41716
G1 X132.614 Y93.147 E25.07272
G1 X132.427 Y93.224 E25.0864
G1 X132.213 Y93.438 E25.10686
G1 X132.136 Y93.625 E25.12053
G1 X132.136 Y103.433 E25.78366
G1 X130.936 Y103.327 E25.86511
G1 X129.295 Y102.888 E25.97996
G1 X127.759 Y102.172 E26.09454
G1 X126.37 Y101.198 E26.20924
G1 X125.168 Y99.998 E26.32408
G1 X124.194 Y98.607 E26.43889
G1 X123.478 Y97.071 E26.55347
G1 X123.039 Y95.43 E26.66832
G1 X122.89 Y93.74 E26.78303
G1 X123.039 Y92.05 E26.89773
G1 X123.478 Y90.408 E27.01265
G1 X124.194 Y88.873 E27.12717
G1 X125.168 Y87.482 E27.24198
G1 F1500 E22.24198
G1 F300 Z0.48
G0 F6000 X157.947 Y92.14 Z0.48
G1 F300 Z0.28
G1 F1500 E27.24198
G1 F1200 X158.386 Y90.499 E27.35683
G1 X159.102 Y88.963 E27.47141
G1 X160.076 Y87.572 E27.58622
G1 X161.278 Y86.372 E27.70106
G1 X162.667 Y85.398 E27.81576
G1 X164.203 Y84.682 E27.93034
G1 X165.844 Y84.243 E28.04519
G1 X167.534 Y84.094 E28.15989
G1 X169.224 Y84.243 E28.2746
G1 X170.865 Y84.682 E28.38945
G1 X172.405 Y85.4 E28.50433
G1 X173.789 Y86.37 E28.6186
G1 X174.994 Y87.575 E28.73382
G1 X175.964 Y88.959 E28.84809
G1 X176.682 Y90.499 E28.96297
G1 X177.121 Y92.14 E29.07782
G1 X177.27 Y93.83 E29.19253
G1 X177.121 Y95.52 E29.30723
G1 X176.682 Y97.161 E29.42208
G1 X175.966 Y98.697 E29.53666
G1 X174.992 Y100.086 E29.65136
G1 X173.792 Y101.288 E29.7662
G1 X172.401 Y102.262 E29.88101
G1 X170.865 Y102.978 E29.99559
G1 X169.224 Y103.417 E30.11044
G1 X167.864 Y103.537 E30.20275
G1 X167.864 Y93.625 E30.87291
G1 X167.787 Y93.438 E30.88659
G1 X167.573 Y93.224 E30.90705
G1 X167.386 Y93.147 E30.92072
G1 X157.858 Y93.147 E31.56492
G1 X157.947 Y92.14 E31.63327
G0 F6000 X158.435 Y92.619
G1 F1200 X158.469 Y92.232 E31.65954
G1 X158.884 Y90.682 E31.76802
G1 X159.561 Y89.229 E31.8764
G1 X160.485 Y87.909 E31.98534
G1 X161.615 Y86.781 E32.09329
G1 X162.933 Y85.857 E32.20212
G1 X164.386 Y85.18 E32.3105
G1 X165.936 Y84.765 E32.41899
G1 X167.534 Y84.624 E32.52745
G1 X169.132 Y84.765 E32.63592
G1 X170.682 Y85.18 E32.7444
G1 X172.139 Y85.859 E32.85309
G1 X173.452 Y86.779 E32.96148
G1 X174.585 Y87.912 E33.06982
G1 X175.505 Y89.225 E33.17821
G1 X176.184 Y90.682 E33.2869
G1 X176.599 Y92.232 E33.39538
G1 X176.74 Y93.83 E33.50385
G1 X176.599 Y95.428 E33.61231
G1 X176.184 Y96.978 E33.7208
G1 X175.507 Y98.431 E33.82918
G1 X174.583 Y99.749 E33.93801
G1 X173.455 Y100.879 E34.04596
G1 X172.135 Y101.803 E34.1549
G1 X170.682 Y102.48 E34.26328
G1 X169.131 Y102.895 E34.37183
G1 X168.392 Y102.96 E34.42199
G1 X168.392 Y93.625 E35.05314
G1 X168.352 Y93.377 E35.07012
G1 X168.16 Y93.065 E35.09489
G1 X167.946 Y92.851 E35.11535
G1 X167.743 Y92.704 E35.1323
G1 X167.386 Y92.619 E35.15711
G1 X158.435 Y92.619 E35.7623
G0 F6000 X159.053 Y92.091
G1 F1200 X159.382 Y90.861 E35.84838
G1 X160.017 Y89.499 E35.94999
G1 X160.892 Y88.249 E36.05315
G1 X161.957 Y87.185 E36.15493
G1 X163.199 Y86.315 E36.25746
G1 X164.565 Y85.678 E36.35936
G1 X166.027 Y85.287 E36.46169
G1 X167.534 Y85.154 E36.56397
G1 X169.041 Y85.287 E36.66626
G1 X170.503 Y85.678 E36.76858
G1 X171.873 Y86.317 E36.87079
G1 X173.113 Y87.186 E36.97316
G1 X174.178 Y88.251 E37.07499
G1 X175.047 Y89.491 E37.17737
G1 X175.686 Y90.861 E37.27958
G1 X176.077 Y92.323 E37.3819
G1 X176.21 Y93.83 E37.48419
G1 X176.077 Y95.337 E37.58647
G1 X175.686 Y96.799 E37.68879
G1 X175.049 Y98.165 E37.7907
G1 X174.179 Y99.407 E37.89322
G1 X173.115 Y100.472 E37.99501
G1 X171.865 Y101.347 E38.09817
G1 X170.503 Y101.982 E38.19977
G1 X169.041 Y102.373 E38.3021
G1 X168.92 Y102.384 E38.31031
G1 X168.92 Y93.625 E38.90252
G1 X168.88 Y93.303 E38.92445
G1 X168.763 Y93.001 E38.94635
G1 X168.533 Y92.692 E38.9724
G1 X168.319 Y92.478 E38.99286
G1 X168.064 Y92.278 E39.01477
G1 X167.767 Y92.147 E39.03672
G1 X167.386 Y92.091 E39.06275
G1 X159.053 Y92.091 E39.62616
G0 F6000 X159.741 Y91.563
G1 F1200 X159.879 Y91.045 E39.6624
G1 X160.48 Y89.758 E39.75844
G1 X161.294 Y88.594 E39.85447
G1 X162.3 Y87.589 E39.95061
G1 X163.461 Y86.776 E40.04644
G1 X164.748 Y86.176 E40.14245
G1 X166.119 Y85.809 E40.23841
G1 X167.534 Y85.684 E40.33445
G1 X168.95 Y85.809 E40.43056
G1 X170.317 Y86.175 E40.52624
G1 X171.609 Y86.778 E40.62264
G1 X172.77 Y87.591 E40.71847
G1 X173.773 Y88.594 E40.81437
G1 X174.586 Y89.755 E40.9102
G1 X175.189 Y91.047 E41.0066
G1 X175.555 Y92.414 E41.10228
G1 X175.68 Y93.83 E41.19839
G1 X175.555 Y95.245 E41.29443
G1 X175.188 Y96.616 E41.39039
G1 X174.588 Y97.903 E41.4864
G1 X173.775 Y99.064 E41.58223
G1 X172.77 Y100.07 E41.67837
G1 X171.606 Y100.884 E41.7744
G1 X170.319 Y101.485 E41.87044
G1 X169.448 Y101.718 E41.9314
G1 X169.448 Y93.625 E42.47858
G1 X169.408 Y93.243 E42.50455
G1 X169.29 Y92.878 E42.53048
G1 X169.099 Y92.545 E42.55644
G1 X168.907 Y92.318 E42.57654
G1 X168.693 Y92.104 E42.597
G1 X168.394 Y91.862 E42.62301
G1 X168.053 Y91.687 E42.64892
G1 X167.682 Y91.587 E42.6749
G1 X167.386 Y91.563 E42.69498
G1 X159.741 Y91.563 E43.21187
G0 F6000 X160.466 Y91.035
G1 F1200 X160.937 Y90.026 E43.28715
G1 X161.704 Y88.931 E43.37754
G1 X162.637 Y87.999 E43.46671
G1 X163.729 Y87.234 E43.55685
G1 X164.929 Y86.674 E43.64638
G1 X166.21 Y86.331 E43.73605
G1 X167.534 Y86.214 E43.82591
G1 X168.858 Y86.331 E43.91578
G1 X170.139 Y86.674 E44.00544
G1 X171.343 Y87.236 E44.09527
G1 X172.43 Y87.997 E44.18499
G1 X173.367 Y88.934 E44.27458
G1 X174.128 Y90.021 E44.36429
G1 X174.69 Y91.225 E44.45413
G1 X175.033 Y92.506 E44.54379
G1 X175.15 Y93.83 E44.63366
G1 X175.033 Y95.154 E44.72352
G1 X174.69 Y96.435 E44.81318
G1 X174.13 Y97.635 E44.90272
G1 X173.365 Y98.727 E44.99286
G1 X172.433 Y99.66 E45.08203
G1 X171.338 Y100.427 E45.17242
G1 X170.139 Y100.986 E45.26186
G1 X169.976 Y101.03 E45.27327
G1 X169.976 Y93.625 E45.77393
G1 X169.936 Y93.191 E45.8034
G1 X169.818 Y92.772 E45.83283
G1 X169.625 Y92.382 E45.86225
G1 X169.28 Y91.945 E45.8999
G1 X169.066 Y91.731 E45.92036
G1 X168.731 Y91.452 E45.94984
G1 X168.351 Y91.24 E45.97926
G1 X167.939 Y91.1 E46.00868
G1 X167.386 Y91.035 E46.04632
G1 X160.466 Y91.035 E46.51419
G0 F6000 X161.296 Y90.507
G1 F1200 X161.398 Y90.287 E46.53059
G1 X162.108 Y89.274 E46.61423
G1 X162.979 Y88.403 E46.69751
G1 X163.991 Y87.695 E46.78101
G1 X165.113 Y87.171 E46.86474
G1 X166.301 Y86.853 E46.94789
G1 X167.534 Y86.744 E47.03158
G1 X168.767 Y86.853 E47.11527
G1 X169.96 Y87.172 E47.19876
G1 X171.073 Y87.692 E47.28182
G1 X172.093 Y88.406 E47.366
G1 X172.958 Y89.271 E47.44871
G1 X173.672 Y90.291 E47.53289
G1 X174.192 Y91.404 E47.61595
G1 X174.511 Y92.597 E47.69944
G1 X174.62 Y93.83 E47.78313
G1 X174.511 Y95.063 E47.86682
G1 X174.193 Y96.251 E47.94997
G1 X173.669 Y97.373 E48.0337
G1 X172.961 Y98.385 E48.1172
G1 X172.09 Y99.256 E48.20048
G1 X171.077 Y99.966 E48.28412
G1 X170.504 Y100.233 E48.32686
G1 X170.504 Y93.625 E48.77364
G1 X170.464 Y93.145 E48.8062
G1 X170.345 Y92.678 E48.83879
G1 X170.151 Y92.238 E48.8713
G1 X169.887 Y91.835 E48.90387
G1 X169.653 Y91.572 E48.92767
G1 X169.439 Y91.358 E48.94813
G1 X169.072 Y91.046 E48.9807
G1 X168.658 Y90.8 E49.01326
G1 X168.209 Y90.626 E49.04582
G1 X167.737 Y90.528 E49.07841
G1 X167.386 Y90.507 E49.10219
G1 X161.296 Y90.507 E49.51394
G0 F6000 X162.258 Y89.979
G1 F1200 X162.512 Y89.616 E49.54389
G1 X163.319 Y88.811 E49.62096
G1 X164.261 Y88.15 E49.69877
G1 X165.291 Y87.67 E49.7756
G1 X166.393 Y87.375 E49.85273
G1 X167.534 Y87.275 E49.93017
G1 X168.67 Y87.375 E50.00727
G1 X169.778 Y87.671 E50.08481
G1 X170.813 Y88.154 E50.16203
G1 X171.747 Y88.808 E50.23912
G1 X172.556 Y89.617 E50.31648
G1 X173.21 Y90.551 E50.39357
G1 X173.693 Y91.586 E50.47079
G1 X173.989 Y92.694 E50.54833
G1 X174.089 Y93.83 E50.62544
