;FLAVOR:Marlin
;TIME:29499
;Filament used: 18.1295m
;Layer height: 0.16
;MINX:119.837
;MINY:106.737
;MINZ:0.28
;MAXX:253.564
;MAXY:193.718
;MAXZ:59.28
;Generated with Cura_SteamEngine 4.13.1
M140 S90
M105
M190 S90
M104 S220
M105
M109 S220
M82 ;absolute extrusion mode
G28 ; home all axes
 M117 Purge extruder
 G92 E0 ; reset extruder
 G1 Z1.0 F3000 ; move z up little to prevent scratching of surface
 G1 X2 Y20 Z0.3 F5000.0 ; move to start-line position
 G1 X2 Y200.0 Z0.3 F1500.0 E15 ; draw 1st line
 G1 X2 Y200.0 Z0.4 F5000.0 ; move to side a little
 G1 X2 Y20 Z0.4 F1500.0 E30 ; draw 2nd line
 G92 E0 ; reset extruder
 G1 Z1.0 F3000 ; move z up little to prevent scratching of surface
G92 E0
G92 E0
G1 F1500 E-5
;LAYER_COUNT:335
;LAYER:0
M107
G1 F300 Z0.48
G0 F6000 X222.664 Y113.519 Z0.48
;TYPE:SKIRT
G1 F300 Z0.28
G1 F1500 E0
G1 F1200 X222.903 Y113.346 E0.02176
G1 X223.257 Y113.125 E0.05254
G1 X223.635 Y112.924 E0.08412
G1 X224.032 Y112.746 E0.11621
G1 X224.402 Y112.612 E0.14523
G1 X224.824 Y112.491 E0.17761
G1 X225.213 Y112.408 E0.20695
G1 X225.657 Y112.346 E0.24002
G1 X226.068 Y112.317 E0.27041
G1 X226.488 Y112.317 E0.30139
G1 X226.898 Y112.346 E0.3317
G1 X227.328 Y112.406 E0.36373
G1 X227.736 Y112.493 E0.3945
G1 X228.164 Y112.616 E0.42734
G1 X228.524 Y112.746 E0.45557
G1 X228.921 Y112.924 E0.48766
G1 X229.306 Y113.128 E0.5198
G1 X229.645 Y113.34 E0.54929
G1 X229.891 Y113.519 E0.57173
G1 X222.664 Y113.519 E1.10478
G0 F6000 X222.242 Y113.173
G1 F1200 X222.605 Y112.909 E1.13788
G1 X222.999 Y112.663 E1.17214
G1 X223.395 Y112.452 E1.20524
G1 X223.827 Y112.259 E1.24014
G1 X224.238 Y112.11 E1.27238
G1 X224.696 Y111.978 E1.30754
G1 X225.128 Y111.887 E1.3401
G1 X225.606 Y111.82 E1.3757
G1 X226.044 Y111.789 E1.40809
G1 X226.511 Y111.789 E1.44253
G1 X226.95 Y111.82 E1.47499
G1 X227.427 Y111.887 E1.51052
G1 X227.864 Y111.98 E1.54347
G1 X228.315 Y112.109 E1.57807
G1 X228.729 Y112.259 E1.61055
G1 X229.161 Y112.452 E1.64545
G1 X229.565 Y112.667 E1.6792
G1 X229.949 Y112.907 E1.7126
G1 X230.315 Y113.173 E1.74598
G1 X230.668 Y113.47 E1.78
G1 X231.006 Y113.797 E1.81469
G1 X231.232 Y114.047 E1.83955
G1 X221.322 Y114.047 E2.57049
G1 X221.546 Y113.798 E2.59519
G1 X221.88 Y113.476 E2.62941
G1 X222.242 Y113.173 E2.66423
G0 F6000 X221.904 Y112.766
G1 F1200 X222.317 Y112.466 E2.70188
G1 X222.729 Y112.209 E2.73769
G1 X223.162 Y111.978 E2.77389
G1 X223.628 Y111.77 E2.81153
G1 X224.074 Y111.609 E2.8465
G1 X224.578 Y111.463 E2.88521
G1 X225.033 Y111.367 E2.9195
G1 X225.539 Y111.296 E2.95719
G1 X226.035 Y111.261 E2.99387
G1 X226.521 Y111.261 E3.02971
G1 X227.016 Y111.296 E3.06631
G1 X227.508 Y111.365 E3.10296
G1 X227.995 Y111.468 E3.13967
G1 X228.479 Y111.607 E3.17681
G1 X228.928 Y111.77 E3.21205
G1 X229.394 Y111.978 E3.24969
G1 X229.816 Y112.203 E3.28496
G1 X230.249 Y112.473 E3.3226
G1 X230.637 Y112.754 E3.35793
G1 X231.026 Y113.081 E3.39541
G1 X231.386 Y113.429 E3.43234
G1 X231.716 Y113.795 E3.46869
G1 X232.007 Y114.167 E3.50353
G1 X232.283 Y114.575 E3.53986
G1 X220.272 Y114.575 E4.42576
G1 X220.535 Y114.186 E4.4604
G1 X220.843 Y113.791 E4.49734
G1 X221.175 Y113.423 E4.5339
G1 X221.532 Y113.079 E4.57046
G1 X221.904 Y112.766 E4.60632
G0 F6000 X221.574 Y112.353
G1 F1200 X222.024 Y112.027 E4.64731
G1 X222.467 Y111.75 E4.68584
G1 X222.929 Y111.505 E4.72442
G1 X223.44 Y111.276 E4.76572
G1 X223.91 Y111.106 E4.80258
G1 X224.45 Y110.95 E4.84404
G1 X224.936 Y110.847 E4.88068
G1 X225.485 Y110.77 E4.92157
G1 X226.012 Y110.733 E4.96054
G1 X226.544 Y110.733 E4.99978
G1 X227.07 Y110.77 E5.03867
G1 X227.602 Y110.845 E5.0783
G1 X228.126 Y110.956 E5.1178
G1 X228.643 Y111.104 E5.15747
G1 X229.116 Y111.276 E5.19459
G1 X229.627 Y111.505 E5.23589
G1 X230.086 Y111.748 E5.2742
G1 X230.541 Y112.032 E5.31376
G1 X230.975 Y112.348 E5.35335
G1 X231.373 Y112.682 E5.39168
G1 X231.765 Y113.062 E5.43195
G1 X232.116 Y113.451 E5.47059
G1 X232.447 Y113.874 E5.51021
G1 X232.741 Y114.309 E5.54893
G1 X233.006 Y114.769 E5.58809
G1 X233.169 Y115.103 E5.6155
G1 X219.386 Y115.103 E6.6321
G1 X219.544 Y114.778 E6.65876
G1 X219.809 Y114.32 E6.69778
G1 X220.113 Y113.868 E6.73796
G1 X220.447 Y113.44 E6.778
G1 X220.782 Y113.068 E6.81493
G1 X221.184 Y112.682 E6.85603
G1 X221.574 Y112.353 E6.89367
G0 F6000 X221.261 Y111.927
G1 F1200 X221.729 Y111.588 E6.93629
G1 X222.197 Y111.296 E6.97698
G1 X222.713 Y111.022 E7.02007
G1 X223.224 Y110.794 E7.06134
G1 X223.75 Y110.602 E7.10264
G1 X224.316 Y110.439 E7.14609
G1 X224.854 Y110.325 E7.18665
G1 X225.433 Y110.244 E7.22977
G1 X225.989 Y110.205 E7.27088
G1 X226.567 Y110.205 E7.31351
G1 X227.122 Y110.244 E7.35455
G1 X227.687 Y110.323 E7.39663
G1 X228.253 Y110.444 E7.43932
G1 X228.806 Y110.603 E7.48176
G1 X229.332 Y110.794 E7.52303
G1 X229.843 Y111.022 E7.5643
G1 X230.355 Y111.294 E7.60707
G1 X230.836 Y111.594 E7.64888
G1 X231.298 Y111.93 E7.69101
G1 X231.729 Y112.292 E7.73253
G1 X232.144 Y112.694 E7.77514
G1 X232.524 Y113.114 E7.81692
G1 X232.864 Y113.548 E7.85758
G1 X233.196 Y114.04 E7.90136
G1 X233.476 Y114.527 E7.9428
G1 X233.722 Y115.031 E7.98416
G1 X233.94 Y115.568 E8.02691
G1 X233.96 Y115.631 E8.03178
G1 X218.597 Y115.631 E9.16492
G1 X218.622 Y115.554 E9.17089
G1 X218.833 Y115.032 E9.21242
G1 X219.075 Y114.535 E9.25319
G1 X219.363 Y114.036 E9.29569
G1 X219.691 Y113.55 E9.33894
G1 X220.032 Y113.113 E9.37982
G1 X220.41 Y112.693 E9.4215
G1 X220.82 Y112.298 E9.46349
G1 X221.261 Y111.927 E9.506
G0 F6000 X220.938 Y111.509
G1 F1200 X221.421 Y111.158 E9.55003
G1 X221.938 Y110.836 E9.59496
G1 X222.486 Y110.545 E9.64072
G1 X223.028 Y110.303 E9.6845
G1 X223.594 Y110.097 E9.72893
G1 X224.185 Y109.927 E9.77429
G1 X224.759 Y109.806 E9.81755
G1 X225.368 Y109.72 E9.86292
G1 X225.98 Y109.677 E9.90817
G1 X226.576 Y109.677 E9.95213
G1 X227.187 Y109.72 E9.99731
G1 X227.782 Y109.804 E10.04163
G1 X228.371 Y109.928 E10.08602
G1 X228.975 Y110.102 E10.13238
G1 X229.528 Y110.303 E10.17578
G1 X230.07 Y110.545 E10.21956
G1 X230.618 Y110.836 E10.26533
G1 X231.129 Y111.155 E10.30976
G1 X231.62 Y111.511 E10.35449
G1 X232.092 Y111.908 E10.39998
G1 X232.523 Y112.325 E10.44422
G1 X232.925 Y112.771 E10.4885
G1 X233.292 Y113.24 E10.53243
G1 X233.64 Y113.755 E10.57827
G1 X233.939 Y114.273 E10.62239
G1 X234.208 Y114.825 E10.66768
G1 X234.434 Y115.382 E10.71201
G1 X234.62 Y115.959 E10.75673
G1 X234.67 Y116.159 E10.77193
G1 X217.884 Y116.159 E12.01003
G1 X217.93 Y115.976 E12.02395
G1 X218.124 Y115.376 E12.07046
G1 X218.349 Y114.821 E12.11463
G1 X218.612 Y114.281 E12.15893
G1 X218.921 Y113.745 E12.20456
G1 X219.252 Y113.256 E12.24812
G1 X219.636 Y112.763 E12.29421
G1 X220.03 Y112.325 E12.33766
G1 X220.464 Y111.908 E12.38205
G1 X220.938 Y111.509 E12.42775
G0 F6000 X220.6 Y111.102
G1 F1200 X221.127 Y110.72 E12.47576
G1 X221.681 Y110.374 E12.52394
G1 X222.241 Y110.076 E12.57073
G1 X222.841 Y109.808 E12.61919
G1 X223.417 Y109.599 E12.66439
G1 X224.057 Y109.415 E12.71351
G1 X224.674 Y109.284 E12.76003
G1 X225.316 Y109.194 E12.80784
G1 X225.957 Y109.149 E12.85524
G1 X226.599 Y109.149 E12.90259
G1 X227.239 Y109.194 E12.94991
G1 X227.867 Y109.282 E12.99669
G1 X228.512 Y109.419 E13.04532
G1 X229.139 Y109.599 E13.09343
G1 X229.715 Y109.808 E13.13863
G1 X230.315 Y110.076 E13.1871
G1 X230.882 Y110.378 E13.23448
G1 X231.417 Y110.712 E13.281
G1 X231.958 Y111.105 E13.33032
G1 X232.433 Y111.504 E13.37608
G1 X232.903 Y111.958 E13.42427
G1 X233.331 Y112.433 E13.47143
G1 X233.727 Y112.939 E13.51882
G1 X234.09 Y113.476 E13.56663
G1 X234.403 Y114.02 E13.61292
G1 X234.686 Y114.601 E13.66059
G1 X234.929 Y115.198 E13.70813
G1 X235.126 Y115.808 E13.75541
G1 X235.284 Y116.442 E13.8036
G1 X235.328 Y116.687 E13.82196
G1 X217.227 Y116.687 E15.15705
G1 X217.273 Y116.426 E15.1766
G1 X217.425 Y115.819 E15.22275
G1 X217.626 Y115.198 E15.2709
G1 X217.864 Y114.61 E15.31768
G1 X218.143 Y114.038 E15.36462
G1 X218.47 Y113.472 E15.41284
G1 X218.83 Y112.938 E15.46034
G1 X219.227 Y112.428 E15.50801
G1 X219.651 Y111.958 E15.5547
G1 X220.124 Y111.503 E15.6031
G1 X220.6 Y111.102 E15.64901
G0 F6000 X220.278 Y110.684
G1 F1200 X220.845 Y110.273 E15.70066
G1 X221.412 Y109.919 E15.74997
G1 X222.008 Y109.602 E15.79976
G1 X222.641 Y109.319 E15.8509
G1 X223.251 Y109.098 E15.89875
G1 X223.94 Y108.9 E15.95163
G1 X224.578 Y108.764 E15.99974
G1 X225.264 Y108.668 E16.05083
G1 X225.934 Y108.621 E16.10037
G1 X226.622 Y108.621 E16.15112
G1 X227.291 Y108.668 E16.20058
G1 X227.963 Y108.762 E16.25063
G1 X228.629 Y108.904 E16.30086
G1 X229.305 Y109.098 E16.35273
G1 X229.915 Y109.319 E16.40058
G1 X230.548 Y109.602 E16.45173
G1 X231.144 Y109.919 E16.50152
G1 X231.718 Y110.278 E16.55145
G1 X232.274 Y110.681 E16.6021
G1 X232.787 Y111.112 E16.65152
G1 X233.291 Y111.6 E16.70327
G1 X233.733 Y112.09 E16.75194
G1 X234.149 Y112.621 E16.80169
G1 X234.537 Y113.196 E16.85285
G1 X234.877 Y113.786 E16.90308
G1 X235.166 Y114.379 E16.95174
G1 X235.431 Y115.032 E17.00371
G1 X235.634 Y115.659 E17.05232
G1 X235.799 Y116.321 E17.10265
G1 X235.919 Y116.99 E17.15278
G1 X235.943 Y117.215 E17.16947
G1 X216.614 Y117.215 E18.59513
G1 X216.637 Y116.99 E18.61181
G1 X216.756 Y116.318 E18.66215
G1 X216.917 Y115.673 E18.71118
G1 X217.128 Y115.023 E18.76159
G1 X217.387 Y114.383 E18.81251
G1 X217.672 Y113.798 E18.86051
G1 X218.024 Y113.188 E18.91245
G1 X218.407 Y112.621 E18.96292
G1 X218.816 Y112.096 E19.01201
G1 X219.274 Y111.587 E19.06251
G1 X219.76 Y111.119 E19.11227
G1 X220.278 Y110.684 E19.16216
G1 F1500 E14.16216
G1 F300 Z0.48
G0 F6000 X189.748 Y115.835 Z0.48
G1 F300 Z0.28
G1 F1500 E19.16216
G1 F1200 X189.772 Y116.51 E19.21198
G1 X189.748 Y117.186 E19.26187
G1 X189.745 Y117.215 E19.26402
G1 X170.328 Y117.216 E20.69618
G1 X170.325 Y117.188 E20.69825
G1 X170.301 Y116.51 E20.74829
G1 X170.325 Y115.833 E20.79826
G1 X170.396 Y115.15 E20.84891
G1 X170.515 Y114.479 E20.89917
G1 X170.677 Y113.83 E20.94851
G1 X170.885 Y113.188 E20.99828
G1 X171.148 Y112.539 E21.04993
G1 X171.439 Y111.941 E21.09899
G1 X171.776 Y111.358 E21.14865
G1 X172.152 Y110.799 E21.19834
G1 X172.591 Y110.238 E21.25088
G1 X173.023 Y109.756 E21.29862
G1 X173.519 Y109.277 E21.34948
G1 X174.046 Y108.836 E21.40017
G1 X174.591 Y108.439 E21.4499
G1 X175.163 Y108.082 E21.49963
G1 X175.77 Y107.76 E21.55031
G1 X176.394 Y107.481 E21.60073
G1 X177.009 Y107.258 E21.64898
G1 X177.698 Y107.061 E21.70183
G1 X178.342 Y106.923 E21.75041
G1 X179.02 Y106.829 E21.8009
G1 X179.692 Y106.781 E21.85059
G1 X180.38 Y106.781 E21.90134
G1 X181.053 Y106.829 E21.9511
G1 X181.731 Y106.923 E22.00159
G1 X182.385 Y107.063 E22.05092
G1 X183.05 Y107.253 E22.10193
G1 X183.684 Y107.484 E22.1517
G1 X184.302 Y107.759 E22.20159
G1 X184.902 Y108.079 E22.25175
G1 X185.469 Y108.431 E22.30097
G1 X186.044 Y108.849 E22.3534
G1 X186.543 Y109.267 E22.40141
G1 X187.05 Y109.758 E22.45347
G1 X187.496 Y110.254 E22.50267
G1 X187.908 Y110.782 E22.55207
G1 X188.287 Y111.343 E22.602
G1 X188.643 Y111.959 E22.65448
G1 X188.927 Y112.54 E22.70218
G1 X189.185 Y113.18 E22.75307
G1 X189.396 Y113.83 E22.80348
G1 X189.559 Y114.482 E22.85305
G1 X189.677 Y115.15 E22.90308
G1 X189.748 Y115.835 E22.95388
G0 F6000 X189.221 Y115.874
G1 F1200 X189.244 Y116.51 E23.00082
G1 X189.238 Y116.687 E23.01388
G1 X170.836 Y116.688 E24.37117
G1 X170.83 Y116.51 E24.38431
G1 X170.854 Y115.846 E24.43331
G1 X170.918 Y115.231 E24.47892
G1 X171.034 Y114.578 E24.52784
G1 X171.179 Y113.996 E24.57208
G1 X171.388 Y113.351 E24.62208
G1 X171.628 Y112.76 E24.66913
G1 X171.905 Y112.19 E24.71588
G1 X172.228 Y111.632 E24.76343
G1 X172.583 Y111.105 E24.8103
G1 X172.995 Y110.579 E24.85958
G1 X173.407 Y110.12 E24.90507
G1 X173.874 Y109.668 E24.95301
G1 X174.372 Y109.252 E25.00087
G1 X174.891 Y108.874 E25.04822
G1 X175.425 Y108.541 E25.09464
G1 X176.003 Y108.234 E25.14291
G1 X176.593 Y107.97 E25.19059
G1 X177.179 Y107.758 E25.23655
G1 X177.808 Y107.578 E25.28481
G1 X178.441 Y107.442 E25.33256
G1 X179.072 Y107.355 E25.37954
G1 X179.715 Y107.309 E25.42709
G1 X180.357 Y107.309 E25.47444
G1 X181.001 Y107.355 E25.52206
G1 X181.632 Y107.442 E25.56905
G1 X182.275 Y107.58 E25.61755
G1 X182.878 Y107.752 E25.6638
G1 X183.482 Y107.973 E25.71124
G1 X184.069 Y108.233 E25.75859
G1 X184.639 Y108.538 E25.80628
G1 X185.179 Y108.873 E25.85315
G1 X185.722 Y109.268 E25.90267
G1 X186.191 Y109.661 E25.9478
G1 X186.66 Y110.115 E25.99595
G1 X187.092 Y110.595 E26.04358
G1 X187.486 Y111.099 E26.09076
G1 X187.838 Y111.621 E26.1372
G1 X188.169 Y112.194 E26.18601
G1 X188.448 Y112.765 E26.23288
G1 X188.688 Y113.359 E26.28014
G1 X188.888 Y113.976 E26.32798
G1 X189.043 Y114.597 E26.37519
G1 X189.154 Y115.228 E26.42244
G1 X189.221 Y115.874 E26.47034
G0 F6000 X188.694 Y115.902
G1 F1200 X188.703 Y116.159 E26.48931
G1 X171.37 Y116.16 E27.76775
G1 X171.379 Y115.901 E27.78687
G1 X171.441 Y115.306 E27.83099
G1 X171.547 Y114.706 E27.87593
G1 X171.692 Y114.124 E27.92017
G1 X171.882 Y113.537 E27.96568
G1 X172.109 Y112.978 E28.01018
G1 X172.371 Y112.44 E28.05432
G1 X172.678 Y111.91 E28.09949
G1 X173.012 Y111.414 E28.1436
G1 X173.397 Y110.921 E28.18973
G1 X173.799 Y110.474 E28.23407
G1 X174.221 Y110.067 E28.27732
G1 X174.696 Y109.669 E28.32303
G1 X175.186 Y109.312 E28.36774
G1 X175.689 Y108.999 E28.41144
G1 X176.23 Y108.711 E28.45664
G1 X176.793 Y108.46 E28.50211
G1 X177.342 Y108.261 E28.54518
G1 X177.947 Y108.088 E28.59159
G1 X178.529 Y107.963 E28.6355
G1 X179.124 Y107.881 E28.6798
G1 X179.738 Y107.837 E28.7252
G1 X180.334 Y107.837 E28.76916
G1 X180.949 Y107.881 E28.81464
G1 X181.547 Y107.964 E28.85917
G1 X182.133 Y108.089 E28.90336
G1 X182.722 Y108.258 E28.94856
G1 X183.28 Y108.461 E28.99235
G1 X183.848 Y108.713 E29.03819
G1 X184.372 Y108.993 E29.08201
G1 X184.885 Y109.312 E29.12656
G1 X185.392 Y109.68 E29.17277
G1 X185.843 Y110.058 E29.21618
G1 X186.281 Y110.482 E29.26114
G1 X186.684 Y110.93 E29.30558
G1 X187.052 Y111.402 E29.34973
G1 X187.397 Y111.911 E29.39508
G1 X187.707 Y112.448 E29.44082
G1 X187.965 Y112.976 E29.48416
G1 X188.19 Y113.536 E29.52867
G1 X188.377 Y114.109 E29.57313
G1 X188.528 Y114.716 E29.61927
G1 X188.632 Y115.306 E29.66345
G1 X188.694 Y115.902 E29.70765
G0 F6000 X188.135 Y115.631
G1 F1200 X171.938 Y115.632 E30.9023
G1 X171.964 Y115.382 E30.92084
G1 X172.065 Y114.812 E30.96354
G1 X172.2 Y114.27 E31.00474
G1 X172.376 Y113.727 E31.04684
G1 X172.594 Y113.189 E31.08965
G1 X172.84 Y112.683 E31.13115
G1 X173.123 Y112.194 E31.17283
G1 X173.442 Y111.72 E31.21497
G1 X173.799 Y111.264 E31.25768
G1 X174.174 Y110.847 E31.29905
G1 X174.582 Y110.452 E31.34093
G1 X175.012 Y110.093 E31.38225
G1 X175.488 Y109.746 E31.42569
G1 X175.952 Y109.457 E31.46601
G1 X176.463 Y109.185 E31.50871
G1 X176.988 Y108.951 E31.55111
G1 X177.501 Y108.765 E31.59135
G1 X178.085 Y108.598 E31.63615
G1 X178.614 Y108.485 E31.67605
G1 X179.189 Y108.405 E31.71887
G1 X179.747 Y108.365 E31.76013
G1 X180.325 Y108.365 E31.80277
G1 X180.884 Y108.405 E31.8441
G1 X181.459 Y108.485 E31.88692
G1 X182.012 Y108.603 E31.92863
G1 X182.55 Y108.757 E31.9699
G1 X183.086 Y108.952 E32.01197
G1 X183.609 Y109.184 E32.05417
G1 X184.111 Y109.453 E32.09618
G1 X184.588 Y109.749 E32.13759
G1 X185.068 Y110.098 E32.18136
G1 X185.481 Y110.444 E32.2211
G1 X185.907 Y110.857 E32.26486
G1 X186.283 Y111.274 E32.30627
G1 X186.631 Y111.72 E32.348
G1 X186.944 Y112.183 E32.38922
G1 X187.241 Y112.697 E32.43301
G1 X187.48 Y113.186 E32.47315
G1 X187.69 Y113.708 E32.51465
G1 X187.872 Y114.269 E32.55815
G1 X188.01 Y114.821 E32.60012
G1 X188.109 Y115.382 E32.64214
G1 X188.135 Y115.631 E32.6606
G0 F6000 X187.524 Y115.103
G1 F1200 X172.549 Y115.104 E33.76512
G1 X172.582 Y114.917 E33.77913
G1 X172.705 Y114.426 E33.81646
G1 X172.876 Y113.896 E33.85754
G1 X173.073 Y113.412 E33.89608
G1 X173.306 Y112.932 E33.93544
G1 X173.576 Y112.466 E33.97516
G1 X173.871 Y112.029 E34.01405
G1 X174.204 Y111.603 E34.05393
G1 X174.547 Y111.22 E34.09185
G1 X174.937 Y110.844 E34.13181
G1 X175.336 Y110.51 E34.17019
G1 X175.783 Y110.185 E34.21095
G1 X176.221 Y109.912 E34.24902
G1 X176.696 Y109.659 E34.28871
G1 X177.187 Y109.44 E34.32837
G1 X177.668 Y109.266 E34.36609
G1 X178.195 Y109.115 E34.40653
G1 X178.712 Y109.004 E34.44553
G1 X179.241 Y108.931 E34.48492
G1 X179.77 Y108.893 E34.52404
G1 X180.302 Y108.893 E34.56328
