;FLAVOR:Marlin
;TIME:18199
;Filament used: 12.9869m
;Layer height: 0.16
;MINX:59.802
;MINY:134.577
;MINZ:0.28
;MAXX:194.116
;MAXY:232.618
;MAXZ:19.96
;Generated with Cura_SteamEngine 4.13.1
M140 S90
M105
M190 S90
M104 S220
M105
M109 S220
M82 ;absolute extrusion mode
G28 ; home all axes
 M117 Purge extruder
 G92 E0 ; reset extruder
 G1 Z1.0 F3000 ; move z up little to prevent scratching of surface
 G1 X2 Y20 Z0.3 F5000.0 ; move to start-line position
 G1 X2 Y200.0 Z0.3 F1500.0 E15 ; draw 1st line
 G1 X2 Y200.0 Z0.4 F5000.0 ; move to side a little
 G1 X2 Y20 Z0.4 F1500.0 E30 ; draw 2nd line
 G92 E0 ; reset extruder
 G1 Z1.0 F3000 ; move z up little to prevent scratching of surface
G92 E0
G92 E0
G1 F1500 E-5
;LAYER_COUNT:103
;LAYER:0
M107
G1 F300 Z0.48
G0 F6000 X68.209 Y138.922 Z0.48
;TYPE:SKIRT
G1 F300 Z0.28
G1 F1500 E0
G1 F1200 X68.598 Y138.748 E0.03143
G1 X68.988 Y138.606 E0.06204
G1 X69.404 Y138.487 E0.09396
G1 X69.812 Y138.4 E0.12473
G1 X70.242 Y138.34 E0.15675
G1 X70.652 Y138.311 E0.18707
G1 X71.072 Y138.311 E0.21805
G1 X71.483 Y138.34 E0.24843
G1 X71.913 Y138.4 E0.28046
G1 X72.321 Y138.487 E0.31123
G1 X72.732 Y138.605 E0.34277
G1 X73.126 Y138.748 E0.37368
G1 X73.5 Y138.915 E0.40389
G1 X73.883 Y139.119 E0.4359
G1 X74.237 Y139.34 E0.46668
G1 X74.583 Y139.591 E0.49821
G1 X74.9 Y139.857 E0.52873
G1 X75.206 Y140.153 E0.56013
G1 X75.412 Y140.381 E0.5828
G1 X69.647 Y140.381 E1.00801
G1 X69.086 Y140.421 E1.04949
G1 X68.536 Y140.54 E1.091
G1 X68.009 Y140.736 E1.13247
G1 X67.515 Y141.004 E1.17392
G1 X67.063 Y141.34 E1.21546
G1 X66.847 Y141.541 E1.23722
G1 X66.718 Y141.67 E1.25068
G1 X66.349 Y142.095 E1.29219
G1 X66.045 Y142.568 E1.33367
G1 X65.81 Y143.079 E1.37515
G1 X65.651 Y143.618 E1.4166
G1 X65.569 Y144.175 E1.45813
G1 X65.558 Y144.47 E1.4799
G1 X65.558 Y147.225 E1.6831
G1 X65.524 Y147.166 E1.68812
G1 X65.348 Y146.804 E1.71781
G1 X65.192 Y146.418 E1.74852
G1 X65.052 Y145.984 E1.78216
G1 X64.958 Y145.606 E1.81088
G1 X64.883 Y145.183 E1.84257
G1 X64.841 Y144.779 E1.87253
G1 X64.826 Y144.341 E1.90485
G1 X64.841 Y143.915 E1.93629
G1 X64.886 Y143.491 E1.96774
G1 X64.955 Y143.097 E1.99725
G1 X65.06 Y142.676 E2.02925
G1 X65.189 Y142.277 E2.06018
G1 X65.343 Y141.898 E2.09035
G1 X65.528 Y141.517 E2.12159
G1 X65.747 Y141.139 E2.15381
G1 X65.979 Y140.794 E2.18448
G1 X66.236 Y140.466 E2.21521
G1 X66.513 Y140.159 E2.24571
G1 X66.828 Y139.854 E2.27805
G1 X67.139 Y139.592 E2.30804
G1 X67.491 Y139.337 E2.3401
G1 X67.854 Y139.11 E2.37168
G1 X68.209 Y138.922 E2.40131
G0 F6000 X67.975 Y138.448
G1 F1200 X68.415 Y138.252 E2.43684
G1 X68.82 Y138.105 E2.46862
G1 X69.276 Y137.974 E2.50361
G1 X69.713 Y137.881 E2.53657
G1 X70.19 Y137.814 E2.57209
G1 X70.629 Y137.783 E2.60455
G1 X71.096 Y137.783 E2.639
G1 X71.534 Y137.814 E2.67139
G1 X72.012 Y137.881 E2.70699
G1 X72.449 Y137.974 E2.73994
G1 X72.896 Y138.103 E2.77425
G1 X73.319 Y138.256 E2.80743
G1 X73.74 Y138.444 E2.84144
G1 X74.141 Y138.657 E2.87493
G1 X74.535 Y138.903 E2.90919
G1 X74.905 Y139.172 E2.94293
G1 X75.256 Y139.466 E2.9767
G1 X75.585 Y139.784 E3.01045
G1 X75.895 Y140.129 E3.04466
G1 X76.176 Y140.487 E3.07823
G1 X76.432 Y140.867 E3.11202
G1 X76.456 Y140.909 E3.11559
G1 X69.647 Y140.909 E3.61781
G1 X69.125 Y140.949 E3.65642
G1 X68.615 Y141.068 E3.69505
G1 X68.129 Y141.263 E3.73367
G1 X67.679 Y141.53 E3.77227
G1 X67.22 Y141.914 E3.81641
G1 X67.091 Y142.043 E3.82986
G1 X66.75 Y142.441 E3.86852
G1 X66.474 Y142.885 E3.90708
G1 X66.268 Y143.367 E3.94574
G1 X66.138 Y143.874 E3.98435
G1 X66.086 Y144.47 E4.02847
G1 X66.086 Y148.848 E4.35138
G1 X65.835 Y148.568 E4.37912
G1 X65.545 Y148.197 E4.41385
G1 X65.3 Y147.833 E4.44621
G1 X65.061 Y147.421 E4.48134
G1 X64.869 Y147.027 E4.51367
G1 X64.69 Y146.584 E4.54891
G1 X64.552 Y146.156 E4.58208
G1 X64.44 Y145.712 E4.61586
G1 X64.361 Y145.26 E4.6497
G1 X64.314 Y144.808 E4.68322
G1 X64.297 Y144.341 E4.71769
G1 X64.314 Y143.871 E4.75237
G1 X64.36 Y143.429 E4.78515
G1 X64.437 Y142.995 E4.81766
G1 X64.552 Y142.532 E4.85285
G1 X64.695 Y142.09 E4.88711
G1 X64.862 Y141.68 E4.91977
G1 X65.062 Y141.267 E4.95361
G1 X65.297 Y140.862 E4.98815
G1 X65.55 Y140.486 E5.02158
G1 X65.834 Y140.123 E5.05557
G1 X66.134 Y139.791 E5.08857
G1 X66.472 Y139.464 E5.12326
G1 X66.825 Y139.167 E5.15729
G1 X67.181 Y138.908 E5.18976
G1 X67.591 Y138.652 E5.22541
G1 X67.975 Y138.448 E5.25748
G0 F6000 X67.766 Y137.962
G1 F1200 X68.198 Y137.769 E5.29238
G1 X68.656 Y137.603 E5.32831
G1 X69.145 Y137.462 E5.36585
G1 X69.632 Y137.359 E5.40256
G1 X70.124 Y137.29 E5.43921
G1 X70.619 Y137.255 E5.47581
G1 X71.105 Y137.255 E5.51166
G1 X71.601 Y137.29 E5.54833
G1 X72.093 Y137.359 E5.58497
G1 X72.584 Y137.463 E5.62199
G1 X73.056 Y137.599 E5.65822
G1 X73.518 Y137.767 E5.69448
G1 X73.973 Y137.97 E5.73123
G1 X74.411 Y138.203 E5.76782
G1 X74.823 Y138.46 E5.80364
G1 X75.234 Y138.759 E5.84113
G1 X75.604 Y139.069 E5.87673
G1 X75.964 Y139.417 E5.91366
G1 X76.303 Y139.793 E5.951
G1 X76.602 Y140.176 E5.98684
G1 X76.879 Y140.586 E6.02333
G1 X77.13 Y141.021 E6.06038
G1 X77.333 Y141.437 E6.09452
G1 X69.647 Y141.437 E6.66142
G1 X69.167 Y141.477 E6.69695
G1 X68.7 Y141.596 E6.73249
G1 X68.26 Y141.79 E6.76796
G1 X67.857 Y142.054 E6.80349
G1 X67.594 Y142.288 E6.82946
G1 X67.465 Y142.417 E6.84291
G1 X67.153 Y142.784 E6.87844
G1 X66.907 Y143.198 E6.91396
G1 X66.733 Y143.647 E6.94948
G1 X66.635 Y144.119 E6.98504
G1 X66.614 Y144.47 E7.01097
G1 X66.614 Y150.021 E7.4204
G1 X66.483 Y149.926 E7.43234
G1 X66.11 Y149.614 E7.4682
G1 X65.759 Y149.274 E7.50425
G1 X65.433 Y148.912 E7.54018
G1 X65.116 Y148.506 E7.57817
G1 X64.85 Y148.111 E7.61329
G1 X64.601 Y147.681 E7.64994
G1 X64.38 Y147.226 E7.68725
G1 X64.198 Y146.777 E7.72299
G1 X64.039 Y146.284 E7.76119
G1 X63.926 Y145.833 E7.79549
G1 X63.835 Y145.32 E7.83392
G1 X63.787 Y144.852 E7.86861
G1 X63.769 Y144.341 E7.90633
G1 X63.787 Y143.841 E7.94323
G1 X63.836 Y143.366 E7.97845
G1 X63.925 Y142.862 E8.0162
G1 X64.04 Y142.399 E8.05139
G1 X64.198 Y141.912 E8.08915
G1 X64.383 Y141.456 E8.12545
G1 X64.593 Y141.024 E8.16088
G1 X64.852 Y140.578 E8.19892
G1 X65.121 Y140.178 E8.23447
G1 X65.432 Y139.78 E8.27173
G1 X65.754 Y139.423 E8.30719
G1 X66.108 Y139.08 E8.34354
G1 X66.503 Y138.748 E8.3816
G1 X66.893 Y138.465 E8.41714
G1 X67.316 Y138.201 E8.45392
G1 X67.766 Y137.962 E8.4915
G0 F6000 X67.532 Y137.488
G1 F1200 X67.999 Y137.28 E8.52921
G1 X68.506 Y137.096 E8.56899
G1 X69.014 Y136.95 E8.60797
G1 X69.538 Y136.839 E8.64748
G1 X70.07 Y136.764 E8.68711
G1 X70.596 Y136.727 E8.726
G1 X71.128 Y136.727 E8.76524
G1 X71.655 Y136.764 E8.80421
G1 X72.187 Y136.839 E8.84383
G1 X72.702 Y136.948 E8.88266
G1 X73.22 Y137.098 E8.92244
G1 X73.717 Y137.278 E8.96142
G1 X74.206 Y137.496 E9.00091
G1 X74.673 Y137.744 E9.03991
G1 X75.116 Y138.021 E9.07845
G1 X75.565 Y138.347 E9.11938
G1 X75.967 Y138.684 E9.15807
G1 X76.336 Y139.041 E9.19594
G1 X76.705 Y139.45 E9.23657
G1 X77.028 Y139.864 E9.2753
G1 X77.327 Y140.306 E9.31465
G1 X77.6 Y140.778 E9.35487
G1 X77.821 Y141.232 E9.39211
G1 X78.028 Y141.746 E9.43299
G1 X78.099 Y141.965 E9.44997
G1 X69.647 Y141.965 E10.07337
G1 X69.213 Y142.005 E10.10551
G1 X68.794 Y142.123 E10.13762
G1 X68.404 Y142.316 E10.16971
G1 X67.967 Y142.661 E10.21078
G1 X67.838 Y142.79 E10.22424
G1 X67.559 Y143.125 E10.25639
G1 X67.347 Y143.505 E10.28849
G1 X67.207 Y143.917 E10.32058
G1 X67.142 Y144.47 E10.36165
G1 X67.142 Y150.995 E10.84292
G1 X67.047 Y150.944 E10.85087
G1 X66.609 Y150.671 E10.88894
G1 X66.162 Y150.346 E10.9297
G1 X65.763 Y150.012 E10.96808
G1 X65.373 Y149.636 E11.00804
G1 X65.032 Y149.255 E11.04575
G1 X64.694 Y148.823 E11.08621
G1 X64.398 Y148.384 E11.12526
G1 X64.132 Y147.924 E11.16445
G1 X63.899 Y147.444 E11.20381
G1 X63.702 Y146.96 E11.24235
G1 X63.531 Y146.43 E11.28343
G1 X63.408 Y145.939 E11.32076
G1 X63.313 Y145.398 E11.36127
G1 X63.26 Y144.895 E11.39858
G1 X63.241 Y144.341 E11.43947
G1 X63.26 Y143.798 E11.47954
G1 X63.314 Y143.288 E11.51737
G1 X63.407 Y142.76 E11.55691
G1 X63.537 Y142.237 E11.59666
G1 X63.701 Y141.73 E11.63596
G1 X63.891 Y141.262 E11.67322
G1 X64.133 Y140.764 E11.71406
G1 X64.398 Y140.308 E11.75296
G1 X64.702 Y139.856 E11.79313
G1 X65.019 Y139.451 E11.83107
G1 X65.375 Y139.056 E11.87029
G1 X65.767 Y138.676 E11.91056
G1 X66.165 Y138.342 E11.94888
G1 X66.603 Y138.024 E11.9888
G1 X67.054 Y137.743 E12.028
G1 X67.532 Y137.488 E12.06795
G0 F6000 X67.299 Y137.014
G1 F1200 X67.811 Y136.786 E12.10929
G1 X68.328 Y136.598 E12.14987
G1 X68.887 Y136.438 E12.19276
G1 X69.453 Y136.317 E12.23545
G1 X70.018 Y136.238 E12.27752
G1 X70.573 Y136.199 E12.31856
G1 X71.151 Y136.199 E12.36119
G1 X71.707 Y136.238 E12.4023
G1 X72.272 Y136.317 E12.44438
G1 X72.843 Y136.439 E12.48745
G1 X73.384 Y136.595 E12.52898
G1 X73.905 Y136.783 E12.56983
G1 X74.439 Y137.022 E12.61298
G1 X74.943 Y137.29 E12.65508
G1 X75.414 Y137.584 E12.69604
G1 X75.877 Y137.92 E12.73823
G1 X76.322 Y138.294 E12.7811
G1 X76.722 Y138.681 E12.82216
G1 X77.107 Y139.107 E12.86451
G1 X77.457 Y139.556 E12.9065
G1 X77.779 Y140.032 E12.94888
G1 X78.059 Y140.517 E12.99019
G1 X78.308 Y141.027 E13.03205
G1 X78.521 Y141.555 E13.07404
G1 X78.697 Y142.096 E13.11601
G1 X78.795 Y142.493 E13.14617
G1 X69.647 Y142.493 E13.8209
G1 X69.265 Y142.533 E13.84923
G1 X68.9 Y142.651 E13.87752
G1 X68.567 Y142.842 E13.90584
G1 X68.34 Y143.034 E13.92777
G1 X68.211 Y143.163 E13.94122
G1 X67.969 Y143.462 E13.9696
G1 X67.794 Y143.803 E13.99787
G1 X67.694 Y144.174 E14.02621
G1 X67.67 Y144.47 E14.04811
G1 X67.67 Y151.841 E14.59178
G1 X67.289 Y151.671 E14.62255
G1 X66.778 Y151.399 E14.66525
G1 X66.314 Y151.11 E14.70557
G1 X65.838 Y150.763 E14.74901
G1 X65.408 Y150.404 E14.79033
G1 X65 Y150.009 E14.83222
G1 X64.624 Y149.591 E14.87368
G1 X64.266 Y149.132 E14.91662
G1 X63.949 Y148.662 E14.95843
G1 X63.666 Y148.173 E15.00011
G1 X63.42 Y147.667 E15.0416
G1 X63.202 Y147.129 E15.08442
G1 X63.026 Y146.586 E15.12652
G1 X62.891 Y146.044 E15.16772
G1 X62.79 Y145.474 E15.21042
G1 X62.733 Y144.925 E15.25113
G1 X62.712 Y144.341 E15.29423
G1 X62.733 Y143.767 E15.33659
G1 X62.791 Y143.212 E15.37775
G1 X62.889 Y142.659 E15.41918
G1 X63.03 Y142.088 E15.46256
G1 X63.206 Y141.547 E15.50452
G1 X63.41 Y141.044 E15.54455
G1 X63.664 Y140.521 E15.58744
G1 X63.952 Y140.024 E15.6298
G1 X64.273 Y139.547 E15.67221
G1 X64.617 Y139.108 E15.71335
G1 X64.996 Y138.688 E15.75507
G1 X65.411 Y138.286 E15.79769
G1 X65.842 Y137.924 E15.8392
G1 X66.304 Y137.588 E15.88134
G1 X66.79 Y137.285 E15.92358
G1 X67.299 Y137.014 E15.96611
G0 F6000 X67.059 Y136.543
G1 F1200 X67.606 Y136.299 E16.01029
G1 X68.165 Y136.096 E16.05416
G1 X68.769 Y135.922 E16.10052
G1 X69.358 Y135.798 E16.14491
G1 X69.953 Y135.714 E16.18923
G1 X70.564 Y135.671 E16.23441
G1 X71.16 Y135.671 E16.27837
G1 X71.772 Y135.714 E16.32362
G1 X72.367 Y135.798 E16.36794
G1 X72.965 Y135.924 E16.41302
G1 X73.544 Y136.091 E16.45747
G1 X74.116 Y136.299 E16.50236
G1 X74.654 Y136.539 E16.54581
G1 X75.207 Y136.833 E16.592
G1 X75.719 Y137.152 E16.6365
G1 X76.209 Y137.509 E16.68121
G1 X76.663 Y137.89 E16.72493
G1 X77.109 Y138.32 E16.77062
G1 X77.509 Y138.765 E16.81476
G1 X77.884 Y139.244 E16.85963
G1 X78.227 Y139.752 E16.90484
G1 X78.53 Y140.276 E16.94948
G1 X78.791 Y140.811 E16.99339
G1 X79.018 Y141.375 E17.03823
G1 X79.207 Y141.955 E17.08322
G1 X79.35 Y142.534 E17.12721
G1 X79.436 Y143.021 E17.16369
G1 X69.647 Y143.021 E17.8857
G1 X69.325 Y143.061 E17.90963
G1 X69.023 Y143.178 E17.93352
G1 X68.714 Y143.408 E17.96193
G1 X68.585 Y143.537 E17.97539
G1 X68.385 Y143.792 E17.99929
G1 X68.254 Y144.089 E18.02323
G1 X68.198 Y144.47 E18.05164
G1 X68.198 Y152.604 E18.65158
G1 X68.168 Y152.595 E18.65389
G1 X67.619 Y152.396 E18.69696
G1 X67.056 Y152.145 E18.74243
G1 X66.515 Y151.857 E18.78763
G1 X66.012 Y151.544 E18.83133
G1 X65.522 Y151.187 E18.87605
G1 X65.047 Y150.789 E18.92175
G1 X64.62 Y150.376 E18.96557
G1 X64.222 Y149.934 E19.00944
G1 X63.837 Y149.44 E19.05564
G1 X63.503 Y148.946 E19.09962
G1 X63.197 Y148.416 E19.14476
G1 X62.935 Y147.878 E19.18889
G1 X62.708 Y147.319 E19.23339
G1 X62.518 Y146.732 E19.2789
G1 X62.373 Y146.15 E19.32314
G1 X62.267 Y145.55 E19.36808
G1 X62.205 Y144.956 E19.41213
G1 X62.184 Y144.341 E19.45752
G1 X62.205 Y143.737 E19.5021
G1 X62.268 Y143.136 E19.54667
G1 X62.373 Y142.543 E19.59109
G1 X62.518 Y141.957 E19.63561
G1 X62.71 Y141.365 E19.68151
G1 X62.931 Y140.82 E19.72489
G1 X63.198 Y140.272 E19.76985
G1 X63.502 Y139.746 E19.81466
G1 X63.843 Y139.241 E19.85961
G1 X64.216 Y138.763 E19.90433
G1 X64.617 Y138.319 E19.94845
G1 X65.048 Y137.902 E19.99269
G1 X65.52 Y137.505 E20.03818
G1 X66.01 Y137.149 E20.08285
G1 X66.533 Y136.823 E20.12831
G1 X67.059 Y136.543 E20.17226
G0 F6000 X66.826 Y136.069
G1 F1200 X67.407 Y135.81 E20.21918
G1 X68.014 Y135.589 E20.26682
G1 X68.628 Y135.413 E20.31393
G1 X69.273 Y135.276 E20.36257
G1 X69.901 Y135.188 E20.40934
G1 X70.541 Y135.143 E20.45666
G1 X71.183 Y135.143 E20.50401
G1 X71.824 Y135.188 E20.55141
G1 X72.452 Y135.276 E20.59818
G1 X73.093 Y135.412 E20.64651
G1 X73.708 Y135.59 E20.69374
G1 X74.315 Y135.81 E20.74136
G1 X74.899 Y136.07 E20.78851
G1 X75.459 Y136.368 E20.8353
G1 X76.013 Y136.714 E20.88347
G1 X76.531 Y137.09 E20.93068
G1 X77.026 Y137.506 E20.97837
G1 X77.481 Y137.945 E21.02501
G1 X77.925 Y138.437 E21.07389
G1 X78.311 Y138.932 E21.12019
G1 X78.668 Y139.461 E21.16726
G1 X78.995 Y140.028 E21.21554
G1 X79.27 Y140.59 E21.26168
G1 X79.517 Y141.203 E21.31043
G1 X79.713 Y141.806 E21.3572
G1 X79.868 Y142.432 E21.40476
G1 X79.98 Y143.062 E21.45196
G1 X80.031 Y143.549 E21.48807
G1 X69.647 Y143.549 E22.25397
G1 X69.399 Y143.589 E22.2725
G1 X69.087 Y143.781 E22.29952
G1 X68.958 Y143.91 E22.31298
G1 X68.811 Y144.113 E22.33147
G1 X68.726 Y144.47 E22.35853
G1 X68.726 Y153.298 E23.00967
G1 X68.634 Y153.278 E23.01661
G1 X68.005 Y153.098 E23.06487
G1 X67.419 Y152.886 E23.11083
G1 X66.829 Y152.622 E23.1585
G1 X66.251 Y152.315 E23.20678
G1 X65.717 Y151.982 E23.25319
G1 X65.198 Y151.604 E23.30055
G1 X64.7 Y151.188 E23.34841
G1 X64.233 Y150.736 E23.39635
G1 X63.821 Y150.277 E23.44184
G1 X63.408 Y149.749 E23.49128
G1 X63.054 Y149.223 E23.53805
G1 X62.731 Y148.666 E23.58554
G1 X62.454 Y148.096 E23.63228
G1 X62.214 Y147.505 E23.67933
G1 X62.005 Y146.86 E23.72934
G1 X61.858 Y146.272 E23.77404
G1 X61.744 Y145.625 E23.8225
G1 X61.679 Y144.998 E23.86899
G1 X61.656 Y144.341 E23.91748
G1 X61.679 Y143.693 E23.96531
G1 X61.745 Y143.059 E24.01232
G1 X61.855 Y142.441 E24.05862
G1 X62.015 Y141.794 E24.10778
G1 X62.209 Y141.195 E24.15422
G1 X62.45 Y140.602 E24.20143
G1 X62.729 Y140.029 E24.24844
G1 X63.057 Y139.462 E24.29675
G1 X63.414 Y138.932 E24.34389
G1 X63.809 Y138.427 E24.39117
G1 X64.237 Y137.952 E24.43833
G1 X64.707 Y137.498 E24.48653
G1 X65.182 Y137.099 E24.53229
G1 X65.723 Y136.706 E24.58161
G1 X66.263 Y136.369 E24.62856
G1 X66.826 Y136.069 E24.67561
G0 F6000 X66.593 Y135.595
G1 F1200 X67.219 Y135.316 E24.72616
G1 X67.835 Y135.092 E24.7745
G1 X68.511 Y134.898 E24.82638
G1 X69.177 Y134.756 E24.8766
G1 X69.849 Y134.662 E24.92665
G1 X70.518 Y134.615 E24.97612
G1 X71.206 Y134.615 E25.02686
G1 X71.876 Y134.662 E25.0764
G1 X72.548 Y134.756 E25.12645
G1 X73.214 Y134.898 E25.17668
G1 X73.884 Y135.091 E25.2281
G1 X74.503 Y135.316 E25.27668
G1 X75.132 Y135.596 E25.32746
G1 X75.728 Y135.913 E25.37726
G1 X76.295 Y136.267 E25.42656
G1 X76.862 Y136.678 E25.47821
G1 X77.372 Y137.106 E25.52732
G1 X77.869 Y137.587 E25.57833
G1 X78.329 Y138.097 E25.62899
G1 X78.733 Y138.615 E25.67744
G1 X79.12 Y139.187 E25.72838
G1 X79.466 Y139.787 E25.77946
G1 X79.751 Y140.371 E25.82739
G1 X80.014 Y141.024 E25.87932
G1 X80.225 Y141.674 E25.92972
G1 X80.384 Y142.316 E25.97851
G1 X80.502 Y142.978 E26.0281
G1 X80.574 Y143.67 E26.07942
G1 X80.588 Y144.077 E26.10946
G1 X69.647 Y144.077 E26.91644
G1 X69.46 Y144.154 E26.93136
G1 X69.331 Y144.283 E26.94481
G1 X69.254 Y144.47 E26.95973
G1 X69.254 Y153.945 E27.65858
G1 X69.166 Y153.933 E27.66513
G1 X68.524 Y153.795 E27.71357
G1 X67.835 Y153.598 E27.76642
G1 X67.22 Y153.375 E27.81467
G1 X66.596 Y153.096 E27.86509
G1 X65.989 Y152.774 E27.91577
G1 X65.417 Y152.417 E27.9655
G1 X64.872 Y152.02 E28.01523
G1 X64.345 Y151.579 E28.06592
G1 X63.849 Y151.1 E28.11678
