;FLAVOR:Marlin
;TIME:3098
;Filament used: 1.98124m
;Layer height: 0.16
;MINX:187.912
;MINY:101.678
;MINZ:0.28
;MAXX:232.807
;MAXY:172.262
;MAXZ:12.2
;Generated with Cura_SteamEngine 4.12.1
M140 S95
M105
M190 S95
M104 S220
M105
M109 S220
M82 ;absolute extrusion mode
G28 ; home all axes
 M117 Purge extruder
 G92 E0 ; reset extruder
 G1 Z1.0 F3000 ; move z up little to prevent scratching of surface
 G1 X2 Y20 Z0.3 F5000.0 ; move to start-line position
 G1 X2 Y200.0 Z0.3 F1500.0 E15 ; draw 1st line
 G1 X2 Y200.0 Z0.4 F5000.0 ; move to side a little
 G1 X2 Y20 Z0.4 F1500.0 E30 ; draw 2nd line
 G92 E0 ; reset extruder
 G1 Z1.0 F3000 ; move z up little to prevent scratching of surface
G92 E0
G92 E0
G1 F1500 E-5
;LAYER_COUNT:72
;LAYER:0
M107
G0 F6000 X195.727 Y106.413 Z0.28
;TYPE:SKIRT
G1 F1500 E0
G1 F1200 X196.098 Y105.823 E0.05569
G1 X196.534 Y105.28 E0.11133
G1 X197.029 Y104.79 E0.16699
G1 X197.577 Y104.36 E0.22265
G1 X198.171 Y103.996 E0.27831
G1 X198.803 Y103.702 E0.33401
G1 X199.464 Y103.483 E0.38965
G1 X200.146 Y103.341 E0.44531
G1 X200.62 Y103.289 E0.48341
G1 X223.545 Y101.687 E2.31968
G1 X224.241 Y101.678 E2.3753
G1 X224.934 Y101.749 E2.43096
G1 X225.615 Y101.9 E2.4867
G1 X226.273 Y102.127 E2.54232
G1 X226.902 Y102.428 E2.59804
G1 X227.491 Y102.799 E2.65366
G1 X228.035 Y103.235 E2.70936
G1 X228.524 Y103.73 E2.76496
G1 X228.954 Y104.279 E2.82068
G1 X229.318 Y104.873 E2.87635
G1 X229.612 Y105.504 E2.93197
G1 X229.831 Y106.166 E2.98769
G1 X229.973 Y106.848 E3.04335
G1 X230.025 Y107.321 E3.08137
G1 X232.798 Y146.99 E6.25883
G1 X232.807 Y147.686 E6.31444
G1 X232.736 Y148.379 E6.37011
G1 X232.585 Y149.06 E6.42584
G1 X232.358 Y149.718 E6.48146
G1 X232.057 Y150.346 E6.53711
G1 X231.686 Y150.936 E6.5928
G1 X231.25 Y151.479 E6.64844
G1 X230.755 Y151.969 E6.70409
G1 X230.206 Y152.399 E6.75982
G1 X229.613 Y152.763 E6.81541
G1 X228.981 Y153.057 E6.87111
G1 X228.32 Y153.276 E6.92675
G1 X227.638 Y153.418 E6.98241
G1 X227.165 Y153.47 E7.02044
G1 X218.85 Y154.052 E7.68646
G1 X218.85 Y161.1 E8.24963
G1 X218.81 Y161.796 E8.30533
G1 X218.691 Y162.482 E8.36097
G1 X218.493 Y163.15 E8.41664
G1 X218.221 Y163.791 E8.47228
G1 X217.877 Y164.397 E8.52796
G1 X217.466 Y164.959 E8.58359
G1 X216.993 Y165.471 E8.63929
G1 X216.464 Y165.925 E8.69499
G1 X215.887 Y166.315 E8.75064
G1 X215.269 Y166.637 E8.80632
G1 X214.619 Y166.886 E8.86194
G1 X213.944 Y167.059 E8.91761
G1 X213.254 Y167.153 E8.97326
G1 X212.778 Y167.172 E9.01132
G1 X202.966 Y167.172 E9.79534
G1 X202.897 Y167.572 E9.82778
G1 X202.699 Y168.24 E9.88345
G1 X202.427 Y168.881 E9.93909
G1 X202.083 Y169.487 E9.99477
G1 X201.672 Y170.049 E10.0504
G1 X201.199 Y170.561 E10.1061
G1 X200.67 Y171.015 E10.1618
G1 X200.093 Y171.405 E10.21745
G1 X199.475 Y171.727 E10.27313
G1 X198.825 Y171.976 E10.32875
G1 X198.15 Y172.149 E10.38442
G1 X197.46 Y172.243 E10.44007
G1 X196.984 Y172.262 E10.47813
G1 X193.984 Y172.262 E10.71784
G1 X193.288 Y172.222 E10.77355
G1 X192.602 Y172.103 E10.82918
G1 X191.934 Y171.905 E10.88485
G1 X191.293 Y171.633 E10.94049
G1 X190.687 Y171.289 E10.99617
G1 X190.125 Y170.878 E11.05181
G1 X189.613 Y170.405 E11.1075
G1 X189.159 Y169.876 E11.1632
G1 X188.769 Y169.299 E11.21885
G1 X188.447 Y168.681 E11.27453
G1 X188.198 Y168.031 E11.33015
G1 X188.025 Y167.356 E11.38583
G1 X187.931 Y166.666 E11.44147
G1 X187.912 Y166.19 E11.47954
G1 X187.912 Y133.81 E14.06684
G1 X187.952 Y133.114 E14.12254
G1 X188.071 Y132.428 E14.17817
G1 X188.269 Y131.76 E14.23384
G1 X188.541 Y131.119 E14.28948
G1 X188.885 Y130.513 E14.34516
G1 X189.296 Y129.951 E14.4008
G1 X189.769 Y129.439 E14.45649
G1 X190.298 Y128.985 E14.5122
G1 X190.875 Y128.595 E14.56784
G1 X191.493 Y128.273 E14.62353
G1 X192.143 Y128.024 E14.67914
G1 X192.818 Y127.851 E14.73482
G1 X193.508 Y127.757 E14.79047
G1 X193.984 Y127.738 E14.82853
G1 X196.242 Y127.738 E15.00895
G1 X194.986 Y109.77 E16.44817
G1 X194.977 Y109.073 E16.50387
G1 X195.048 Y108.38 E16.55954
G1 X195.198 Y107.7 E16.61518
G1 X195.426 Y107.041 E16.6709
G1 X195.727 Y106.413 E16.72654
G0 F6000 X196.262 Y106.539
G1 F1200 X196.633 Y105.986 E16.77975
G1 X197.067 Y105.482 E16.8329
G1 X197.559 Y105.033 E16.88612
G1 X198.101 Y104.647 E16.93929
G1 X198.686 Y104.328 E16.99253
G1 X199.304 Y104.082 E17.04568
G1 X199.948 Y103.911 E17.09892
G1 X200.657 Y103.815 E17.15609
G1 X223.582 Y102.213 E18.99236
G1 X224.247 Y102.207 E19.0455
G1 X224.909 Y102.28 E19.09872
G1 X225.557 Y102.433 E19.15192
G1 X226.182 Y102.661 E19.20508
G1 X226.775 Y102.963 E19.25825
G1 X227.328 Y103.334 E19.31146
G1 X227.832 Y103.769 E19.36466
G1 X228.281 Y104.26 E19.41782
G1 X228.667 Y104.803 E19.47105
G1 X228.986 Y105.387 E19.52423
G1 X229.232 Y106.005 E19.57738
G1 X229.403 Y106.649 E19.63062
G1 X229.499 Y107.357 E19.68771
G1 X232.272 Y147.026 E22.86516
G1 X232.278 Y147.692 E22.91838
G1 X232.205 Y148.354 E22.97159
G1 X232.052 Y149.002 E23.0248
G1 X231.824 Y149.627 E23.07796
G1 X231.522 Y150.22 E23.13113
G1 X231.151 Y150.773 E23.18434
G1 X230.716 Y151.277 E23.23754
G1 X230.225 Y151.726 E23.2907
G1 X229.683 Y152.112 E23.34387
G1 X229.098 Y152.431 E23.39711
G1 X228.48 Y152.677 E23.45026
G1 X227.836 Y152.848 E23.5035
G1 X227.128 Y152.943 E23.56058
G1 X218.322 Y153.559 E24.26594
G1 X218.322 Y161.1 E24.86849
G1 X218.282 Y161.764 E24.92165
G1 X218.163 Y162.419 E24.97484
G1 X217.966 Y163.055 E25.02804
G1 X217.694 Y163.663 E25.08126
G1 X217.351 Y164.234 E25.13449
G1 X216.943 Y164.759 E25.18761
G1 X216.474 Y165.232 E25.24084
G1 X215.952 Y165.645 E25.29402
G1 X215.385 Y165.993 E25.34718
G1 X214.78 Y166.27 E25.40035
G1 X214.145 Y166.473 E25.45362
G1 X213.492 Y166.598 E25.50674
G1 X212.778 Y166.644 E25.56391
G1 X202.501 Y166.644 E26.38509
G1 X202.488 Y166.854 E26.4019
G1 X202.369 Y167.509 E26.4551
G1 X202.172 Y168.145 E26.5083
G1 X201.9 Y168.753 E26.56152
G1 X201.557 Y169.324 E26.61474
G1 X201.149 Y169.849 E26.66787
G1 X200.68 Y170.322 E26.72109
G1 X200.158 Y170.735 E26.77428
G1 X199.591 Y171.083 E26.82744
G1 X198.986 Y171.36 E26.88061
G1 X198.351 Y171.563 E26.93388
G1 X197.698 Y171.688 E26.987
G1 X196.984 Y171.734 E27.04417
G1 X193.984 Y171.734 E27.28388
G1 X193.32 Y171.694 E27.33704
G1 X192.665 Y171.575 E27.39023
G1 X192.029 Y171.378 E27.44343
G1 X191.421 Y171.106 E27.49665
G1 X190.85 Y170.763 E27.54988
G1 X190.325 Y170.355 E27.603
G1 X189.852 Y169.886 E27.65623
G1 X189.439 Y169.364 E27.70941
G1 X189.091 Y168.797 E27.76257
G1 X188.814 Y168.192 E27.81574
G1 X188.611 Y167.557 E27.86901
G1 X188.486 Y166.904 E27.92213
G1 X188.44 Y166.19 E27.9793
G1 X188.44 Y133.81 E30.5666
G1 X188.48 Y133.146 E30.61975
G1 X188.599 Y132.491 E30.67295
G1 X188.796 Y131.855 E30.72615
G1 X189.068 Y131.247 E30.77937
G1 X189.411 Y130.676 E30.83259
G1 X189.819 Y130.151 E30.88572
G1 X190.288 Y129.678 E30.93895
G1 X190.81 Y129.265 E30.99213
G1 X191.377 Y128.917 E31.04529
G1 X191.982 Y128.64 E31.09846
G1 X192.617 Y128.437 E31.15173
G1 X193.27 Y128.312 E31.20485
G1 X193.984 Y128.266 E31.26202
G1 X196.809 Y128.266 E31.48775
G1 X195.513 Y109.733 E32.97223
G1 X195.506 Y109.067 E33.02545
G1 X195.579 Y108.405 E33.07867
G1 X195.731 Y107.757 E33.13185
G1 X195.96 Y107.132 E33.18504
G1 X196.262 Y106.539 E33.23821
G0 F6000 X196.798 Y106.674
G1 F1200 X197.168 Y106.161 E33.28875
G1 X197.6 Y105.698 E33.33935
G1 X198.087 Y105.293 E33.38996
G1 X198.621 Y104.953 E33.44055
G1 X199.194 Y104.683 E33.49116
G1 X199.796 Y104.487 E33.54175
G1 X200.693 Y104.342 E33.61435
G1 X223.618 Y102.74 E35.45062
G1 X224.251 Y102.736 E35.5012
G1 X224.88 Y102.812 E35.55183
G1 X225.494 Y102.966 E35.60241
G1 X226.084 Y103.196 E35.65301
G1 X226.64 Y103.499 E35.7036
G1 X227.153 Y103.869 E35.75414
G1 X227.616 Y104.302 E35.80479
G1 X228.021 Y104.789 E35.85541
G1 X228.361 Y105.323 E35.90599
G1 X228.631 Y105.895 E35.95653
G1 X228.827 Y106.497 E36.00712
G1 X228.972 Y107.394 E36.07972
G1 X231.745 Y147.063 E39.25718
G1 X231.749 Y147.696 E39.30776
G1 X231.673 Y148.325 E39.35838
G1 X231.519 Y148.939 E39.40896
G1 X231.289 Y149.529 E39.45956
G1 X230.986 Y150.085 E39.51016
G1 X230.616 Y150.598 E39.5607
G1 X230.184 Y151.061 E39.61129
G1 X229.697 Y151.466 E39.66191
G1 X229.162 Y151.806 E39.71256
G1 X228.59 Y152.076 E39.7631
G1 X227.988 Y152.272 E39.81369
G1 X227.091 Y152.417 E39.88629
G1 X217.794 Y153.068 E40.63098
G1 X217.794 Y161.1 E41.27277
G1 X217.754 Y161.732 E41.32337
G1 X217.635 Y162.354 E41.37397
G1 X217.438 Y162.956 E41.42458
G1 X217.167 Y163.528 E41.47516
G1 X216.826 Y164.061 E41.52572
G1 X216.421 Y164.548 E41.57633
G1 X215.958 Y164.979 E41.62687
G1 X215.444 Y165.349 E41.67748
G1 X214.887 Y165.651 E41.7281
G1 X214.297 Y165.88 E41.77867
G1 X213.683 Y166.034 E41.82926
G1 X212.778 Y166.116 E41.90187
G1 X202 Y166.116 E42.76307
G1 X202 Y166.19 E42.76898
G1 X201.96 Y166.822 E42.81959
G1 X201.841 Y167.444 E42.87019
G1 X201.644 Y168.046 E42.9208
G1 X201.373 Y168.618 E42.97137
G1 X201.032 Y169.151 E43.02193
G1 X200.627 Y169.638 E43.07255
G1 X200.164 Y170.069 E43.12309
G1 X199.65 Y170.439 E43.17369
G1 X199.093 Y170.741 E43.22432
G1 X198.503 Y170.97 E43.27489
G1 X197.889 Y171.124 E43.32547
G1 X196.984 Y171.206 E43.39808
G1 X193.984 Y171.206 E43.63779
G1 X193.352 Y171.166 E43.68839
G1 X192.73 Y171.047 E43.739
G1 X192.128 Y170.85 E43.78961
G1 X191.556 Y170.579 E43.84018
G1 X191.023 Y170.238 E43.89074
G1 X190.536 Y169.833 E43.94135
G1 X190.105 Y169.37 E43.9919
G1 X189.735 Y168.856 E44.0425
G1 X189.433 Y168.299 E44.09313
G1 X189.204 Y167.709 E44.1437
G1 X189.05 Y167.095 E44.19428
G1 X188.968 Y166.19 E44.26689
G1 X188.968 Y133.81 E46.85419
G1 X189.008 Y133.178 E46.90479
G1 X189.127 Y132.556 E46.95539
G1 X189.324 Y131.954 E47.006
G1 X189.595 Y131.382 E47.05658
G1 X189.936 Y130.849 E47.10714
G1 X190.341 Y130.362 E47.15775
G1 X190.804 Y129.931 E47.20829
G1 X191.318 Y129.561 E47.2589
G1 X191.875 Y129.259 E47.30952
G1 X192.465 Y129.03 E47.36009
G1 X193.079 Y128.876 E47.41068
G1 X193.984 Y128.794 E47.48328
G1 X196.984 Y128.794 E47.723
G1 X197.376 Y128.819 E47.75438
G1 X196.039 Y109.696 E49.28612
G1 X196.035 Y109.063 E49.3367
G1 X196.111 Y108.434 E49.38733
G1 X196.265 Y107.82 E49.43791
G1 X196.495 Y107.23 E49.48851
G1 X196.798 Y106.674 E49.5391
G0 F6000 X197.03 Y107.336
G1 F1200 X197.334 Y106.82 E49.58696
G1 X197.703 Y106.348 E49.63483
G1 X198.132 Y105.93 E49.68269
G1 X198.612 Y105.573 E49.73049
G1 X199.136 Y105.283 E49.77834
G1 X199.694 Y105.065 E49.82621
G1 X200.276 Y104.924 E49.87406
G1 X200.73 Y104.869 E49.9106
G1 X223.655 Y103.267 E51.74687
G1 X224.254 Y103.265 E51.79473
G1 X224.848 Y103.343 E51.8426
G1 X225.426 Y103.499 E51.89044
G1 X225.978 Y103.731 E51.93829
G1 X226.494 Y104.035 E51.98614
G1 X226.966 Y104.404 E52.03401
G1 X227.384 Y104.833 E52.08187
G1 X227.741 Y105.314 E52.12973
G1 X228.031 Y105.838 E52.17759
G1 X228.249 Y106.395 E52.22538
G1 X228.39 Y106.977 E52.27323
G1 X228.445 Y107.431 E52.30977
G1 X231.218 Y147.1 E55.48723
G1 X231.22 Y147.699 E55.53509
G1 X231.142 Y148.293 E55.58296
G1 X230.986 Y148.871 E55.6308
G1 X230.754 Y149.423 E55.67864
G1 X230.45 Y149.939 E55.7265
G1 X230.081 Y150.411 E55.77437
G1 X229.652 Y150.829 E55.82223
G1 X229.172 Y151.186 E55.87003
G1 X228.648 Y151.476 E55.91788
G1 X228.09 Y151.694 E55.96575
G1 X227.508 Y151.835 E56.0136
G1 X227.054 Y151.89 E56.05014
G1 X217.266 Y152.575 E56.83416
G1 X217.266 Y161.1 E57.51534
G1 X217.226 Y161.698 E57.56323
G1 X217.107 Y162.284 E57.61101
G1 X216.911 Y162.85 E57.65887
G1 X216.641 Y163.385 E57.70675
G1 X216.302 Y163.879 E57.75463
G1 X215.901 Y164.323 E57.80243
G1 X215.444 Y164.71 E57.85028
G1 X214.94 Y165.033 E57.89811
G1 X214.397 Y165.286 E57.94598
G1 X213.825 Y165.464 E57.99385
G1 X213.235 Y165.565 E58.04168
G1 X212.778 Y165.588 E58.07824
G1 X201.472 Y165.588 E58.98163
G1 X201.472 Y166.19 E59.02974
G1 X201.432 Y166.788 E59.07763
G1 X201.313 Y167.374 E59.12541
G1 X201.117 Y167.94 E59.17327
G1 X200.847 Y168.475 E59.22115
G1 X200.508 Y168.969 E59.26902
G1 X200.107 Y169.413 E59.31683
G1 X199.65 Y169.8 E59.36468
G1 X199.146 Y170.123 E59.41251
G1 X198.603 Y170.376 E59.46038
G1 X198.031 Y170.554 E59.50824
G1 X197.441 Y170.655 E59.55607
G1 X196.984 Y170.678 E59.59264
G1 X193.984 Y170.678 E59.83235
G1 X193.386 Y170.638 E59.88024
G1 X192.8 Y170.519 E59.92802
G1 X192.234 Y170.323 E59.97588
G1 X191.699 Y170.053 E60.02376
G1 X191.205 Y169.714 E60.07164
G1 X190.761 Y169.313 E60.11944
G1 X190.374 Y168.856 E60.16729
G1 X190.051 Y168.352 E60.21512
G1 X189.798 Y167.809 E60.26299
G1 X189.62 Y167.237 E60.31086
G1 X189.519 Y166.647 E60.35869
G1 X189.496 Y166.19 E60.39525
G1 X189.496 Y133.81 E62.98254
G1 X189.536 Y133.212 E63.03043
G1 X189.655 Y132.626 E63.07821
G1 X189.851 Y132.06 E63.12607
G1 X190.121 Y131.525 E63.17396
G1 X190.46 Y131.031 E63.22183
G1 X190.861 Y130.587 E63.26964
G1 X191.318 Y130.2 E63.31749
G1 X191.822 Y129.877 E63.36532
G1 X192.365 Y129.624 E63.41318
G1 X192.937 Y129.446 E63.46105
G1 X193.527 Y129.345 E63.50888
G1 X193.984 Y129.322 E63.54544
G1 X196.984 Y129.322 E63.78516
G1 X197.582 Y129.362 E63.83305
G1 X197.949 Y129.437 E63.86298
G1 X196.566 Y109.659 E65.44718
G1 X196.564 Y109.06 E65.49504
G1 X196.642 Y108.466 E65.54291
G1 X196.798 Y107.888 E65.59075
G1 X197.03 Y107.336 E65.63859
G0 F6000 X197.566 Y107.451
G1 F1200 X197.869 Y106.978 E65.68348
G1 X198.237 Y106.552 E65.72846
G1 X198.661 Y106.183 E65.77337
G1 X199.133 Y105.877 E65.81832
G1 X199.644 Y105.641 E65.86329
G1 X200.183 Y105.481 E65.90822
G1 X200.767 Y105.396 E65.95538
G1 X223.692 Y103.794 E67.79165
G1 X224.254 Y103.794 E67.83655
G1 X224.811 Y103.875 E67.88153
G1 X225.351 Y104.033 E67.92648
G1 X225.863 Y104.267 E67.97147
G1 X226.336 Y104.57 E68.01635
G1 X226.762 Y104.938 E68.06133
G1 X227.131 Y105.362 E68.10624
G1 X227.437 Y105.834 E68.15119
G1 X227.673 Y106.345 E68.19617
G1 X227.833 Y106.884 E68.24109
G1 X227.918 Y107.468 E68.28825
G1 X230.691 Y147.137 E71.4657
G1 X230.691 Y147.699 E71.51061
G1 X230.61 Y148.256 E71.55558
G1 X230.452 Y148.796 E71.60054
G1 X230.218 Y149.308 E71.64552
G1 X229.915 Y149.781 E71.6904
G1 X229.547 Y150.207 E71.73538
G1 X229.123 Y150.576 E71.7803
G1 X228.651 Y150.882 E71.82524
G1 X228.14 Y151.118 E71.87022
G1 X227.601 Y151.278 E71.91515
G1 X227.017 Y151.363 E71.9623
G1 X216.737 Y152.082 E72.78572
G1 X216.738 Y161.1 E73.5063
G1 X216.698 Y161.661 E73.55124
G1 X216.579 Y162.211 E73.5962
G1 X216.383 Y162.738 E73.64113
G1 X216.115 Y163.232 E73.68604
G1 X215.779 Y163.684 E73.73104
G1 X215.383 Y164.083 E73.77596
G1 X214.934 Y164.422 E73.82091
G1 X214.441 Y164.694 E73.8659
G1 X213.915 Y164.893 E73.91084
G1 X213.366 Y165.016 E73.95579
G1 X212.778 Y165.06 E74.00291
G1 X200.944 Y165.06 E74.9485
G1 X200.944 Y166.19 E75.03879
G1 X200.904 Y166.751 E75.08373
G1 X200.785 Y167.301 E75.12869
G1 X200.589 Y167.828 E75.17362
G1 X200.321 Y168.322 E75.21853
G1 X199.985 Y168.774 E75.26353
G1 X199.589 Y169.173 E75.30845
G1 X199.14 Y169.512 E75.3534
G1 X198.647 Y169.784 E75.39839
G1 X198.121 Y169.983 E75.44333
G1 X197.572 Y170.106 E75.48828
G1 X196.984 Y170.15 E75.5354
G1 X193.984 Y170.15 E75.77511
G1 X193.423 Y170.11 E75.82005
G1 X192.873 Y169.991 E75.86502
G1 X192.346 Y169.795 E75.90994
G1 X191.852 Y169.527 E75.95485
G1 X191.4 Y169.191 E75.99985
G1 X191.001 Y168.795 E76.04477
G1 X190.662 Y168.346 E76.08973
G1 X190.39 Y167.853 E76.13472
G1 X190.191 Y167.327 E76.17965
G1 X190.068 Y166.778 E76.22461
G1 X190.024 Y166.19 E76.27172
G1 X190.024 Y133.81 E78.85902
G1 X190.064 Y133.249 E78.90396
G1 X190.183 Y132.699 E78.94892
G1 X190.379 Y132.172 E78.99385
G1 X190.647 Y131.678 E79.03876
G1 X190.983 Y131.226 E79.08376
G1 X191.379 Y130.827 E79.12868
G1 X191.828 Y130.488 E79.17363
G1 X192.321 Y130.216 E79.21862
G1 X192.847 Y130.017 E79.26356
G1 X193.396 Y129.894 E79.30852
G1 X193.984 Y129.85 E79.35563
G1 X196.984 Y129.85 E79.59534
G1 X197.545 Y129.89 E79.64028
G1 X198.095 Y130.009 E79.68525
G1 X198.53 Y130.171 E79.72234
G1 X197.093 Y109.622 E81.3683
G1 X197.093 Y109.06 E81.4132
G1 X197.174 Y108.503 E81.45818
G1 X197.332 Y107.963 E81.50314
G1 X197.566 Y107.451 E81.54812
G0 F6000 X198.101 Y107.578
G1 F1200 X198.404 Y107.151 E81.58995
G1 X198.769 Y106.776 E81.63177
G1 X199.186 Y106.46 E81.67357
G1 X199.647 Y106.211 E81.71544
G1 X200.14 Y106.035 E81.75727
G1 X200.804 Y105.922 E81.81109
