;FLAVOR:Marlin
;TIME:15355
;Filament used: 9.36272m
;Layer height: 0.16
;MINX:176.462
;MINY:55.268
;MINZ:0.28
;MAXX:231.001
;MAXY:141.87
;MAXZ:59.24
;Generated with Cura_SteamEngine 4.13.1
M140 S90
M105
M190 S90
M104 S220
M105
M109 S220
M82 ;absolute extrusion mode
G28 ; home all axes
 M117 Purge extruder
 G92 E0 ; reset extruder
 G1 Z1.0 F3000 ; move z up little to prevent scratching of surface
 G1 X2 Y20 Z0.3 F5000.0 ; move to start-line position
 G1 X2 Y200.0 Z0.3 F1500.0 E15 ; draw 1st line
 G1 X2 Y200.0 Z0.4 F5000.0 ; move to side a little
 G1 X2 Y20 Z0.4 F1500.0 E30 ; draw 2nd line
 G92 E0 ; reset extruder
 G1 Z1.0 F3000 ; move z up little to prevent scratching of surface
G92 E0
G92 E0
G1 F1500 E-5
;LAYER_COUNT:335
;LAYER:0
M107
G1 F300 Z0.48
G0 F6000 X183.923 Y62.626 Z0.48
;TYPE:SKIRT
G1 F300 Z0.28
G1 F1500 E0
G1 F1200 X183.934 Y62.6 E0.00191
G1 X184.127 Y62.205 E0.03163
G1 X184.342 Y61.832 E0.06074
G1 X184.568 Y61.497 E0.08806
G1 X184.83 Y61.163 E0.11676
G1 X185.111 Y60.85 E0.1452
G1 X185.423 Y60.549 E0.17451
G1 X185.733 Y60.288 E0.20191
G1 X186.094 Y60.027 E0.23203
G1 X186.435 Y59.813 E0.25925
G1 X186.807 Y59.615 E0.28774
G1 X187.195 Y59.443 E0.31644
G1 X187.587 Y59.3 E0.34465
G1 X187.99 Y59.184 E0.373
G1 X188.404 Y59.096 E0.40162
G1 X188.836 Y59.036 E0.43111
G1 X189.238 Y59.008 E0.45835
G1 X189.674 Y59.008 E0.48783
G1 X190.076 Y59.036 E0.51508
G1 X190.52 Y59.098 E0.54539
G1 X190.91 Y59.181 E0.57235
G1 X191.325 Y59.3 E0.60154
G1 X191.717 Y59.443 E0.62975
G1 X192.105 Y59.615 E0.65845
G1 X192.477 Y59.813 E0.68694
G1 X192.818 Y60.027 E0.71416
G1 X193.179 Y60.288 E0.74428
G1 X193.498 Y60.556 E0.77244
G1 X193.804 Y60.851 E0.80118
G1 X194.075 Y61.153 E0.82862
G1 X194.344 Y61.497 E0.85814
G1 X194.543 Y61.792 E0.8822
G1 X186.339 Y61.792 E1.43688
G1 X185.778 Y61.832 E1.47491
G1 X185.228 Y61.951 E1.51296
G1 X184.701 Y62.147 E1.55097
G1 X184.207 Y62.415 E1.58897
G1 X183.923 Y62.626 E1.61289
G0 F6000 X183.457 Y62.371
G1 F1200 X183.655 Y61.967 E1.64331
G1 X183.895 Y61.551 E1.67578
G1 X184.138 Y61.19 E1.7052
G1 X184.428 Y60.819 E1.73704
G1 X184.731 Y60.483 E1.76763
G1 X185.06 Y60.165 E1.79857
G1 X185.42 Y59.863 E1.83034
G1 X185.786 Y59.597 E1.86093
G1 X186.176 Y59.352 E1.89207
G1 X186.569 Y59.144 E1.92213
G1 X187.006 Y58.95 E1.95446
G1 X187.418 Y58.8 E1.9841
G1 X187.862 Y58.672 E2.01535
G1 X188.319 Y58.575 E2.04693
G1 X188.77 Y58.512 E2.07772
G1 X189.229 Y58.48 E2.10883
G1 X189.683 Y58.48 E2.13953
G1 X190.142 Y58.512 E2.17063
G1 X190.604 Y58.577 E2.20218
G1 X191.042 Y58.669 E2.23244
G1 X191.49 Y58.799 E2.26398
G1 X191.906 Y58.95 E2.2939
G1 X192.343 Y59.144 E2.32623
G1 X192.736 Y59.352 E2.35629
G1 X193.126 Y59.597 E2.38743
G1 X193.492 Y59.863 E2.41802
G1 X193.861 Y60.173 E2.4506
G1 X194.184 Y60.484 E2.48092
G1 X194.477 Y60.81 E2.51055
G1 X194.767 Y61.181 E2.54239
G1 X195.021 Y61.558 E2.57313
G1 X195.263 Y61.976 E2.60578
G1 X195.431 Y62.32 E2.63167
G1 X186.339 Y62.32 E3.24639
G1 X185.817 Y62.36 E3.28178
G1 X185.307 Y62.479 E3.31719
G1 X184.821 Y62.674 E3.3526
G1 X184.371 Y62.941 E3.38798
G1 X183.912 Y63.325 E3.42844
G1 X183.525 Y63.712 E3.46544
G1 X183.184 Y64.11 E3.50088
G1 X182.91 Y64.551 E3.53598
G1 X182.954 Y64.128 E3.56473
G1 X183.036 Y63.665 E3.59652
G1 X183.141 Y63.24 E3.62612
G1 X183.288 Y62.79 E3.65813
G1 X183.457 Y62.371 E3.68868
G0 F6000 X182.487 Y61.954
G1 F1200 X182.731 Y61.453 E3.72635
G1 X182.99 Y61.005 E3.76134
G1 X183.291 Y60.558 E3.79778
G1 X183.621 Y60.137 E3.83394
G1 X183.965 Y59.755 E3.8687
G1 X184.362 Y59.371 E3.90604
G1 X184.752 Y59.043 E3.9405
G1 X185.2 Y58.718 E3.97792
G1 X185.653 Y58.435 E4.01403
G1 X186.105 Y58.194 E4.04866
G1 X186.605 Y57.973 E4.08562
G1 X187.093 Y57.795 E4.12075
G1 X187.606 Y57.647 E4.15684
G1 X188.142 Y57.533 E4.19389
G1 X188.667 Y57.46 E4.22973
G1 X189.184 Y57.424 E4.26477
G1 X189.728 Y57.424 E4.30155
G1 X190.246 Y57.46 E4.33666
G1 X190.798 Y57.537 E4.37434
G1 X191.279 Y57.639 E4.40759
G1 X191.82 Y57.795 E4.44565
G1 X192.307 Y57.973 E4.48071
G1 X192.807 Y58.194 E4.51767
G1 X193.259 Y58.435 E4.5523
G1 X193.712 Y58.718 E4.58842
G1 X194.16 Y59.043 E4.62584
G1 X194.558 Y59.378 E4.66101
G1 X194.936 Y59.742 E4.69649
G1 X195.287 Y60.131 E4.73192
G1 X195.626 Y60.565 E4.76915
G1 X195.92 Y61 E4.80465
G1 X196.19 Y61.468 E4.84118
G1 X196.422 Y61.945 E4.87704
G1 X196.615 Y62.421 E4.91177
G1 X196.785 Y62.945 E4.94902
G1 X196.893 Y63.376 E4.97906
G1 X186.339 Y63.376 E5.69263
G1 X185.905 Y63.416 E5.72209
G1 X185.486 Y63.534 E5.75152
G1 X185.096 Y63.727 E5.78094
G1 X184.659 Y64.072 E5.81859
G1 X184.272 Y64.459 E5.85559
G1 X183.993 Y64.794 E5.88507
G1 X183.781 Y65.174 E5.91449
G1 X183.641 Y65.586 E5.94391
G1 X183.576 Y66.139 E5.98156
G1 X183.576 Y67.095 E6.04619
G1 X183.616 Y67.529 E6.07566
G1 X183.734 Y67.948 E6.10509
G1 X183.856 Y68.195 E6.12372
G1 X183.856 Y70.207 E6.25975
G1 X183.628 Y69.954 E6.28278
G1 X183.285 Y69.516 E6.32039
G1 X182.99 Y69.078 E6.35609
G1 X182.731 Y68.63 E6.39108
G1 X182.487 Y68.129 E6.42876
G1 X182.296 Y67.657 E6.46319
G1 X182.128 Y67.141 E6.49988
G1 X182 Y66.623 E6.53595
G1 X181.906 Y66.096 E6.57214
G1 X181.853 Y65.586 E6.60681
G1 X181.834 Y65.041 E6.64368
G1 X181.853 Y64.492 E6.68082
G1 X181.906 Y63.984 E6.71536
G1 X182.001 Y63.45 E6.75203
G1 X182.125 Y62.952 E6.78673
G1 X182.296 Y62.426 E6.82412
G1 X182.487 Y61.954 E6.85855
G0 F6000 X181.521 Y61.524
G1 F1200 X181.796 Y60.963 E6.90079
G1 X182.096 Y60.442 E6.94144
G1 X182.432 Y59.942 E6.98217
G1 X182.813 Y59.456 E7.02392
G1 X183.212 Y59.013 E7.06423
G1 X183.642 Y58.597 E7.10468
G1 X184.116 Y58.199 E7.14653
G1 X184.604 Y57.845 E7.18729
G1 X185.118 Y57.523 E7.2283
G1 X185.653 Y57.239 E7.26925
G1 X186.21 Y56.992 E7.31045
G1 X186.763 Y56.791 E7.35023
G1 X187.356 Y56.619 E7.39197
G1 X187.948 Y56.494 E7.43288
G1 X188.548 Y56.41 E7.47384
G1 X189.154 Y56.368 E7.51492
G1 X189.758 Y56.368 E7.55575
G1 X190.364 Y56.41 E7.59682
G1 X190.976 Y56.496 E7.63861
G1 X191.545 Y56.616 E7.67792
G1 X192.149 Y56.791 E7.72044
G1 X192.702 Y56.992 E7.76022
G1 X193.259 Y57.239 E7.80142
G1 X193.794 Y57.523 E7.84237
G1 X194.308 Y57.845 E7.88338
G1 X194.796 Y58.199 E7.92414
G1 X195.269 Y58.597 E7.96594
G1 X195.701 Y59.014 E8.00653
G1 X196.096 Y59.453 E8.04646
G1 X196.485 Y59.95 E8.08913
G1 X196.813 Y60.435 E8.12872
G1 X197.122 Y60.971 E8.17055
G1 X197.382 Y61.504 E8.21064
G1 X197.61 Y62.066 E8.25165
G1 X197.804 Y62.666 E8.29428
G1 X197.944 Y63.225 E8.33325
G1 X198.052 Y63.836 E8.3752
G1 X198.114 Y64.432 E8.41571
G1 X186.339 Y64.432 E9.21183
G1 X186.017 Y64.472 E9.23377
G1 X185.715 Y64.589 E9.25567
G1 X185.406 Y64.819 E9.28171
G1 X185.019 Y65.206 E9.31872
G1 X184.819 Y65.461 E9.34063
G1 X184.688 Y65.758 E9.36257
G1 X184.632 Y66.139 E9.38861
G1 X184.632 Y67.095 E9.45325
G1 X184.672 Y67.417 E9.47519
G1 X184.789 Y67.719 E9.49708
G1 X184.912 Y67.893 E9.51149
G1 X184.912 Y72.431 E9.81831
G1 X184.615 Y72.246 E9.84197
G1 X184.116 Y71.884 E9.88365
G1 X183.642 Y71.486 E9.92549
G1 X183.212 Y71.07 E9.96595
G1 X182.813 Y70.626 E10.00631
G1 X182.433 Y70.141 E10.04796
G1 X182.096 Y69.641 E10.08873
G1 X181.796 Y69.12 E10.12938
G1 X181.521 Y68.559 E10.17162
G1 X181.302 Y68.018 E10.21108
G1 X181.111 Y67.429 E10.25295
G1 X180.967 Y66.848 E10.29342
G1 X180.861 Y66.251 E10.33441
G1 X180.798 Y65.652 E10.37513
G1 X180.777 Y65.041 E10.41647
G1 X180.798 Y64.432 E10.45767
G1 X180.86 Y63.843 E10.49771
G1 X180.97 Y63.221 E10.54042
G1 X181.111 Y62.654 E10.57992
G1 X181.302 Y62.065 E10.62179
G1 X181.521 Y61.524 E10.66125
G1 F1500 E5.66125
G1 F300 Z0.48
G0 F6000 X184.549 Y63.465 Z0.48
G1 F300 Z0.28
G1 F1500 E10.66125
G1 F1200 X184.286 Y63.699 E10.68505
G1 X183.899 Y64.086 E10.72205
G1 X183.587 Y64.453 E10.75462
G1 X183.341 Y64.867 E10.78718
G1 X183.167 Y65.316 E10.81974
G1 X183.069 Y65.788 E10.85233
G1 X183.048 Y66.139 E10.8761
G1 X183.048 Y67.095 E10.94074
G1 X183.088 Y67.575 E10.97331
G1 X183.207 Y68.042 E11.00589
G1 X183.328 Y68.316 E11.02614
G1 X183.328 Y68.607 E11.04582
G1 X183.194 Y68.375 E11.06393
G1 X182.976 Y67.929 E11.09749
G1 X182.789 Y67.467 E11.13119
G1 X182.634 Y66.989 E11.16517
G1 X182.52 Y66.527 E11.19734
G1 X182.428 Y66.015 E11.23251
G1 X182.38 Y65.548 E11.26425
G1 X182.362 Y65.041 E11.29855
G1 X182.38 Y64.535 E11.33279
G1 X182.429 Y64.061 E11.365
G1 X182.518 Y63.564 E11.39914
G1 X182.635 Y63.088 E11.43228
G1 X182.789 Y62.615 E11.46591
G1 X182.976 Y62.154 E11.49955
G1 X183.194 Y61.708 E11.53311
G1 X183.436 Y61.288 E11.56589
G1 X183.715 Y60.874 E11.59964
G1 X184.028 Y60.474 E11.63398
G1 X184.352 Y60.115 E11.66668
G1 X184.711 Y59.768 E11.70044
G1 X185.082 Y59.456 E11.73321
G1 X185.498 Y59.154 E11.76797
G1 X185.907 Y58.898 E11.80059
G1 X186.348 Y58.664 E11.83434
G1 X186.794 Y58.466 E11.86734
G1 X187.258 Y58.297 E11.90072
G1 X187.74 Y58.157 E11.93466
G1 X188.224 Y58.055 E11.9681
G1 X188.718 Y57.986 E12.00183
G1 X189.207 Y57.952 E12.03497
G1 X189.705 Y57.952 E12.06864
G1 X190.194 Y57.986 E12.10178
G1 X190.7 Y58.057 E12.13633
G1 X191.16 Y58.154 E12.16811
G1 X191.654 Y58.297 E12.20288
G1 X192.118 Y58.466 E12.23627
G1 X192.564 Y58.664 E12.26926
G1 X193.005 Y58.898 E12.30302
G1 X193.414 Y59.154 E12.33564
G1 X193.83 Y59.456 E12.3704
G1 X194.202 Y59.768 E12.40322
G1 X194.563 Y60.116 E12.43712
G1 X194.885 Y60.475 E12.46973
G1 X195.201 Y60.879 E12.50441
G1 X195.463 Y61.267 E12.53606
G1 X195.726 Y61.722 E12.57159
G1 X195.94 Y62.162 E12.60468
G1 X196.122 Y62.611 E12.63743
G1 X196.199 Y62.848 E12.65428
G1 X186.339 Y62.848 E13.32093
G1 X185.859 Y62.888 E13.35349
G1 X185.392 Y63.007 E13.38608
G1 X184.952 Y63.201 E13.41859
G1 X184.549 Y63.465 E13.45116
G0 F6000 X185.259 Y64.253
G1 F1200 X185.032 Y64.445 E13.47126
G1 X184.645 Y64.832 E13.50827
G1 X184.403 Y65.131 E13.53427
G1 X184.228 Y65.472 E13.56019
G1 X184.128 Y65.843 E13.58617
G1 X184.104 Y66.139 E13.60625
G1 X184.104 Y67.095 E13.67088
G1 X184.144 Y67.477 E13.69685
G1 X184.262 Y67.842 E13.72279
G1 X184.384 Y68.055 E13.73938
G1 X184.384 Y71.419 E13.96683
G1 X183.999 Y71.096 E14.0008
G1 X183.592 Y70.703 E14.03906
G1 X183.214 Y70.282 E14.07731
G1 X182.861 Y69.832 E14.11598
G1 X182.545 Y69.362 E14.15427
G1 X182.259 Y68.867 E14.19292
G1 X182.01 Y68.358 E14.23124
G1 X181.798 Y67.835 E14.26939
G1 X181.617 Y67.277 E14.30905
G1 X181.484 Y66.739 E14.34652
G1 X181.383 Y66.172 E14.38546
G1 X181.326 Y65.621 E14.42291
G1 X181.305 Y65.041 E14.46215
G1 X181.326 Y64.461 E14.5014
G1 X181.384 Y63.904 E14.53926
G1 X181.483 Y63.349 E14.57737
G1 X181.618 Y62.803 E14.6154
G1 X181.798 Y62.248 E14.65485
G1 X182.013 Y61.719 E14.69346
G1 X182.259 Y61.216 E14.73132
G1 X182.549 Y60.714 E14.77051
G1 X182.856 Y60.258 E14.80768
G1 X183.221 Y59.793 E14.84765
G1 X183.592 Y59.38 E14.88518
G1 X183.999 Y58.987 E14.92344
G1 X184.439 Y58.617 E14.9623
G1 X184.902 Y58.281 E15.00098
G1 X185.384 Y57.98 E15.0394
G1 X185.879 Y57.717 E15.0773
G1 X186.399 Y57.486 E15.11577
G1 X186.942 Y57.289 E15.15483
G1 X187.475 Y57.135 E15.19234
G1 X188.047 Y57.014 E15.23187
G1 X188.6 Y56.936 E15.26963
G1 X189.177 Y56.896 E15.30873
G1 X189.735 Y56.896 E15.34646
G1 X190.313 Y56.936 E15.38563
G1 X190.88 Y57.016 E15.42435
G1 X191.423 Y57.13 E15.46186
G1 X191.97 Y57.289 E15.50037
G1 X192.513 Y57.486 E15.53943
G1 X193.033 Y57.717 E15.5779
G1 X193.528 Y57.98 E15.6158
G1 X194.01 Y58.281 E15.65422
G1 X194.473 Y58.617 E15.6929
G1 X194.913 Y58.988 E15.73181
G1 X195.321 Y59.381 E15.77011
G1 X195.695 Y59.796 E15.80788
G1 X196.051 Y60.252 E15.847
G1 X196.371 Y60.726 E15.88566
G1 X196.659 Y61.225 E15.92462
G1 X196.9 Y61.719 E15.96178
G1 X197.112 Y62.244 E16.00006
G1 X197.292 Y62.799 E16.03951
G1 X197.429 Y63.344 E16.0775
G1 X197.528 Y63.904 E16.11595
G1 X186.339 Y63.904 E16.87245
G1 X185.957 Y63.944 E16.89842
G1 X185.592 Y64.062 E16.92436
G1 X185.259 Y64.253 E16.95031
G0 F6000 X185.779 Y65.192
G1 F1200 X185.392 Y65.579 E16.98732
G1 X185.245 Y65.782 E17.00426
G1 X185.16 Y66.139 E17.02908
G1 X185.16 Y67.095 E17.09371
G1 X185.2 Y67.343 E17.1107
G1 X185.315 Y67.566 E17.12766
G1 X185.44 Y67.688 E17.13947
G1 X185.44 Y73.325 E17.52059
G1 X185.41 Y73.312 E17.5228
G1 X184.852 Y73.015 E17.56554
G1 X184.311 Y72.677 E17.60867
G1 X183.778 Y72.29 E17.65321
G1 X183.302 Y71.89 E17.69524
G1 X182.833 Y71.437 E17.73933
G1 X182.406 Y70.963 E17.78246
G1 X182.002 Y70.447 E17.82677
G1 X181.65 Y69.924 E17.8694
G1 X181.33 Y69.369 E17.91271
G1 X181.04 Y68.776 E17.95734
G1 X180.805 Y68.195 E17.99972
G1 X180.604 Y67.578 E18.04359
G1 X180.452 Y66.962 E18.08649
G1 X180.337 Y66.318 E18.13072
G1 X180.272 Y65.692 E18.17327
G1 X180.249 Y65.041 E18.21731
G1 X180.272 Y64.387 E18.26156
G1 X180.337 Y63.765 E18.30384
G1 X180.452 Y63.119 E18.3482
G1 X180.604 Y62.504 E18.39104
G1 X180.805 Y61.888 E18.43485
G1 X181.04 Y61.307 E18.47722
G1 X181.33 Y60.714 E18.52185
G1 X181.652 Y60.156 E18.56541
G1 X182.008 Y59.627 E18.60852
G1 X182.399 Y59.128 E18.65138
G1 X182.833 Y58.646 E18.69523
G1 X183.302 Y58.193 E18.73932
G1 X183.778 Y57.792 E18.7814
G1 X184.316 Y57.402 E18.82633
G1 X184.854 Y57.066 E18.86921
G1 X185.415 Y56.767 E18.91219
G1 X186.01 Y56.503 E18.9562
G1 X186.599 Y56.289 E18.99857
G1 X187.225 Y56.108 E19.04263
G1 X187.867 Y55.972 E19.087
G1 X188.496 Y55.884 E19.12994
G1 X189.131 Y55.84 E19.17298
G1 X189.781 Y55.84 E19.21693
G1 X190.416 Y55.884 E19.25996
G1 X191.06 Y55.974 E19.30393
G1 X191.673 Y56.104 E19.3463
G1 X192.313 Y56.289 E19.39134
G1 X192.902 Y56.503 E19.43371
G1 X193.497 Y56.767 E19.47772
G1 X194.058 Y57.066 E19.5207
G1 X194.596 Y57.402 E19.56359
G1 X195.134 Y57.792 E19.60851
G1 X195.61 Y58.193 E19.65059
G1 X196.08 Y58.646 E19.69473
G1 X196.504 Y59.118 E19.73763
G1 X196.914 Y59.642 E19.78261
G1 X197.258 Y60.152 E19.8242
G1 X197.591 Y60.728 E19.86919
G1 X197.87 Y61.3 E19.91222
G1 X198.108 Y61.889 E19.95517
G1 X198.308 Y62.504 E19.99889
G1 X198.461 Y63.116 E20.04154
G1 X198.574 Y63.755 E20.08542
G1 X198.641 Y64.405 E20.1296
G1 X198.661 Y64.96 E20.16715
G1 X186.339 Y64.96 E21.00025
G1 X186.091 Y65 E21.01723
G1 X185.779 Y65.192 E21.042
G0 F6000 X186.152 Y65.565
G1 F1200 X185.765 Y65.952 E21.07901
G1 X185.688 Y66.139 E21.09268
G1 X185.688 Y67.095 E21.15732
G1 X185.727 Y67.233 E21.16701
G1 X185.968 Y67.387 E21.18635
G1 X185.968 Y74.126 E21.64198
G1 X185.814 Y74.071 E21.65304
G1 X185.189 Y73.792 E21.69931
G1 X184.583 Y73.47 E21.74571
G1 X184.024 Y73.12 E21.7903
G1 X183.456 Y72.709 E21.83771
G1 X182.938 Y72.274 E21.88344
G1 X182.453 Y71.805 E21.92905
G1 X182.005 Y71.307 E21.97434
G1 X181.572 Y70.754 E22.02183
G1 X181.204 Y70.208 E22.06635
G1 X180.856 Y69.604 E22.11348
G1 X180.564 Y69.005 E22.15853
G1 X180.305 Y68.367 E22.20509
G1 X180.092 Y67.71 E22.25179
G1 X179.935 Y67.075 E22.29601
G1 X179.814 Y66.397 E22.34258
G1 X179.744 Y65.719 E22.38866
G1 X179.72 Y65.041 E22.43453
G1 X179.744 Y64.364 E22.48033
G1 X179.815 Y63.681 E22.52676
G1 X179.936 Y63.003 E22.57332
G1 X180.092 Y62.373 E22.6172
G1 X180.305 Y61.716 E22.6639
G1 X180.565 Y61.074 E22.71073
G1 X180.856 Y60.479 E22.75551
G1 X181.205 Y59.874 E22.80274
G1 X181.572 Y59.329 E22.84716
G1 X182.006 Y58.775 E22.89474
G1 X182.456 Y58.275 E22.94022
G1 X182.938 Y57.809 E22.98555
G1 X183.456 Y57.374 E23.03129
G1 X184.018 Y56.966 E23.07824
G1 X184.595 Y56.605 E23.12426
G1 X185.189 Y56.29 E23.16972
G1 X185.809 Y56.015 E23.21558
G1 X186.433 Y55.787 E23.26049
G1 X187.104 Y55.594 E23.3077
G1 X187.771 Y55.452 E23.35381
G1 X188.444 Y55.358 E23.39975
G1 X189.109 Y55.312 E23.44482
G1 X189.803 Y55.312 E23.49174
G1 X190.468 Y55.358 E23.53681
G1 X191.156 Y55.454 E23.58378
G1 X191.794 Y55.59 E23.62788
G1 X192.479 Y55.787 E23.67607
G1 X193.103 Y56.015 E23.72099
G1 X193.723 Y56.29 E23.76685
G1 X194.317 Y56.605 E23.81231
G1 X194.894 Y56.966 E23.85832
G1 X195.456 Y57.374 E23.90528
G1 X195.974 Y57.809 E23.95101
G1 X196.457 Y58.275 E23.99639
G1 X196.906 Y58.774 E24.04178
G1 X197.336 Y59.324 E24.08898
G1 X197.707 Y59.874 E24.13383
G1 X198.062 Y60.488 E24.18179
G1 X198.347 Y61.073 E24.22578
G1 X198.606 Y61.713 E24.27246
G1 X198.817 Y62.363 E24.31867
G1 X198.977 Y63.003 E24.36327
G1 X199.097 Y63.68 E24.40976
G1 X199.168 Y64.366 E24.45639
G1 X199.192 Y65.041 E24.50205
G1 X199.176 Y65.488 E24.53229
G1 X186.339 Y65.488 E25.40022
G1 X186.152 Y65.565 E25.41389
G1 F1500 E20.41389
G1 F300 Z0.48
