;FLAVOR:Marlin
;TIME:10726
;Filament used: 7.57736m
;Layer height: 0.16
;MINX:162.353
;MINY:141.822
;MINZ:0.28
;MAXX:256.083
;MAXY:235.752
;MAXZ:43.2
;Generated with Cura_SteamEngine 4.13.1
M140 S95
M105
M190 S95
M104 S220
M105
M109 S220
M82 ;absolute extrusion mode
G28 ; home all axes
 M117 Purge extruder
 G92 E0 ; reset extruder
 G1 Z1.0 F3000 ; move z up little to prevent scratching of surface
 G1 X2 Y20 Z0.3 F5000.0 ; move to start-line position
 G1 X2 Y200.0 Z0.3 F1500.0 E15 ; draw 1st line
 G1 X2 Y200.0 Z0.4 F5000.0 ; move to side a little
 G1 X2 Y20 Z0.4 F1500.0 E30 ; draw 2nd line
 G92 E0 ; reset extruder
 G1 Z1.0 F3000 ; move z up little to prevent scratching of surface
G92 E0
G92 E0
G1 F1500 E-5
;LAYER_COUNT:252
;LAYER:0
M107
;MESH:casquette.stl
G0 F6000 X254.098 Y143.807 Z0.28
;TYPE:WALL-INNER
G1 F1500 E0
G1 F1200 X254.098 Y233.767 E7.18818
G1 X164.338 Y233.767 E14.36037
G1 X164.338 Y143.807 E21.54855
G1 X254.098 Y143.807 E28.72075
G0 F6000 X254.626 Y143.279
G1 F1200 X254.626 Y234.295 E35.9933
G1 X163.81 Y234.295 E43.24988
G1 X163.81 Y143.279 E50.52243
G1 X254.626 Y143.279 E57.77901
G0 F6000 X255.154 Y142.751
;TYPE:WALL-OUTER
G1 F1200 X255.154 Y234.823 E65.13594
G1 X163.282 Y234.823 E72.4769
G1 X163.282 Y142.751 E79.83383
G1 X255.154 Y142.751 E87.17479
G0 F6000 X253.556 Y144.349
;TYPE:SKIN
G1 F1200 X253.556 Y233.225 E94.92194
G1 X164.88 Y233.225 E102.65167
G1 X164.88 Y144.349 E110.39883
G1 X253.556 Y144.349 E118.12855
G0 F6000 X253.313 Y144.973
G1 F1200 X252.931 Y144.591 E118.17564
G0 F6000 X252.116 Y144.591
G1 F1200 X253.313 Y145.787 E118.32314
G0 F6000 X253.313 Y146.602
G1 F1200 X251.302 Y144.591 E118.57104
G0 F6000 X250.487 Y144.591
G1 F1200 X253.313 Y147.416 E118.91935
G0 F6000 X253.313 Y148.231
G1 F1200 X249.673 Y144.591 E119.36807
G0 F6000 X248.858 Y144.591
G1 F1200 X253.313 Y149.046 E119.91726
G0 F6000 X253.313 Y149.86
G1 F1200 X248.043 Y144.591 E120.56686
G0 F6000 X247.229 Y144.591
G1 F1200 X253.313 Y150.675 E121.31686
G0 F6000 X253.313 Y151.489
G1 F1200 X246.414 Y144.591 E122.16727
G0 F6000 X245.6 Y144.591
G1 F1200 X253.313 Y152.304 E123.11808
G0 F6000 X253.313 Y153.119
G1 F1200 X244.785 Y144.591 E124.16936
G0 F6000 X243.97 Y144.591
G1 F1200 X253.313 Y153.933 E125.32106
G0 F6000 X253.313 Y154.748
G1 F1200 X243.156 Y144.591 E126.57315
G0 F6000 X242.341 Y144.591
G1 F1200 X253.313 Y155.562 E127.92566
G0 F6000 X253.313 Y156.377
G1 F1200 X241.527 Y144.591 E129.37857
G0 F6000 X240.712 Y144.591
G1 F1200 X253.313 Y157.191 E130.93189
G0 F6000 X253.313 Y158.006
G1 F1200 X239.897 Y144.591 E132.58568
G0 F6000 X239.083 Y144.591
G1 F1200 X253.313 Y158.821 E134.33987
G0 F6000 X253.313 Y159.635
G1 F1200 X238.268 Y144.591 E136.19447
G0 F6000 X237.454 Y144.591
G1 F1200 X253.313 Y160.45 E138.14948
G0 F6000 X253.313 Y161.264
G1 F1200 X236.639 Y144.591 E140.2049
G0 F6000 X235.825 Y144.591
G1 F1200 X253.313 Y162.079 E142.36072
G0 F6000 X253.313 Y162.894
G1 F1200 X235.01 Y144.591 E144.61701
G0 F6000 X234.195 Y144.591
G1 F1200 X253.313 Y163.708 E146.97371
G0 F6000 X253.313 Y164.523
G1 F1200 X233.381 Y144.591 E149.43082
G0 F6000 X232.566 Y144.591
G1 F1200 X253.313 Y165.337 E151.98833
G0 F6000 X253.313 Y166.152
G1 F1200 X231.752 Y144.591 E154.64625
G0 F6000 X230.937 Y144.591
G1 F1200 X253.313 Y166.967 E157.40464
G0 F6000 X253.313 Y167.781
G1 F1200 X230.122 Y144.591 E160.26343
G0 F6000 X229.308 Y144.591
G1 F1200 X253.313 Y168.596 E163.22263
G0 F6000 X253.313 Y169.41
G1 F1200 X228.493 Y144.591 E166.28224
G0 F6000 X227.679 Y144.591
G1 F1200 X253.313 Y170.225 E169.44226
G0 F6000 X253.313 Y171.039
G1 F1200 X226.864 Y144.591 E172.70268
G0 F6000 X226.05 Y144.591
G1 F1200 X253.313 Y171.854 E176.06351
G0 F6000 X253.313 Y172.669
G1 F1200 X225.235 Y144.591 E179.52481
G0 F6000 X224.42 Y144.591
G1 F1200 X253.313 Y173.483 E183.08651
G0 F6000 X253.313 Y174.298
G1 F1200 X223.606 Y144.591 E186.74863
G0 F6000 X222.791 Y144.591
G1 F1200 X253.313 Y175.112 E190.51115
G0 F6000 X253.313 Y175.927
G1 F1200 X221.977 Y144.591 E194.37407
G0 F6000 X221.162 Y144.591
G1 F1200 X253.313 Y176.742 E198.33747
G0 F6000 X253.313 Y177.556
G1 F1200 X220.347 Y144.591 E202.40127
G0 F6000 X219.533 Y144.591
G1 F1200 X253.313 Y178.371 E206.56548
G0 F6000 X253.313 Y179.185
G1 F1200 X218.718 Y144.591 E210.83009
G0 F6000 X217.904 Y144.591
G1 F1200 X253.313 Y180 E215.19512
G0 F6000 X253.313 Y180.814
G1 F1200 X217.089 Y144.591 E219.66055
G0 F6000 X216.274 Y144.591
G1 F1200 X253.313 Y181.629 E224.22645
G0 F6000 X253.313 Y182.444
G1 F1200 X215.46 Y144.591 E228.89275
G0 F6000 X214.645 Y144.591
G1 F1200 X253.313 Y183.258 E233.65947
G0 F6000 X253.313 Y184.073
G1 F1200 X213.831 Y144.591 E238.52659
G0 F6000 X213.016 Y144.591
G1 F1200 X253.313 Y184.887 E243.49411
G0 F6000 X253.313 Y185.702
G1 F1200 X212.202 Y144.591 E248.56205
G0 F6000 X211.387 Y144.591
G1 F1200 X253.313 Y186.517 E253.73045
G0 F6000 X253.313 Y187.331
G1 F1200 X210.572 Y144.591 E258.99926
G0 F6000 X209.758 Y144.591
G1 F1200 X253.313 Y188.146 E264.36847
G0 F6000 X253.313 Y188.96
G1 F1200 X208.943 Y144.591 E269.8381
G0 F6000 X208.129 Y144.591
G1 F1200 X253.313 Y189.775 E275.40813
G0 F6000 X253.313 Y190.59
G1 F1200 X207.314 Y144.591 E281.07863
G0 F6000 X206.499 Y144.591
G1 F1200 X253.313 Y191.404 E286.84953
G0 F6000 X253.313 Y192.219
G1 F1200 X205.685 Y144.591 E292.72085
G0 F6000 X204.87 Y144.591
G1 F1200 X253.313 Y193.033 E298.69257
G0 F6000 X253.313 Y193.848
G1 F1200 X204.056 Y144.591 E304.76469
G0 F6000 X203.241 Y144.591
G1 F1200 X253.313 Y194.662 E310.93723
G0 F6000 X253.313 Y195.477
G1 F1200 X202.426 Y144.591 E317.21023
G0 F6000 X201.612 Y144.591
G1 F1200 X253.313 Y196.292 E323.58364
G0 F6000 X253.313 Y197.106
G1 F1200 X200.797 Y144.591 E330.05745
G0 F6000 X199.983 Y144.591
G1 F1200 X253.313 Y197.921 E336.63168
G0 F6000 X253.313 Y198.735
G1 F1200 X199.168 Y144.591 E343.30631
G0 F6000 X198.354 Y144.591
G1 F1200 X253.313 Y199.55 E350.08135
G0 F6000 X253.313 Y200.365
G1 F1200 X197.539 Y144.591 E356.95685
G0 F6000 X196.724 Y144.591
G1 F1200 X253.313 Y201.179 E363.93277
G0 F6000 X253.313 Y201.994
G1 F1200 X195.91 Y144.591 E371.00909
G0 F6000 X195.095 Y144.591
G1 F1200 X253.313 Y202.808 E378.18581
G0 F6000 X253.313 Y203.623
G1 F1200 X194.281 Y144.591 E385.46295
G0 F6000 X193.466 Y144.591
G1 F1200 X253.313 Y204.438 E392.84055
G0 F6000 X253.313 Y205.252
G1 F1200 X192.651 Y144.591 E400.31856
G0 F6000 X191.837 Y144.591
G1 F1200 X253.313 Y206.067 E407.89698
G0 F6000 X253.313 Y206.881
G1 F1200 X191.022 Y144.591 E415.5758
G0 F6000 X190.208 Y144.591
G1 F1200 X253.313 Y207.696 E423.35503
G0 F6000 X253.313 Y208.51
G1 F1200 X189.393 Y144.591 E431.23467
G0 F6000 X188.579 Y144.591
G1 F1200 X253.313 Y209.325 E439.21471
G0 F6000 X253.313 Y210.14
G1 F1200 X187.764 Y144.591 E447.29523
G0 F6000 X186.949 Y144.591
G1 F1200 X253.313 Y210.954 E455.47615
G0 F6000 X253.313 Y211.769
G1 F1200 X186.135 Y144.591 E463.75748
G0 F6000 X185.32 Y144.591
G1 F1200 X253.313 Y212.583 E472.13921
G0 F6000 X253.313 Y213.398
G1 F1200 X184.506 Y144.591 E480.62135
G0 F6000 X183.691 Y144.591
G1 F1200 X253.313 Y214.213 E489.20396
G0 F6000 X253.313 Y215.027
G1 F1200 X182.876 Y144.591 E497.88698
G0 F6000 X182.062 Y144.591
G1 F1200 X253.313 Y215.842 E506.6704
G0 F6000 X253.313 Y216.656
G1 F1200 X181.247 Y144.591 E515.55423
G0 F6000 X180.433 Y144.591
G1 F1200 X253.313 Y217.471 E524.53847
G0 F6000 X253.313 Y218.285
G1 F1200 X179.618 Y144.591 E533.62312
G0 F6000 X178.803 Y144.591
G1 F1200 X253.313 Y219.1 E542.80823
G0 F6000 X253.313 Y219.915
G1 F1200 X177.989 Y144.591 E552.09375
G0 F6000 X177.174 Y144.591
G1 F1200 X253.313 Y220.729 E561.47968
G0 F6000 X253.313 Y221.544
G1 F1200 X176.36 Y144.591 E570.96601
G0 F6000 X175.545 Y144.591
G1 F1200 X253.313 Y222.358 E580.55275
G0 F6000 X253.313 Y223.173
G1 F1200 X174.731 Y144.591 E590.2399
G0 F6000 X173.916 Y144.591
G1 F1200 X253.313 Y223.988 E600.02752
G0 F6000 X253.313 Y224.802
G1 F1200 X173.101 Y144.591 E609.91555
G0 F6000 X172.287 Y144.591
G1 F1200 X253.313 Y225.617 E619.90398
G0 F6000 X253.313 Y226.431
G1 F1200 X171.472 Y144.591 E629.99281
G0 F6000 X170.658 Y144.591
G1 F1200 X253.313 Y227.246 E640.18206
G0 F6000 X253.313 Y228.061
G1 F1200 X169.843 Y144.591 E650.47177
G0 F6000 X169.028 Y144.591
G1 F1200 X253.313 Y228.875 E660.86189
G0 F6000 X253.313 Y229.69
G1 F1200 X168.214 Y144.591 E671.35242
G0 F6000 X167.399 Y144.591
G1 F1200 X253.313 Y230.504 E681.94336
G0 F6000 X253.313 Y231.319
G1 F1200 X166.585 Y144.591 E692.6347
G0 F6000 X165.77 Y144.591
G1 F1200 X253.313 Y232.133 E703.42645
G0 F6000 X253.313 Y232.948
G1 F1200 X165.121 Y144.756 E714.29826
G0 F6000 X165.121 Y145.571
G1 F1200 X252.531 Y232.981 E725.07368
G0 F6000 X251.717 Y232.981
G1 F1200 X165.121 Y146.385 E735.74875
G0 F6000 X165.121 Y147.2
G1 F1200 X250.902 Y232.981 E746.32335
G0 F6000 X250.088 Y232.981
G1 F1200 X165.121 Y148.015 E756.79754
G0 F6000 X165.121 Y148.829
G1 F1200 X249.273 Y232.981 E767.17133
G0 F6000 X248.458 Y232.981
G1 F1200 X165.121 Y149.644 E777.44465
G0 F6000 X165.121 Y150.458
G1 F1200 X247.644 Y232.981 E787.61762
G0 F6000 X246.829 Y232.981
G1 F1200 X165.121 Y151.273 E797.69013
G0 F6000 X165.121 Y152.088
G1 F1200 X246.015 Y232.981 E807.66222
G0 F6000 X245.2 Y232.981
G1 F1200 X165.121 Y152.902 E817.53391
G0 F6000 X165.121 Y153.717
G1 F1200 X244.386 Y232.981 E827.3052
G0 F6000 X243.571 Y232.981
G1 F1200 X165.121 Y154.531 E836.97607
G0 F6000 X165.121 Y155.346
G1 F1200 X242.756 Y232.981 E846.54648
G0 F6000 X241.942 Y232.981
G1 F1200 X165.121 Y156.16 E856.01654
G0 F6000 X165.121 Y156.975
G1 F1200 X241.127 Y232.981 E865.38614
G0 F6000 X240.313 Y232.981
G1 F1200 X165.121 Y157.79 E874.65533
G0 F6000 X165.121 Y158.604
G1 F1200 X239.498 Y232.981 E883.8241
G0 F6000 X238.683 Y232.981
G1 F1200 X165.121 Y159.419 E892.89242
G0 F6000 X165.121 Y160.233
G1 F1200 X237.869 Y232.981 E901.86038
G0 F6000 X237.054 Y232.981
G1 F1200 X165.121 Y161.048 E910.72788
G0 F6000 X165.121 Y161.863
G1 F1200 X236.24 Y232.981 E919.49497
G0 F6000 X235.425 Y232.981
G1 F1200 X165.121 Y162.677 E928.16165
G0 F6000 X165.121 Y163.492
G1 F1200 X234.61 Y232.981 E936.72787
G0 F6000 X233.796 Y232.981
G1 F1200 X165.121 Y164.306 E945.19374
G0 F6000 X165.121 Y165.121
G1 F1200 X232.981 Y232.981 E953.55914
G0 F6000 X232.167 Y232.981
G1 F1200 X165.121 Y165.936 E961.82413
G0 F6000 X165.121 Y166.75
G1 F1200 X231.352 Y232.981 E969.98872
G0 F6000 X230.538 Y232.981
G1 F1200 X165.121 Y167.565 E978.0529
G0 F6000 X165.121 Y168.379
G1 F1200 X229.723 Y232.981 E986.01667
G0 F6000 X228.908 Y232.981
G1 F1200 X165.121 Y169.194 E993.87997
G0 F6000 X165.121 Y170.008
G1 F1200 X228.094 Y232.981 E1001.64293
G0 F6000 X227.279 Y232.981
G1 F1200 X165.121 Y170.823 E1009.30542
G0 F6000 X165.121 Y171.638
G1 F1200 X226.465 Y232.981 E1016.8675
G0 F6000 X225.65 Y232.981
G1 F1200 X165.121 Y172.452 E1024.32918
G0 F6000 X165.121 Y173.267
G1 F1200 X224.835 Y232.981 E1031.69039
G0 F6000 X224.021 Y232.981
G1 F1200 X165.121 Y174.081 E1038.95125
G0 F6000 X165.121 Y174.896
G1 F1200 X223.206 Y232.981 E1046.11164
G0 F6000 X222.392 Y232.981
G1 F1200 X165.121 Y175.711 E1053.17163
G0 F6000 X165.121 Y176.525
G1 F1200 X221.577 Y232.981 E1060.13121
G0 F6000 X220.762 Y232.981
G1 F1200 X165.121 Y177.34 E1066.99032
G0 F6000 X165.121 Y178.154
G1 F1200 X219.948 Y232.981 E1073.74909
G0 F6000 X219.133 Y232.981
G1 F1200 X165.121 Y178.969 E1080.40738
G0 F6000 X165.121 Y179.784
G1 F1200 X218.319 Y232.981 E1086.96527
G0 F6000 X217.504 Y232.981
G1 F1200 X165.121 Y180.598 E1093.42275
G0 F6000 X165.121 Y181.413
G1 F1200 X216.69 Y232.981 E1099.77983
G0 F6000 X215.875 Y232.981
G1 F1200 X165.121 Y182.227 E1106.0365
G0 F6000 X165.121 Y183.042
G1 F1200 X215.06 Y232.981 E1112.1927
G0 F6000 X214.246 Y232.981
G1 F1200 X165.121 Y183.856 E1118.24855
G0 F6000 X165.121 Y184.671
G1 F1200 X213.431 Y232.981 E1124.20394
G0 F6000 X212.617 Y232.981
G1 F1200 X165.121 Y185.486 E1130.05892
G0 F6000 X165.121 Y186.3
G1 F1200 X211.802 Y232.981 E1135.81349
G0 F6000 X210.987 Y232.981
G1 F1200 X165.121 Y187.115 E1141.46759
G0 F6000 X165.121 Y187.929
G1 F1200 X210.173 Y232.981 E1147.02135
G0 F6000 X209.358 Y232.981
G1 F1200 X165.121 Y188.744 E1152.47464
G0 F6000 X165.121 Y189.559
G1 F1200 X208.544 Y232.981 E1157.82752
G0 F6000 X207.729 Y232.981
G1 F1200 X165.121 Y190.373 E1163.08
G0 F6000 X165.121 Y191.188
G1 F1200 X206.915 Y232.981 E1168.23207
G0 F6000 X206.1 Y232.981
G1 F1200 X165.121 Y192.002 E1173.28373
G0 F6000 X165.121 Y192.817
G1 F1200 X205.285 Y232.981 E1178.23492
G0 F6000 X204.471 Y232.981
G1 F1200 X165.121 Y193.631 E1183.08577
G0 F6000 X165.121 Y194.446
G1 F1200 X203.656 Y232.981 E1187.83615
G0 F6000 X202.842 Y232.981
G1 F1200 X165.121 Y195.261 E1192.48612
G0 F6000 X165.121 Y196.075
G1 F1200 X202.027 Y232.981 E1197.03569
G0 F6000 X201.212 Y232.981
G1 F1200 X165.121 Y196.89 E1201.48478
G0 F6000 X165.121 Y197.704
G1 F1200 X200.398 Y232.981 E1205.83353
G0 F6000 X199.583 Y232.981
G1 F1200 X165.121 Y198.519 E1210.08182
G0 F6000 X165.121 Y199.334
G1 F1200 X198.769 Y232.981 E1214.22969
G0 F6000 X197.954 Y232.981
G1 F1200 X165.121 Y200.148 E1218.27716
G0 F6000 X165.121 Y200.963
G1 F1200 X197.139 Y232.981 E1222.22416
G0 F6000 X196.325 Y232.981
G1 F1200 X165.121 Y201.777 E1226.07081
G0 F6000 X165.121 Y202.592
G1 F1200 X195.51 Y232.981 E1229.817
G0 F6000 X194.696 Y232.981
G1 F1200 X165.121 Y203.407 E1233.46278
G0 F6000 X165.121 Y204.221
G1 F1200 X193.881 Y232.981 E1237.00815
G0 F6000 X193.067 Y232.981
G1 F1200 X165.121 Y205.036 E1240.45311
G0 F6000 X165.121 Y205.85
G1 F1200 X192.252 Y232.981 E1243.79767
G0 F6000 X191.437 Y232.981
G1 F1200 X165.121 Y206.665 E1247.04176
G0 F6000 X165.121 Y207.479
G1 F1200 X190.623 Y232.981 E1250.1855
G0 F6000 X189.808 Y232.981
G1 F1200 X165.121 Y208.294 E1253.22878
G0 F6000 X165.121 Y209.109
G1 F1200 X188.994 Y232.981 E1256.17165
G0 F6000 X188.179 Y232.981
G1 F1200 X165.121 Y209.923 E1259.01411
G0 F6000 X165.121 Y210.738
G1 F1200 X187.364 Y232.981 E1261.7561
G0 F6000 X186.55 Y232.981
G1 F1200 X165.121 Y211.552 E1264.39775
G0 F6000 X165.121 Y212.367
G1 F1200 X185.735 Y232.981 E1266.93893
G0 F6000 X184.921 Y232.981
G1 F1200 X165.121 Y213.182 E1269.3797
G0 F6000 X165.121 Y213.996
G1 F1200 X184.106 Y232.981 E1271.72006
G0 F6000 X183.291 Y232.981
G1 F1200 X165.121 Y214.811 E1273.95996
G0 F6000 X165.121 Y215.625
G1 F1200 X182.477 Y232.981 E1276.09951
G0 F6000 X181.662 Y232.981
G1 F1200 X165.121 Y216.44 E1278.13859
G0 F6000 X165.121 Y217.255
G1 F1200 X180.848 Y232.981 E1280.07726
G0 F6000 X180.033 Y232.981
G1 F1200 X165.121 Y218.069 E1281.91553
G0 F6000 X165.121 Y218.884
G1 F1200 X179.219 Y232.981 E1283.65339
G0 F6000 X178.404 Y232.981
G1 F1200 X165.121 Y219.698 E1285.29085
G0 F6000 X165.121 Y220.513
G1 F1200 X177.589 Y232.981 E1286.82783
G0 F6000 X176.775 Y232.981
G1 F1200 X165.121 Y221.327 E1288.26447
G0 F6000 X165.121 Y222.142
G1 F1200 X175.96 Y232.981 E1289.60064
G0 F6000 X175.146 Y232.981
G1 F1200 X165.121 Y222.957 E1290.83641
G0 F6000 X165.121 Y223.771
G1 F1200 X174.331 Y232.981 E1291.97176
G0 F6000 X173.516 Y232.981
G1 F1200 X165.121 Y224.586 E1293.00665
G0 F6000 X165.121 Y225.4
G1 F1200 X172.702 Y232.981 E1293.9412
G0 F6000 X171.887 Y232.981
G1 F1200 X165.121 Y226.215 E1294.77527
G0 F6000 X165.121 Y227.03
G1 F1200 X171.073 Y232.981 E1295.50894
G0 F6000 X170.258 Y232.981
G1 F1200 X165.121 Y227.844 E1296.1422
G0 F6000 X165.121 Y228.659
G1 F1200 X169.443 Y232.981 E1296.67499
G0 F6000 X168.629 Y232.981
G1 F1200 X165.121 Y229.473 E1297.10744
G0 F6000 X165.121 Y230.288
G1 F1200 X167.814 Y232.981 E1297.43942
G0 F6000 X167 Y232.981
G1 F1200 X165.121 Y231.103 E1297.67099
G0 F6000 X165.121 Y231.917
G1 F1200 X166.185 Y232.981 E1297.80215
G0 F6000 X165.371 Y232.981
G1 F1200 X165.121 Y232.732 E1297.83291
G1 F1500 E1292.83291
;MESH:NONMESH
G0 F300 X165.121 Y232.732 Z0.48
G0 F6000 X162.353 Y232.732
G0 X162.365 Y141.834
G0 X254.318 Y141.822
G0 X254.318 Y143.587
;TIME_ELAPSED:775.619091
;LAYER:1
M140 S85
M106 S8.1
;TYPE:WALL-INNER
;MESH:casquette.stl
G1 F1500 E1297.83291
G1 F1350 X254.318 Y233.987 E1301.1403
G1 X164.118 Y233.987 E1304.44037
G1 X164.118 Y143.587 E1307.74775
G1 X254.318 Y143.587 E1311.04782
G0 F7500 X254.758 Y143.147
