;FLAVOR:Marlin
;TIME:5682
;Filament used: 4.06286m
;Layer height: 0.16
;MINX:107.825
;MINY:96.35
;MINZ:0.28
;MAXX:196.146
;MAXY:202.594
;MAXZ:4.6
;Generated with Cura_SteamEngine 4.12.1
M140 S100
M105
M190 S100
M104 S220
M105
M109 S220
M82 ;absolute extrusion mode
G28 ; home all axes
 M117 Purge extruder
 G92 E0 ; reset extruder
 G1 Z1.0 F3000 ; move z up little to prevent scratching of surface
 G1 X2 Y20 Z0.3 F5000.0 ; move to start-line position
 G1 X2 Y200.0 Z0.3 F1500.0 E15 ; draw 1st line
 G1 X2 Y200.0 Z0.4 F5000.0 ; move to side a little
 G1 X2 Y20 Z0.4 F1500.0 E30 ; draw 2nd line
 G92 E0 ; reset extruder
 G1 Z1.0 F3000 ; move z up little to prevent scratching of surface
G92 E0
G92 E0
G1 F1500 E-5
;LAYER_COUNT:29
;LAYER:0
M107
G0 F6000 X113.071 Y105.31 Z0.28
;TYPE:SKIRT
G1 F1500 E0
G1 F1200 X114.312 Y104.069 E0.12945
G1 X114.912 Y103.526 E0.18913
G1 X115.408 Y103.15 E0.23504
G1 X116.829 Y102.156 E0.36295
G1 X117.514 Y101.726 E0.4226
G1 X118.054 Y101.448 E0.4674
G1 X119.635 Y100.709 E0.59612
G1 X120.384 Y100.403 E0.6558
G1 X120.989 Y100.216 E0.7025
G1 X122.674 Y99.766 E0.83114
G1 X123.465 Y99.596 E0.89082
G1 X124.068 Y99.521 E0.93563
G1 X125.805 Y99.368 E1.06425
G1 X126.613 Y99.336 E1.12389
G1 X127.242 Y99.368 E1.17034
G1 X128.978 Y99.521 E1.29888
G1 X129.779 Y99.631 E1.35852
G1 X130.369 Y99.766 E1.40316
G1 X132.055 Y100.216 E1.53187
G1 X132.826 Y100.463 E1.59158
G1 X133.41 Y100.709 E1.63832
G1 X134.987 Y101.446 E1.76671
G1 X135.702 Y101.824 E1.82637
G1 X136.214 Y102.155 E1.87134
G1 X137.646 Y103.157 E2.00025
G1 X138.285 Y103.652 E2.05986
G1 X138.746 Y104.08 E2.10626
G1 X139.974 Y105.31 E2.23446
G1 X140.516 Y105.91 E2.29409
G1 X140.884 Y106.396 E2.33906
G1 X141.886 Y107.826 E2.46785
G1 X142.317 Y108.51 E2.52748
G1 X142.598 Y109.057 E2.57283
G1 X143.289 Y110.536 E2.69324
G1 X160.246 Y110.535 E3.94395
G1 X160.656 Y109.001 E4.06107
G1 X160.904 Y108.231 E4.12073
G1 X161.148 Y107.651 E4.16714
G1 X161.885 Y106.073 E4.2956
G1 X162.263 Y105.358 E4.35525
G1 X162.598 Y104.84 E4.40075
G1 X163.6 Y103.41 E4.52954
G1 X164.096 Y102.771 E4.58921
G1 X164.51 Y102.324 E4.63414
G1 X165.738 Y101.094 E4.76234
G1 X166.337 Y100.55 E4.82202
G1 X166.838 Y100.171 E4.86836
G1 X168.27 Y99.169 E4.99727
G1 X168.955 Y98.738 E5.05696
G1 X169.497 Y98.46 E5.10189
G1 X171.074 Y97.723 E5.23028
G1 X171.823 Y97.417 E5.28996
G1 X172.429 Y97.23 E5.33673
G1 X174.115 Y96.78 E5.46544
G1 X174.905 Y96.61 E5.52504
G1 X175.506 Y96.535 E5.56972
G1 X177.242 Y96.382 E5.69826
G1 X178.051 Y96.35 E5.75797
G1 X178.679 Y96.382 E5.80435
G1 X180.416 Y96.535 E5.93297
G1 X181.217 Y96.645 E5.9926
G1 X181.81 Y96.78 E6.03746
G1 X183.495 Y97.23 E6.1661
G1 X184.265 Y97.477 E6.22574
G1 X184.849 Y97.723 E6.27248
G1 X186.43 Y98.462 E6.4012
G1 X187.144 Y98.84 E6.46079
G1 X187.655 Y99.17 E6.50565
G1 X189.076 Y100.164 E6.63356
G1 X189.715 Y100.66 E6.69322
G1 X190.172 Y101.083 E6.73916
G1 X191.413 Y102.324 E6.8686
G1 X191.956 Y102.924 E6.92829
G1 X192.33 Y103.417 E6.97393
G1 X193.325 Y104.838 E7.10188
G1 X193.756 Y105.523 E7.16157
G1 X194.038 Y106.072 E7.2071
G1 X194.775 Y107.652 E7.33569
G1 X195.08 Y108.401 E7.39534
G1 X195.264 Y108.997 E7.44134
G1 X195.715 Y110.683 E7.57007
G1 X195.885 Y111.474 E7.62975
G1 X195.961 Y112.079 E7.67472
G1 X196.114 Y113.814 E7.80319
G1 X196.146 Y114.622 E7.86283
G1 X196.114 Y115.251 E7.90928
G1 X195.961 Y116.989 E8.03797
G1 X195.851 Y117.79 E8.0976
G1 X195.716 Y118.384 E8.14253
G1 X195.266 Y120.068 E8.2711
G1 X195.018 Y120.838 E8.33077
G1 X194.777 Y121.413 E8.37675
G1 X194.039 Y122.996 E8.50557
G1 X193.661 Y123.711 E8.56523
G1 X193.325 Y124.232 E8.61095
G1 X192.328 Y125.656 E8.73917
G1 X191.832 Y126.295 E8.79883
G1 X191.406 Y126.754 E8.84502
G1 X190.172 Y127.986 E8.97363
G1 X189.572 Y128.528 E9.03327
G1 X189.086 Y128.896 E9.07823
G1 X187.656 Y129.898 E9.20702
G1 X186.972 Y130.329 E9.26665
G1 X186.425 Y130.61 E9.31201
G1 X184.848 Y131.347 E9.4404
G1 X184.099 Y131.653 E9.50008
G1 X183.495 Y131.84 E9.54672
G1 X183.134 Y131.936 E9.57427
G1 X183.134 Y166.462 E12.12083
G1 X183.836 Y166.833 E12.17939
G1 X184.352 Y167.166 E12.22469
G1 X185.778 Y168.165 E12.35311
G1 X186.416 Y168.661 E12.41271
G1 X186.867 Y169.079 E12.45807
G1 X188.106 Y170.317 E12.58725
G1 X188.649 Y170.916 E12.64689
G1 X189.025 Y171.412 E12.69279
G1 X190.02 Y172.833 E12.82074
G1 X190.451 Y173.518 E12.88043
G1 X190.73 Y174.062 E12.92553
G1 X191.468 Y175.641 E13.05408
G1 X191.774 Y176.39 E13.11376
G1 X191.96 Y176.992 E13.16023
G1 X192.411 Y178.679 E13.28903
G1 X192.581 Y179.47 E13.34871
G1 X192.657 Y180.074 E13.39361
G1 X192.81 Y181.809 E13.52208
G1 X192.842 Y182.617 E13.58172
G1 X192.81 Y183.246 E13.62817
G1 X192.657 Y184.984 E13.75686
G1 X192.547 Y185.785 E13.81649
G1 X192.412 Y186.378 E13.86135
G1 X191.962 Y188.063 E13.98999
G1 X191.715 Y188.833 E14.04963
G1 X191.47 Y189.415 E14.09621
G1 X190.731 Y190.997 E14.22499
G1 X190.353 Y191.712 E14.28465
G1 X190.02 Y192.227 E14.32988
G1 X189.023 Y193.651 E14.4581
G1 X188.527 Y194.29 E14.51776
G1 X188.101 Y194.749 E14.56395
G1 X186.867 Y195.981 E14.69256
G1 X186.267 Y196.523 E14.7522
G1 X185.78 Y196.892 E14.79727
G1 X184.351 Y197.893 E14.92595
G1 X183.667 Y198.324 E14.98558
G1 X183.123 Y198.603 E15.03068
G1 X181.545 Y199.341 E15.15917
G1 X180.796 Y199.647 E15.21884
G1 X180.19 Y199.835 E15.26564
G1 X178.505 Y200.285 E15.39428
G1 X177.714 Y200.455 E15.45395
G1 X177.112 Y200.53 E15.4987
G1 X175.376 Y200.683 E15.62724
G1 X174.567 Y200.715 E15.68696
G1 X173.939 Y200.683 E15.73333
G1 X172.202 Y200.53 E15.86195
G1 X171.401 Y200.42 E15.92158
G1 X170.81 Y200.285 E15.9663
G1 X169.127 Y199.836 E16.09477
G1 X168.357 Y199.59 E16.15439
G1 X167.765 Y199.34 E16.20179
G1 X166.181 Y198.598 E16.33081
G1 X165.467 Y198.219 E16.39043
G1 X164.96 Y197.892 E16.43493
G1 X163.537 Y196.896 E16.56304
G1 X162.898 Y196.4 E16.6227
G1 X162.448 Y195.983 E16.66795
G1 X161.212 Y194.749 E16.79678
G1 X160.668 Y194.15 E16.85646
G1 X160.29 Y193.651 E16.90263
G1 X159.293 Y192.227 E17.03085
G1 X159.266 Y192.184 E17.03459
G1 X142.408 Y192.184 E18.278
G1 X142.088 Y192.87 E18.33383
G1 X141.71 Y193.585 E18.39348
G1 X141.374 Y194.105 E18.43915
G1 X140.373 Y195.534 E18.56783
G1 X139.877 Y196.173 E18.6275
G1 X139.457 Y196.626 E18.67306
G1 X138.225 Y197.858 E18.80157
G1 X137.625 Y198.401 E18.86126
G1 X137.133 Y198.774 E18.90679
G1 X135.708 Y199.772 E19.03511
G1 X135.023 Y200.203 E19.0948
G1 X134.472 Y200.486 E19.14049
G1 X132.894 Y201.222 E19.26892
G1 X132.145 Y201.527 E19.32857
G1 X131.556 Y201.709 E19.37404
G1 X129.864 Y202.163 E19.50325
G1 X129.073 Y202.334 E19.56294
G1 X128.458 Y202.412 E19.60866
G1 X126.725 Y202.564 E19.73698
G1 X125.917 Y202.594 E19.79661
G1 X125.295 Y202.564 E19.84255
G1 X123.563 Y202.412 E19.97078
G1 X122.761 Y202.301 E20.0305
G1 X122.157 Y202.163 E20.0762
G1 X120.465 Y201.709 E20.20541
G1 X119.695 Y201.461 E20.26508
G1 X119.13 Y201.224 E20.31027
G1 X117.55 Y200.488 E20.43883
G1 X116.835 Y200.11 E20.49848
G1 X116.31 Y199.772 E20.54454
G1 X114.887 Y198.775 E20.67269
G1 X114.248 Y198.278 E20.7324
G1 X113.791 Y197.854 E20.77838
G1 X112.559 Y196.62 E20.90699
G1 X112.017 Y196.02 E20.96663
G1 X111.647 Y195.532 E21.0118
G1 X110.645 Y194.101 E21.14065
G1 X110.214 Y193.416 E21.20034
G1 X109.935 Y192.872 E21.24544
G1 X109.198 Y191.295 E21.37383
G1 X108.892 Y190.546 E21.43351
G1 X108.705 Y189.943 E21.48007
G1 X108.255 Y188.259 E21.60864
G1 X108.085 Y187.468 E21.66831
G1 X108.01 Y186.865 E21.71313
G1 X107.857 Y185.131 E21.84152
G1 X107.825 Y184.323 E21.90117
G1 X107.856 Y183.695 E21.94754
G1 X108.009 Y181.956 E22.0763
G1 X108.12 Y181.154 E22.13602
G1 X108.255 Y180.562 E22.18081
G1 X108.704 Y178.88 E22.30921
G1 X108.951 Y178.11 E22.36885
G1 X109.199 Y177.521 E22.41599
G1 X109.941 Y175.936 E22.54507
G1 X110.32 Y175.221 E22.60476
G1 X110.648 Y174.713 E22.64936
G1 X111.644 Y173.29 E22.77747
G1 X112.14 Y172.651 E22.83714
G1 X112.557 Y172.201 E22.88239
G1 X113.791 Y170.965 E23.01121
G1 X114.39 Y170.421 E23.07089
G1 X114.887 Y170.044 E23.1169
G1 X116.31 Y169.047 E23.24506
G1 X116.866 Y168.698 E23.29347
G1 X116.866 Y132.909 E25.93319
G1 X116.826 Y132.883 E25.93671
G1 X115.403 Y131.887 E26.06482
G1 X114.764 Y131.391 E26.12448
G1 X114.314 Y130.974 E26.16973
G1 X113.078 Y129.74 E26.29856
G1 X112.534 Y129.141 E26.35824
G1 X112.156 Y128.642 E26.40441
G1 X111.159 Y127.218 E26.53262
G1 X110.728 Y126.533 E26.59232
G1 X110.445 Y125.982 E26.63801
G1 X109.707 Y124.399 E26.76683
G1 X109.402 Y123.65 E26.82648
G1 X109.218 Y123.054 E26.87248
G1 X108.768 Y121.37 E27.00105
G1 X108.598 Y120.579 E27.06073
G1 X108.523 Y119.976 E27.10554
G1 X108.37 Y118.242 E27.23394
G1 X108.338 Y117.434 E27.29358
G1 X108.369 Y116.806 E27.33996
G1 X108.522 Y115.067 E27.46872
G1 X108.633 Y114.265 E27.52843
G1 X108.769 Y113.67 E27.57345
G1 X109.219 Y111.987 E27.70195
G1 X109.466 Y111.217 E27.76159
G1 X109.707 Y110.643 E27.80751
G1 X110.445 Y109.06 E27.93633
G1 X110.823 Y108.345 E27.99598
G1 X111.159 Y107.824 E28.04171
G1 X112.154 Y106.403 E28.16966
G1 X112.65 Y105.764 E28.22932
G1 X113.071 Y105.31 E28.27499
G0 F6000 X113.444 Y105.683
G1 F1200 X114.685 Y104.442 E28.40444
G1 X115.266 Y103.918 E28.46214
G1 X115.711 Y103.583 E28.50323
G1 X117.132 Y102.589 E28.63113
G1 X117.795 Y102.173 E28.68887
G1 X118.278 Y101.926 E28.72888
G1 X119.859 Y101.187 E28.8576
G1 X120.584 Y100.893 E28.9153
G1 X121.126 Y100.726 E28.95713
G1 X122.811 Y100.276 E29.08577
G1 X123.576 Y100.113 E29.14346
G1 X124.114 Y100.047 E29.18344
G1 X125.851 Y99.894 E29.31205
G1 X126.633 Y99.865 E29.36977
G1 X127.195 Y99.894 E29.41128
G1 X128.931 Y100.047 E29.53982
G1 X129.706 Y100.155 E29.59753
G1 X130.233 Y100.276 E29.63742
G1 X131.919 Y100.726 E29.76612
G1 X132.664 Y100.966 E29.82386
G1 X133.186 Y101.187 E29.86566
G1 X134.763 Y101.924 E29.99406
G1 X135.454 Y102.291 E30.05177
G1 X135.911 Y102.587 E30.09193
G1 X137.343 Y103.589 E30.22084
G1 X137.961 Y104.07 E30.2786
G1 X138.372 Y104.453 E30.32003
G1 X139.6 Y105.683 E30.44823
G1 X140.124 Y106.264 E30.50594
G1 X140.452 Y106.699 E30.54612
G1 X141.454 Y108.129 E30.67491
G1 X141.87 Y108.791 E30.73258
G1 X142.12 Y109.281 E30.77315
G1 X142.856 Y110.856 E30.90138
G1 X142.94 Y111.064 E30.91792
G1 X160.661 Y111.063 E32.22498
G1 X160.717 Y110.822 E32.24323
G1 X161.167 Y109.138 E32.3718
G1 X161.407 Y108.393 E32.42953
G1 X161.626 Y107.874 E32.47108
G1 X162.363 Y106.296 E32.59953
G1 X162.73 Y105.605 E32.65724
G1 X163.03 Y105.143 E32.69787
G1 X164.032 Y103.713 E32.82666
G1 X164.513 Y103.096 E32.88437
G1 X164.884 Y102.697 E32.92455
G1 X166.112 Y101.467 E33.05275
G1 X166.692 Y100.942 E33.11045
G1 X167.141 Y100.603 E33.15195
G1 X168.573 Y99.601 E33.28086
G1 X169.236 Y99.186 E33.33855
G1 X169.721 Y98.938 E33.37872
G1 X171.298 Y98.201 E33.50712
G1 X172.022 Y97.906 E33.56478
G1 X172.565 Y97.74 E33.60666
G1 X174.251 Y97.29 E33.73537
G1 X175.016 Y97.127 E33.79306
G1 X175.553 Y97.061 E33.83297
G1 X177.289 Y96.908 E33.9615
G1 X178.071 Y96.879 E34.01922
G1 X178.633 Y96.908 E34.06073
G1 X180.37 Y97.061 E34.18934
G1 X181.145 Y97.169 E34.24706
G1 X181.673 Y97.29 E34.28701
G1 X183.358 Y97.74 E34.41565
G1 X184.103 Y97.98 E34.47338
G1 X184.625 Y98.201 E34.51519
G1 X186.206 Y98.94 E34.64391
G1 X186.897 Y99.307 E34.70162
G1 X187.352 Y99.603 E34.74166
G1 X188.773 Y100.597 E34.86956
G1 X189.391 Y101.077 E34.92728
G1 X189.799 Y101.456 E34.96835
G1 X191.04 Y102.697 E35.0978
G1 X191.564 Y103.278 E35.15551
G1 X191.897 Y103.72 E35.19632
G1 X192.892 Y105.141 E35.32427
G1 X193.308 Y105.804 E35.382
G1 X193.559 Y106.296 E35.42274
G1 X194.296 Y107.876 E35.55133
G1 X194.59 Y108.601 E35.60904
G1 X194.754 Y109.134 E35.65017
G1 X195.205 Y110.82 E35.7789
G1 X195.368 Y111.585 E35.83659
G1 X195.435 Y112.125 E35.87672
G1 X195.588 Y113.86 E36.00519
G1 X195.617 Y114.642 E36.06291
G1 X195.589 Y115.204 E36.10441
G1 X195.436 Y116.942 E36.2331
G1 X195.327 Y117.717 E36.29082
G1 X195.205 Y118.247 E36.33094
G1 X194.755 Y119.931 E36.4595
G1 X194.515 Y120.676 E36.51723
G1 X194.298 Y121.19 E36.55838
G1 X193.56 Y122.773 E36.68721
G1 X193.194 Y123.464 E36.74488
G1 X192.893 Y123.929 E36.78574
G1 X191.896 Y125.353 E36.91395
G1 X191.415 Y125.97 E36.97166
G1 X191.033 Y126.38 E37.01299
G1 X189.799 Y127.612 E37.1416
G1 X189.218 Y128.136 E37.19931
G1 X188.783 Y128.464 E37.23949
G1 X187.353 Y129.466 E37.36828
G1 X186.691 Y129.882 E37.42595
G1 X186.201 Y130.132 E37.46652
G1 X184.624 Y130.869 E37.59491
G1 X183.9 Y131.164 E37.65258
G1 X183.358 Y131.33 E37.69439
G1 X182.606 Y131.531 E37.7518
G1 X182.606 Y166.797 E40.35294
G1 X182.897 Y166.933 E40.37663
G1 X183.588 Y167.3 E40.43434
G1 X184.049 Y167.599 E40.47487
G1 X185.475 Y168.598 E40.60329
G1 X186.092 Y169.079 E40.66099
G1 X186.493 Y169.452 E40.70138
G1 X187.732 Y170.69 E40.83057
G1 X188.257 Y171.271 E40.88833
G1 X188.592 Y171.715 E40.92935
G1 X189.587 Y173.136 E41.0573
G1 X190.003 Y173.799 E41.11503
G1 X190.252 Y174.285 E41.15531
G1 X190.99 Y175.864 E41.28387
G1 X191.284 Y176.589 E41.34157
G1 X191.45 Y177.129 E41.38324
G1 X191.901 Y178.816 E41.51204
G1 X192.064 Y179.581 E41.56973
G1 X192.131 Y180.12 E41.60979
G1 X192.284 Y181.855 E41.73826
G1 X192.313 Y182.637 E41.79597
G1 X192.285 Y183.199 E41.83748
G1 X192.132 Y184.937 E41.96616
G1 X192.023 Y185.712 E42.02389
G1 X191.902 Y186.241 E42.06391
G1 X191.452 Y187.926 E42.19255
G1 X191.212 Y188.671 E42.25028
G1 X190.992 Y189.191 E42.29193
G1 X190.253 Y190.773 E42.42071
G1 X189.886 Y191.464 E42.47842
G1 X189.588 Y191.924 E42.51885
G1 X188.591 Y193.348 E42.64706
G1 X188.11 Y193.965 E42.70477
G1 X187.728 Y194.375 E42.7461
G1 X186.494 Y195.607 E42.87471
G1 X185.913 Y196.131 E42.93242
G1 X185.477 Y196.46 E42.97271
G1 X184.048 Y197.461 E43.10139
G1 X183.386 Y197.876 E43.15902
G1 X182.899 Y198.125 E43.19937
G1 X181.321 Y198.863 E43.32785
G1 X180.597 Y199.158 E43.38552
G1 X180.053 Y199.325 E43.42749
G1 X178.368 Y199.775 E43.55613
G1 X177.603 Y199.938 E43.61382
G1 X177.065 Y200.004 E43.6538
G1 X175.329 Y200.157 E43.78234
G1 X174.547 Y200.186 E43.84006
G1 X173.985 Y200.157 E43.88156
G1 X172.248 Y200.004 E44.01018
G1 X171.473 Y199.896 E44.06789
G1 X170.947 Y199.775 E44.1077
G1 X169.264 Y199.326 E44.23618
G1 X168.519 Y199.086 E44.29391
G1 X167.989 Y198.862 E44.33635
G1 X166.405 Y198.12 E44.46536
G1 X165.715 Y197.752 E44.52304
G1 X165.263 Y197.459 E44.56277
G1 X163.84 Y196.463 E44.69088
G1 X163.223 Y195.982 E44.74859
G1 X162.821 Y195.609 E44.78903
G1 X161.585 Y194.375 E44.91786
G1 X161.06 Y193.795 E44.97556
G1 X160.722 Y193.348 E45.01689
G1 X159.725 Y191.924 E45.14511
G1 X159.557 Y191.656 E45.16844
G1 X142.071 Y191.656 E46.45816
G1 X141.609 Y192.646 E46.53874
G1 X141.243 Y193.338 E46.59648
G1 X140.942 Y193.802 E46.63728
G1 X139.941 Y195.231 E46.76596
G1 X139.46 Y195.849 E46.82372
G1 X139.084 Y196.253 E46.86443
G1 X137.852 Y197.485 E46.99294
G1 X137.271 Y198.009 E47.05065
G1 X136.83 Y198.342 E47.09141
G1 X135.405 Y199.34 E47.21972
G1 X134.742 Y199.755 E47.27741
G1 X134.249 Y200.007 E47.31825
G1 X132.671 Y200.743 E47.44668
G1 X131.946 Y201.037 E47.50438
G1 X131.419 Y201.199 E47.54505
G1 X129.727 Y201.653 E47.67426
G1 X128.962 Y201.817 E47.73197
G1 X128.412 Y201.886 E47.77285
G1 X126.679 Y202.038 E47.90117
G1 X125.897 Y202.066 E47.95888
G1 X125.341 Y202.038 E47.99994
G1 X123.609 Y201.886 E48.12818
G1 X122.834 Y201.778 E48.1859
G1 X122.294 Y201.653 E48.22678
G1 X120.602 Y201.199 E48.35599
G1 X119.858 Y200.958 E48.41367
G1 X119.353 Y200.745 E48.4541
G1 X117.773 Y200.009 E48.58266
G1 X117.082 Y199.643 E48.64033
G1 X116.613 Y199.339 E48.68156
G1 X115.19 Y198.342 E48.80971
G1 X114.573 Y197.861 E48.86742
G1 X114.165 Y197.481 E48.90854
G1 X112.933 Y196.247 E49.03715
G1 X112.409 Y195.666 E49.09486
G1 X112.08 Y195.229 E49.1352
G1 X111.078 Y193.798 E49.26405
G1 X110.662 Y193.135 E49.32178
G1 X110.413 Y192.648 E49.36213
G1 X109.676 Y191.071 E49.49052
G1 X109.381 Y190.347 E49.54818
G1 X109.216 Y189.806 E49.5899
G1 X108.766 Y188.122 E49.71847
G1 X108.602 Y187.357 E49.77617
G1 X108.536 Y186.819 E49.81615
G1 X108.383 Y185.085 E49.94454
G1 X108.354 Y184.303 E50.00226
G1 X108.382 Y183.741 E50.04377
G1 X108.535 Y182.002 E50.17253
G1 X108.644 Y181.227 E50.23025
G1 X108.765 Y180.698 E50.27028
