;FLAVOR:Marlin
;TIME:24962
;Filament used: 16.1133m
;Layer height: 0.16
;MINX:138.441
;MINY:108.48
;MINZ:0.28
;MAXX:253.539
;MAXY:194.506
;MAXZ:59.24
;Generated with Cura_SteamEngine 4.13.1
M140 S95
M105
M190 S95
M104 S220
M105
M109 S220
M82 ;absolute extrusion mode
G28 ; home all axes
 M117 Purge extruder
 G92 E0 ; reset extruder
 G1 Z1.0 F3000 ; move z up little to prevent scratching of surface
 G1 X2 Y20 Z0.3 F5000.0 ; move to start-line position
 G1 X2 Y200.0 Z0.3 F1500.0 E15 ; draw 1st line
 G1 X2 Y200.0 Z0.4 F5000.0 ; move to side a little
 G1 X2 Y20 Z0.4 F1500.0 E30 ; draw 2nd line
 G92 E0 ; reset extruder
 G1 Z1.0 F3000 ; move z up little to prevent scratching of surface
G92 E0
G92 E0
G1 F1500 E-5
;LAYER_COUNT:334
;LAYER:0
M107
G0 F6000 X239.111 Y114.439 Z0.28
;TYPE:SKIRT
G1 F1500 E0
G1 F1200 X239.182 Y114.38 E0.00738
G1 X239.528 Y114.127 E0.04163
G1 X239.875 Y113.911 E0.07429
G1 X240.253 Y113.71 E0.10849
G1 X240.65 Y113.533 E0.14323
G1 X241.015 Y113.401 E0.17424
G1 X241.451 Y113.276 E0.21048
G1 X241.851 Y113.19 E0.24317
G1 X242.273 Y113.132 E0.27721
G1 X242.691 Y113.102 E0.3107
G1 X243.111 Y113.102 E0.34426
G1 X243.522 Y113.131 E0.37718
G1 X243.966 Y113.193 E0.413
G1 X244.359 Y113.277 E0.44511
G1 X244.76 Y113.392 E0.47844
G1 X245.17 Y113.541 E0.5133
G1 X245.544 Y113.707 E0.546
G1 X245.917 Y113.907 E0.57981
G1 X246.285 Y114.135 E0.61441
G1 X246.626 Y114.383 E0.6481
G1 X246.934 Y114.641 E0.6802
G1 X247.246 Y114.943 E0.7149
G1 X247.525 Y115.253 E0.74822
G1 X247.784 Y115.585 E0.78187
G1 X248.023 Y115.938 E0.81593
G1 X248.238 Y116.311 E0.85033
G1 X248.414 Y116.671 E0.88235
G1 X248.573 Y117.066 E0.91637
G1 X248.706 Y117.473 E0.95059
G1 X248.808 Y117.883 E0.98435
G1 X248.881 Y118.296 E1.01786
G1 X248.924 Y118.716 E1.05159
G1 X248.939 Y119.136 E1.08518
G1 X248.924 Y119.555 E1.11868
G1 X248.88 Y119.976 E1.1525
G1 X248.805 Y120.402 E1.18706
G1 X248.71 Y120.783 E1.21844
G1 X248.575 Y121.2 E1.25346
G1 X248.415 Y121.596 E1.28759
G1 X248.239 Y121.958 E1.31975
G1 X248.019 Y122.338 E1.35484
G1 X247.786 Y122.683 E1.3881
G1 X247.528 Y123.014 E1.42163
G1 X247.245 Y123.328 E1.45541
G1 X247.038 Y123.528 E1.47841
G1 X247.038 Y118.399 E1.88824
G1 X246.998 Y117.838 E1.93318
G1 X246.879 Y117.288 E1.97814
G1 X246.683 Y116.761 E2.02307
G1 X246.415 Y116.267 E2.06798
G1 X246.079 Y115.815 E2.11298
G1 X245.683 Y115.416 E2.1579
G1 X245.234 Y115.077 E2.20285
G1 X244.741 Y114.805 E2.24784
G1 X244.215 Y114.606 E2.29278
G1 X243.666 Y114.483 E2.33773
G1 X243.078 Y114.439 E2.38485
G1 X239.111 Y114.439 E2.70183
G0 F6000 X238.858 Y113.962
G1 F1200 X239.227 Y113.693 E2.73832
G1 X239.613 Y113.453 E2.77464
G1 X240.02 Y113.236 E2.81149
G1 X240.451 Y113.044 E2.84919
G1 X240.864 Y112.894 E2.8843
G1 X241.323 Y112.763 E2.92244
G1 X241.752 Y112.671 E2.9575
G1 X242.221 Y112.606 E2.99533
G1 X242.668 Y112.574 E3.03114
G1 X243.135 Y112.574 E3.06846
G1 X243.573 Y112.605 E3.10354
G1 X244.062 Y112.673 E3.14299
G1 X244.49 Y112.764 E3.17795
G1 X244.915 Y112.886 E3.21329
G1 X245.365 Y113.05 E3.25156
G1 X245.783 Y113.236 E3.28811
G1 X246.185 Y113.451 E3.32454
G1 X246.569 Y113.689 E3.36064
G1 X246.947 Y113.964 E3.39799
G1 X247.296 Y114.256 E3.43435
G1 X247.626 Y114.576 E3.47108
G1 X247.928 Y114.911 E3.50712
G1 X248.213 Y115.276 E3.54412
G1 X248.469 Y115.655 E3.58067
G1 X248.701 Y116.057 E3.61775
G1 X248.903 Y116.471 E3.65456
G1 X249.066 Y116.876 E3.68944
G1 X249.211 Y117.321 E3.72684
G1 X249.325 Y117.777 E3.7644
G1 X249.403 Y118.219 E3.80026
G1 X249.45 Y118.673 E3.83673
G1 X249.467 Y119.136 E3.87375
G1 X249.45 Y119.6 E3.91085
G1 X249.404 Y120.05 E3.947
G1 X249.322 Y120.51 E3.98433
G1 X249.214 Y120.943 E4.01999
G1 X249.069 Y121.388 E4.05739
G1 X248.901 Y121.804 E4.09324
G1 X248.708 Y122.201 E4.12851
G1 X248.465 Y122.622 E4.16735
G1 X248.215 Y122.992 E4.20303
G1 X247.93 Y123.357 E4.24003
G1 X247.624 Y123.697 E4.27658
G1 X247.295 Y124.015 E4.31315
G1 X246.944 Y124.309 E4.34973
G1 X246.574 Y124.578 E4.38628
G1 X246.51 Y124.618 E4.39231
G1 X246.51 Y118.399 E4.88924
G1 X246.47 Y117.877 E4.93107
G1 X246.351 Y117.367 E4.97292
G1 X246.156 Y116.881 E5.01476
G1 X245.889 Y116.431 E5.05657
G1 X245.557 Y116.026 E5.09841
G1 X245.167 Y115.676 E5.14028
G1 X244.729 Y115.39 E5.18208
G1 X244.252 Y115.174 E5.22392
G1 X243.748 Y115.033 E5.26574
G1 X243.078 Y114.967 E5.31954
G1 X237.832 Y114.967 E5.73871
G1 X237.874 Y114.913 E5.74418
G1 X238.18 Y114.572 E5.78079
G1 X238.51 Y114.253 E5.81746
G1 X238.858 Y113.962 E5.85371
G0 F6000 X238.525 Y113.552
G1 F1200 X238.949 Y113.244 E5.89558
G1 X239.338 Y113.002 E5.93219
G1 X239.805 Y112.753 E5.97448
G1 X240.239 Y112.56 E6.01243
G1 X240.697 Y112.393 E6.05139
G1 X241.202 Y112.249 E6.09335
G1 X241.664 Y112.15 E6.1311
G1 X242.156 Y112.082 E6.17079
G1 X242.658 Y112.046 E6.211
G1 X243.144 Y112.046 E6.24983
G1 X243.64 Y112.081 E6.28956
G1 X244.146 Y112.152 E6.33039
G1 X244.618 Y112.252 E6.36894
G1 X245.092 Y112.388 E6.40835
G1 X245.559 Y112.558 E6.44806
G1 X246.017 Y112.762 E6.48812
G1 X246.434 Y112.985 E6.52591
G1 X246.869 Y113.255 E6.56681
G1 X247.278 Y113.552 E6.6072
G1 X247.651 Y113.865 E6.64611
G1 X248.006 Y114.208 E6.68555
G1 X248.33 Y114.569 E6.72431
G1 X248.638 Y114.963 E6.76427
G1 X248.916 Y115.374 E6.80392
G1 X249.173 Y115.819 E6.84498
G1 X249.383 Y116.25 E6.88329
G1 X249.563 Y116.695 E6.92165
G1 X249.719 Y117.176 E6.96205
G1 X249.842 Y117.669 E7.00265
G1 X249.926 Y118.145 E7.04127
G1 X249.978 Y118.643 E7.08128
G1 X249.995 Y119.136 E7.1207
G1 X249.978 Y119.628 E7.16004
G1 X249.926 Y120.127 E7.20012
G1 X249.839 Y120.619 E7.24005
G1 X249.723 Y121.086 E7.2785
G1 X249.567 Y121.566 E7.31882
G1 X249.385 Y122.015 E7.35754
G1 X249.171 Y122.455 E7.39663
G1 X248.912 Y122.902 E7.43791
G1 X248.635 Y123.313 E7.47751
G1 X248.348 Y123.681 E7.5148
G1 X248.003 Y124.064 E7.55599
G1 X247.643 Y124.412 E7.596
G1 X247.273 Y124.722 E7.63457
G1 X246.862 Y125.021 E7.67518
G1 X246.45 Y125.278 E7.71398
G1 X246.012 Y125.511 E7.75363
G1 X245.982 Y125.525 E7.75627
G1 X245.982 Y118.399 E8.32567
G1 X245.942 Y117.919 E8.36415
G1 X245.823 Y117.452 E8.40266
G1 X245.629 Y117.012 E8.44109
G1 X245.365 Y116.609 E8.47958
G1 X245.038 Y116.256 E8.51803
G1 X244.656 Y115.961 E8.5566
G1 X244.232 Y115.734 E8.59502
G1 X243.776 Y115.58 E8.63348
G1 X243.078 Y115.495 E8.68967
G1 X236.817 Y115.495 E9.18995
G1 X236.889 Y115.37 E9.20147
G1 X237.155 Y114.975 E9.23953
G1 X237.472 Y114.569 E9.28068
G1 X237.799 Y114.205 E9.31978
G1 X238.149 Y113.867 E9.35866
G1 X238.525 Y113.552 E9.39785
G0 F6000 X238.201 Y113.135
G1 F1200 X238.648 Y112.81 E9.44201
G1 X239.086 Y112.537 E9.48325
G1 X239.561 Y112.284 E9.52626
G1 X240.052 Y112.065 E9.56921
G1 X240.533 Y111.891 E9.61009
G1 X241.06 Y111.74 E9.65389
G1 X241.577 Y111.629 E9.69614
G1 X242.106 Y111.556 E9.73881
G1 X242.635 Y111.518 E9.78119
G1 X243.167 Y111.518 E9.8237
G1 X243.694 Y111.555 E9.86591
G1 X244.24 Y111.632 E9.90997
G1 X244.735 Y111.737 E9.9504
G1 X245.256 Y111.886 E9.9937
G1 X245.758 Y112.069 E10.0364
G1 X246.239 Y112.283 E10.07846
G1 X246.72 Y112.54 E10.12204
G1 X247.16 Y112.813 E10.16341
G1 X247.602 Y113.135 E10.20711
G1 X247.999 Y113.467 E10.24846
G1 X248.393 Y113.849 E10.29231
G1 X248.732 Y114.225 E10.33276
G1 X249.068 Y114.656 E10.37643
G1 X249.362 Y115.09 E10.41832
G1 X249.639 Y115.571 E10.46267
G1 X249.865 Y116.033 E10.50377
G1 X250.058 Y116.512 E10.54503
G1 X250.231 Y117.043 E10.58965
G1 X250.357 Y117.546 E10.63109
G1 X250.451 Y118.081 E10.67449
G1 X250.505 Y118.601 E10.71626
G1 X250.524 Y119.135 E10.75896
G1 X250.505 Y119.671 E10.80182
G1 X250.451 Y120.191 E10.84359
G1 X250.357 Y120.725 E10.88691
G1 X250.233 Y121.222 E10.92784
G1 X250.06 Y121.756 E10.9727
G1 X249.867 Y122.232 E11.01374
G1 X249.635 Y122.709 E11.05612
G1 X249.369 Y123.17 E11.09865
G1 X249.069 Y123.614 E11.14147
G1 X248.742 Y124.033 E11.18394
G1 X248.376 Y124.439 E11.22761
G1 X248.006 Y124.797 E11.26875
G1 X247.604 Y125.134 E11.31067
G1 X247.155 Y125.46 E11.355
G1 X246.712 Y125.737 E11.39675
G1 X246.245 Y125.985 E11.439
G1 X245.756 Y126.203 E11.48178
G1 X245.454 Y126.313 E11.50746
G1 X245.454 Y118.399 E12.13982
G1 X245.414 Y117.965 E12.17465
G1 X245.296 Y117.546 E12.20943
G1 X245.103 Y117.156 E12.2442
G1 X244.842 Y116.807 E12.27902
G1 X244.522 Y116.512 E12.3138
G1 X244.153 Y116.28 E12.34863
G1 X243.748 Y116.119 E12.38345
G1 X243.321 Y116.035 E12.41823
G1 X243.078 Y116.023 E12.43767
G1 X235.944 Y116.023 E13.0077
G1 X236.174 Y115.551 E13.04966
G1 X236.437 Y115.097 E13.09158
G1 X236.733 Y114.658 E13.13389
G1 X237.071 Y114.226 E13.17772
G1 X237.412 Y113.845 E13.21857
G1 X237.802 Y113.469 E13.26186
G1 X238.201 Y113.135 E13.30344
G0 F6000 X237.877 Y112.718
G1 F1200 X238.353 Y112.371 E13.3505
G1 X238.817 Y112.082 E13.39418
G1 X239.328 Y111.81 E13.44044
G1 X239.853 Y111.576 E13.48637
G1 X240.366 Y111.39 E13.52997
G1 X240.95 Y111.223 E13.5785
G1 X241.479 Y111.11 E13.62172
G1 X242.054 Y111.03 E13.66811
G1 X242.612 Y110.99 E13.71281
G1 X243.19 Y110.99 E13.759
G1 X243.746 Y111.029 E13.80353
G1 X244.325 Y111.11 E13.85025
G1 X244.876 Y111.227 E13.89526
G1 X245.411 Y111.381 E13.93974
G1 X245.965 Y111.582 E13.98683
G1 X246.467 Y111.806 E14.03076
G1 X246.976 Y112.078 E14.07687
G1 X247.453 Y112.374 E14.12173
G1 X247.933 Y112.723 E14.16915
G1 X248.346 Y113.069 E14.2122
G1 X248.767 Y113.476 E14.25899
G1 X249.148 Y113.899 E14.30448
G1 X249.496 Y114.345 E14.34968
G1 X249.81 Y114.81 E14.39451
G1 X250.106 Y115.322 E14.44177
G1 X250.345 Y115.811 E14.48526
G1 X250.555 Y116.333 E14.53022
G1 X250.737 Y116.894 E14.57734
G1 X250.875 Y117.446 E14.62281
G1 X250.974 Y118.007 E14.66833
G1 X251.031 Y118.557 E14.71251
G1 X251.052 Y119.136 E14.7588
G1 X251.031 Y119.712 E14.80486
G1 X250.974 Y120.264 E14.8492
G1 X250.874 Y120.833 E14.89536
G1 X250.737 Y121.378 E14.94027
G1 X250.557 Y121.933 E14.98689
G1 X250.346 Y122.455 E15.03187
G1 X250.104 Y122.952 E15.07604
G1 X249.81 Y123.461 E15.12301
G1 X249.497 Y123.925 E15.16774
G1 X249.152 Y124.368 E15.2126
G1 X248.761 Y124.8 E15.25916
G1 X248.361 Y125.187 E15.30363
G1 X247.921 Y125.557 E15.34957
G1 X247.453 Y125.897 E15.39579
G1 X246.982 Y126.191 E15.44015
G1 X246.478 Y126.459 E15.48576
G1 X245.944 Y126.698 E15.53251
G1 X245.423 Y126.886 E15.57677
G1 X244.926 Y127.03 E15.61812
G1 X244.926 Y118.399 E16.30777
G1 X244.886 Y118.017 E16.33846
G1 X244.768 Y117.652 E16.36911
G1 X244.577 Y117.319 E16.39978
G1 X244.322 Y117.032 E16.43046
G1 X244.012 Y116.805 E16.46116
G1 X243.663 Y116.646 E16.49181
G1 X243.288 Y116.563 E16.5225
G1 X243.078 Y116.551 E16.5393
G1 X235.176 Y116.551 E17.17071
G1 X235.241 Y116.352 E17.18743
G1 X235.459 Y115.814 E17.23382
G1 X235.705 Y115.308 E17.27877
G1 X235.988 Y114.819 E17.32392
G1 X236.305 Y114.349 E17.36922
G1 X236.663 Y113.89 E17.41573
G1 X237.039 Y113.472 E17.46065
G1 X237.447 Y113.077 E17.50603
G1 X237.877 Y112.718 E17.55079
G0 F6000 X237.561 Y112.294
G1 F1200 X238.051 Y111.937 E17.59923
G1 X238.554 Y111.624 E17.64657
G1 X239.095 Y111.336 E17.69554
G1 X239.658 Y111.085 E17.74479
G1 X240.207 Y110.886 E17.79146
G1 X240.812 Y110.713 E17.84173
G1 X241.394 Y110.588 E17.8893
G1 X241.989 Y110.506 E17.93729
G1 X242.603 Y110.462 E17.98648
G1 X243.199 Y110.462 E18.0341
G1 X243.811 Y110.505 E18.08312
G1 X244.42 Y110.591 E18.13227
G1 X244.99 Y110.711 E18.17881
G1 X245.579 Y110.881 E18.2278
G1 X246.159 Y111.091 E18.27709
G1 X246.711 Y111.337 E18.32537
G1 X247.237 Y111.618 E18.37302
G1 X247.75 Y111.937 E18.42129
G1 X248.257 Y112.305 E18.47135
G1 X248.709 Y112.684 E18.51849
G1 X249.146 Y113.107 E18.56708
G1 X249.549 Y113.555 E18.61523
G1 X249.917 Y114.027 E18.66306
G1 X250.262 Y114.536 E18.71219
G1 X250.572 Y115.073 E18.76173
G1 X250.83 Y115.601 E18.80869
G1 X251.055 Y116.161 E18.85691
G1 X251.242 Y116.734 E18.90507
G1 X251.391 Y117.331 E18.95424
G1 X251.497 Y117.931 E19.00293
G1 X251.559 Y118.527 E19.05081
G1 X251.58 Y119.136 E19.0995
G1 X251.559 Y119.744 E19.14811
G1 X251.497 Y120.338 E19.19583
G1 X251.389 Y120.952 E19.24564
G1 X251.249 Y121.511 E19.29169
G1 X251.055 Y122.111 E19.34207
G1 X250.83 Y122.666 E19.38993
G1 X250.567 Y123.206 E19.43792
G1 X250.265 Y123.729 E19.48618
G1 X249.923 Y124.235 E19.53498
G1 X249.548 Y124.717 E19.58377
G1 X249.153 Y125.155 E19.6309
G1 X248.702 Y125.591 E19.68103
G1 X248.248 Y125.972 E19.72838
G1 X247.758 Y126.329 E19.77683
G1 X247.246 Y126.648 E19.82503
G1 X246.693 Y126.942 E19.87507
G1 X246.155 Y127.182 E19.92214
G1 X245.583 Y127.39 E19.97078
G1 X245.004 Y127.557 E20.01893
G1 X244.398 Y127.685 E20.06842
G1 X244.398 Y118.399 E20.81041
G1 X244.358 Y118.077 E20.83633
G1 X244.241 Y117.775 E20.86221
G1 X244.054 Y117.51 E20.88813
G1 X243.807 Y117.299 E20.91409
G1 X243.517 Y117.154 E20.93999
G1 X243.078 Y117.079 E20.97558
G1 X234.475 Y117.079 E21.66299
G1 X234.557 Y116.749 E21.69017
G1 X234.747 Y116.162 E21.73946
G1 X234.974 Y115.602 E21.78775
G1 X235.236 Y115.065 E21.83549
G1 X235.542 Y114.535 E21.88439
G1 X235.876 Y114.04 E21.93211
G1 X236.261 Y113.547 E21.98209
G1 X236.659 Y113.105 E22.02961
G1 X237.086 Y112.692 E22.07708
G1 X237.561 Y112.294 E22.1266
G0 F6000 X237.237 Y111.877
G1 F1200 X237.756 Y111.499 E22.1779
G1 X238.29 Y111.166 E22.22819
G1 X238.868 Y110.859 E22.28048
G1 X239.458 Y110.595 E22.33213
G1 X240.044 Y110.383 E22.38192
G1 X240.673 Y110.203 E22.4342
G1 X241.306 Y110.067 E22.48593
G1 X241.937 Y109.98 E22.53683
G1 X242.58 Y109.934 E22.58834
G1 X243.222 Y109.934 E22.63964
G1 X243.863 Y109.979 E22.69098
G1 X244.505 Y110.069 E22.74278
G1 X245.131 Y110.202 E22.79392
G1 X245.743 Y110.378 E22.8448
G1 X246.346 Y110.597 E22.89606
G1 X246.939 Y110.861 E22.94793
G1 X247.504 Y111.163 E22.99912
G1 X248.044 Y111.498 E23.0499
G1 X248.587 Y111.893 E23.10355
G1 X249.056 Y112.286 E23.15244
G1 X249.525 Y112.74 E23.2046
G1 X249.957 Y113.22 E23.2562
G1 X250.351 Y113.724 E23.30732
G1 X250.703 Y114.246 E23.35762
G1 X251.034 Y114.819 E23.4105
G1 X251.313 Y115.39 E23.46128
G1 X251.553 Y115.984 E23.51247
G1 X251.753 Y116.601 E23.5643
G1 X251.908 Y117.222 E23.61544
G1 X252.019 Y117.853 E23.66663
G1 X252.086 Y118.499 E23.71853
G1 X252.109 Y119.136 E23.76946
G1 X252.086 Y119.772 E23.82031
G1 X252.019 Y120.419 E23.87229
G1 X251.906 Y121.061 E23.92437
G1 X251.754 Y121.668 E23.97437
G1 X251.553 Y122.288 E24.02645
G1 X251.315 Y122.877 E24.07721
G1 X251.036 Y123.449 E24.12807
G1 X250.703 Y124.025 E24.18123
G1 X250.36 Y124.534 E24.23027
G1 X249.956 Y125.052 E24.28276
G1 X249.52 Y125.536 E24.33481
G1 X249.065 Y125.975 E24.38533
G1 X248.57 Y126.391 E24.437
G1 X248.052 Y126.767 E24.48814
G1 X247.498 Y127.113 E24.54034
G1 X246.938 Y127.411 E24.59102
G1 X246.354 Y127.671 E24.6421
G1 X245.747 Y127.891 E24.69369
G1 X245.132 Y128.069 E24.74485
G1 X244.491 Y128.205 E24.79721
G1 X243.87 Y128.292 E24.84731
G1 X243.87 Y118.399 E25.6378
G1 X243.83 Y118.151 E25.65788
G1 X243.715 Y117.928 E25.67793
G1 X243.536 Y117.753 E25.69793
G1 X243.311 Y117.642 E25.71798
G1 X243.078 Y117.607 E25.7368
G1 X233.827 Y117.607 E26.476
G1 X233.897 Y117.209 E26.50829
G1 X234.044 Y116.621 E26.55671
G1 X234.253 Y115.976 E26.61089
G1 X234.493 Y115.385 E26.66186
G1 X234.77 Y114.815 E26.7125
G1 X235.093 Y114.258 E26.76395
G1 X235.447 Y113.732 E26.81461
G1 X235.86 Y113.204 E26.86817
G1 X236.272 Y112.745 E26.91746
G1 X236.739 Y112.293 E26.96939
G1 X237.237 Y111.877 E27.02124
G0 F6000 X236.911 Y111.461
G1 F1200 X237.456 Y111.064 E27.07511
G1 X238.028 Y110.707 E27.12899
G1 X238.635 Y110.385 E27.18389
G1 X239.259 Y110.106 E27.23851
G1 X239.874 Y109.883 E27.29078
G1 X240.563 Y109.686 E27.34804
G1 X241.207 Y109.548 E27.40067
G1 X241.885 Y109.454 E27.45536
G1 X242.557 Y109.406 E27.50919
G1 X243.245 Y109.406 E27.56417
G1 X243.915 Y109.453 E27.61783
G1 X244.601 Y109.549 E27.67318
G1 X245.248 Y109.687 E27.72604
G1 X245.914 Y109.878 E27.78141
G1 X246.553 Y110.11 E27.83573
G1 X247.167 Y110.384 E27.88945
G1 X247.767 Y110.704 E27.94378
G1 X248.334 Y111.056 E27.99711
G1 X248.909 Y111.474 E28.05391
G1 X249.408 Y111.892 E28.10593
G1 X249.915 Y112.383 E28.16232
G1 X250.361 Y112.879 E28.21562
G1 X250.773 Y113.407 E28.26913
G1 X251.152 Y113.968 E28.32323
G1 X251.508 Y114.584 E28.38008
G1 X251.792 Y115.165 E28.43175
G1 X252.05 Y115.805 E28.48689
G1 X252.261 Y116.455 E28.5415
