;FLAVOR:Marlin
;TIME:16045
;Filament used: 12.256m
;Layer height: 0.16
;MINX:135.945
;MINY:69.689
;MINZ:0.28
;MAXX:252.023
;MAXY:169.906
;MAXZ:19.84
;Generated with Cura_SteamEngine 4.13.1
M140 S95
M105
M190 S95
M104 S220
M105
M109 S220
M82 ;absolute extrusion mode
G28 ; home all axes
 M117 Purge extruder
 G92 E0 ; reset extruder
 G1 Z1.0 F3000 ; move z up little to prevent scratching of surface
 G1 X2 Y20 Z0.3 F5000.0 ; move to start-line position
 G1 X2 Y200.0 Z0.3 F1500.0 E15 ; draw 1st line
 G1 X2 Y200.0 Z0.4 F5000.0 ; move to side a little
 G1 X2 Y20 Z0.4 F1500.0 E30 ; draw 2nd line
 G92 E0 ; reset extruder
 G1 Z1.0 F3000 ; move z up little to prevent scratching of surface
G92 E0
G92 E0
G1 F1500 E-5
;LAYER_COUNT:104
;LAYER:0
M107
G0 F6000 X189.402 Y75.316 Z0.28
;TYPE:SKIRT
G1 F1500 E0
G1 F1200 X189.722 Y75.006 E0.0356
G1 X190.045 Y74.734 E0.06934
G1 X190.394 Y74.482 E0.10374
G1 X190.728 Y74.273 E0.13522
G1 X191.11 Y74.07 E0.16979
G1 X191.508 Y73.893 E0.20459
G1 X191.902 Y73.749 E0.23811
G1 X192.299 Y73.635 E0.27111
G1 X192.701 Y73.549 E0.30396
G1 X193.139 Y73.488 E0.3393
G1 X193.542 Y73.46 E0.37158
G1 X193.979 Y73.46 E0.40649
G1 X194.381 Y73.488 E0.43869
G1 X194.818 Y73.549 E0.47395
G1 X195.22 Y73.635 E0.5068
G1 X195.623 Y73.751 E0.54031
G1 X196.02 Y73.895 E0.57405
G1 X196.412 Y74.07 E0.60835
G1 X196.79 Y74.27 E0.64252
G1 X197.129 Y74.482 E0.67447
G1 X197.475 Y74.733 E0.70863
G1 X197.796 Y75.002 E0.74209
G1 X198.119 Y75.316 E0.77809
G1 X189.402 Y75.316 E1.47461
G0 F6000 X189.035 Y74.935
G1 F1200 X189.367 Y74.614 E1.51151
G1 X189.715 Y74.322 E1.54781
G1 X190.096 Y74.046 E1.5854
G1 X190.47 Y73.812 E1.62065
G1 X190.883 Y73.592 E1.65804
G1 X191.296 Y73.409 E1.69414
G1 X191.746 Y73.244 E1.73244
G1 X192.171 Y73.123 E1.76775
G1 X192.616 Y73.028 E1.8041
G1 X193.073 Y72.964 E1.84098
G1 X193.534 Y72.932 E1.8779
G1 X193.988 Y72.932 E1.91418
G1 X194.447 Y72.964 E1.95094
G1 X194.903 Y73.028 E1.98774
G1 X195.361 Y73.125 E2.02514
G1 X195.787 Y73.248 E2.06057
G1 X196.207 Y73.4 E2.09626
G1 X196.639 Y73.593 E2.13407
G1 X197.048 Y73.81 E2.17107
G1 X197.433 Y74.05 E2.20732
G1 X197.804 Y74.32 E2.24398
G1 X198.152 Y74.612 E2.28028
G1 X198.486 Y74.935 E2.31741
G1 X198.788 Y75.27 E2.35345
G1 X199.08 Y75.643 E2.3913
G1 X199.215 Y75.844 E2.41064
G1 X188.306 Y75.844 E3.28232
G1 X188.441 Y75.643 E3.30166
G1 X188.733 Y75.27 E3.33952
G1 X189.035 Y74.935 E3.37555
G0 F6000 X188.663 Y74.56
G1 F1200 X189.011 Y74.224 E3.41421
G1 X189.386 Y73.909 E3.45334
G1 X189.803 Y73.607 E3.49448
G1 X190.207 Y73.354 E3.53257
G1 X190.65 Y73.118 E3.57268
G1 X191.098 Y72.919 E3.61185
G1 X191.587 Y72.741 E3.65343
G1 X192.033 Y72.612 E3.69053
G1 X192.531 Y72.506 E3.73121
G1 X193.021 Y72.438 E3.77074
G1 X193.511 Y72.404 E3.80998
G1 X194.01 Y72.404 E3.84986
G1 X194.499 Y72.438 E3.88902
G1 X195.001 Y72.508 E3.92952
G1 X195.476 Y72.609 E3.96833
G1 X195.956 Y72.747 E4.00823
G1 X196.412 Y72.913 E4.04701
G1 X196.865 Y73.115 E4.08664
G1 X197.312 Y73.352 E4.12707
G1 X197.728 Y73.611 E4.16623
G1 X198.12 Y73.896 E4.20495
G1 X198.515 Y74.229 E4.24623
G1 X198.858 Y74.56 E4.28432
G1 X199.196 Y74.935 E4.32466
G1 X199.502 Y75.325 E4.36427
G1 X199.781 Y75.74 E4.40423
G1 X200.019 Y76.153 E4.44231
G1 X200.126 Y76.372 E4.46179
G1 X187.395 Y76.372 E5.47905
G1 X187.499 Y76.157 E5.49813
G1 X187.74 Y75.74 E5.53662
G1 X188.019 Y75.325 E5.57658
G1 X188.325 Y74.935 E5.61619
G1 X188.663 Y74.56 E5.65652
G0 F6000 X188.269 Y74.207
G1 F1200 X188.663 Y73.826 E5.70032
G1 X189.064 Y73.49 E5.74212
G1 X189.505 Y73.17 E5.78566
G1 X189.948 Y72.893 E5.82741
G1 X190.412 Y72.646 E5.86941
G1 X190.901 Y72.429 E5.91216
G1 X191.413 Y72.242 E5.95571
G1 X191.919 Y72.096 E5.99779
G1 X192.433 Y71.987 E6.03977
G1 X192.968 Y71.912 E6.08294
G1 X193.489 Y71.876 E6.12467
G1 X194.033 Y71.876 E6.16814
G1 X194.551 Y71.912 E6.20963
G1 X195.086 Y71.987 E6.2528
G1 X195.604 Y72.097 E6.29511
G1 X196.12 Y72.245 E6.338
G1 X196.614 Y72.425 E6.38001
G1 X197.11 Y72.646 E6.4234
G1 X197.57 Y72.89 E6.46501
G1 X198.015 Y73.168 E6.50693
G1 X198.458 Y73.49 E6.55069
G1 X198.856 Y73.824 E6.59221
G1 X199.252 Y74.207 E6.63623
G1 X199.589 Y74.581 E6.67646
G1 X199.932 Y75.019 E6.72091
G1 X200.227 Y75.457 E6.76311
G1 X200.491 Y75.916 E6.80542
G1 X200.72 Y76.384 E6.84705
G1 X200.929 Y76.9 E6.89153
G1 X186.593 Y76.9 E8.03704
G1 X186.606 Y76.862 E8.04025
G1 X186.792 Y76.403 E8.07982
G1 X187.027 Y75.921 E8.12267
G1 X187.298 Y75.451 E8.16602
G1 X187.589 Y75.019 E8.20764
G1 X187.932 Y74.581 E8.25209
G1 X188.269 Y74.207 E8.29232
G0 F6000 X187.896 Y73.832
G1 F1200 X188.3 Y73.442 E8.33718
G1 X188.742 Y73.071 E8.38329
G1 X189.218 Y72.726 E8.43027
G1 X189.679 Y72.438 E8.4737
G1 X190.175 Y72.174 E8.5186
G1 X190.711 Y71.936 E8.56546
G1 X191.257 Y71.736 E8.61192
G1 X191.777 Y71.587 E8.65514
G1 X192.348 Y71.466 E8.70178
G1 X192.902 Y71.388 E8.74649
G1 X193.481 Y71.348 E8.79286
G1 X194.04 Y71.348 E8.83753
G1 X194.618 Y71.388 E8.88382
G1 X195.185 Y71.467 E8.92957
G1 X195.732 Y71.584 E8.97426
G1 X196.271 Y71.739 E9.01908
G1 X196.813 Y71.936 E9.06516
G1 X197.336 Y72.169 E9.1109
G1 X197.845 Y72.439 E9.15694
G1 X198.31 Y72.73 E9.20078
G1 X198.781 Y73.072 E9.24728
G1 X199.213 Y73.434 E9.29232
G1 X199.625 Y73.832 E9.33809
G1 X200.003 Y74.253 E9.3833
G1 X200.356 Y74.703 E9.429
G1 X200.672 Y75.173 E9.47426
G1 X200.956 Y75.664 E9.51958
G1 X201.207 Y76.179 E9.56536
G1 X201.418 Y76.698 E9.61012
G1 X201.596 Y77.249 E9.65639
G1 X201.641 Y77.428 E9.67114
G1 X185.88 Y77.428 E10.93051
G1 X185.925 Y77.249 E10.94526
G1 X186.105 Y76.696 E10.99173
G1 X186.316 Y76.174 E11.03671
G1 X186.555 Y75.684 E11.08028
G1 X186.853 Y75.167 E11.12796
G1 X187.165 Y74.703 E11.17264
G1 X187.518 Y74.253 E11.21834
G1 X187.896 Y73.832 E11.26354
G0 F6000 X187.521 Y73.46
G1 F1200 X187.952 Y73.044 E11.31141
G1 X188.413 Y72.657 E11.3595
G1 X188.92 Y72.289 E11.40956
G1 X189.409 Y71.984 E11.45561
G1 X189.953 Y71.694 E11.50487
G1 X190.504 Y71.45 E11.55302
G1 X191.088 Y71.236 E11.60272
G1 X191.66 Y71.072 E11.65027
G1 X192.253 Y70.946 E11.69871
G1 X192.851 Y70.862 E11.74696
G1 X193.458 Y70.82 E11.79558
G1 X194.063 Y70.82 E11.84392
G1 X194.669 Y70.862 E11.89246
G1 X195.27 Y70.946 E11.94095
G1 X195.856 Y71.071 E11.98882
G1 X196.443 Y71.24 E12.03763
G1 X197.008 Y71.445 E12.08566
G1 X197.574 Y71.698 E12.1352
G1 X198.109 Y71.981 E12.18356
G1 X198.593 Y72.283 E12.22914
G1 X199.103 Y72.653 E12.27949
G1 X199.576 Y73.05 E12.32883
G1 X200 Y73.46 E12.37596
G1 X200.404 Y73.909 E12.42422
G1 X200.784 Y74.394 E12.47345
G1 X201.121 Y74.894 E12.52163
G1 X201.424 Y75.42 E12.57014
G1 X201.688 Y75.961 E12.61824
G1 X201.917 Y76.523 E12.66673
G1 X202.103 Y77.102 E12.71532
G1 X202.25 Y77.688 E12.7636
G1 X202.297 Y77.956 E12.78534
G1 X185.224 Y77.956 E14.14954
G1 X185.273 Y77.677 E14.17217
G1 X185.413 Y77.116 E14.21838
G1 X185.607 Y76.518 E14.26861
G1 X185.832 Y75.963 E14.31646
G1 X186.097 Y75.419 E14.36481
G1 X186.4 Y74.894 E14.41325
G1 X186.737 Y74.394 E14.46143
G1 X187.117 Y73.909 E14.51066
G1 X187.521 Y73.46 E14.55892
G0 F6000 X187.137 Y73.098
G1 F1200 X187.597 Y72.654 E14.61001
G1 X188.092 Y72.238 E14.66167
G1 X188.616 Y71.858 E14.71339
G1 X189.157 Y71.52 E14.76436
G1 X189.715 Y71.223 E14.81487
G1 X190.314 Y70.957 E14.86724
G1 X190.928 Y70.732 E14.91949
G1 X191.522 Y70.562 E14.96886
G1 X192.168 Y70.424 E15.02165
G1 X192.799 Y70.336 E15.07255
G1 X193.435 Y70.292 E15.12349
G1 X194.086 Y70.292 E15.17551
G1 X194.721 Y70.336 E15.22637
G1 X195.355 Y70.425 E15.27753
G1 X195.998 Y70.562 E15.33006
G1 X196.607 Y70.737 E15.38069
G1 X197.208 Y70.955 E15.43177
G1 X197.789 Y71.214 E15.4826
G1 X198.366 Y71.52 E15.53479
G1 X198.902 Y71.855 E15.5853
G1 X199.439 Y72.245 E15.63833
G1 X199.916 Y72.646 E15.68812
G1 X200.384 Y73.098 E15.74011
G1 X200.811 Y73.572 E15.79108
G1 X201.215 Y74.088 E15.84345
G1 X201.567 Y74.611 E15.89382
G1 X201.889 Y75.169 E15.9453
G1 X202.166 Y75.736 E15.99572
G1 X202.414 Y76.346 E16.04834
G1 X202.615 Y76.97 E16.10072
G1 X202.764 Y77.564 E16.14965
G1 X202.878 Y78.207 E16.20183
G1 X202.907 Y78.484 E16.22409
G1 X184.614 Y78.484 E17.68578
G1 X184.643 Y78.207 E17.70803
G1 X184.756 Y77.568 E17.75988
G1 X184.91 Y76.953 E17.81054
G1 X185.109 Y76.341 E17.86196
G1 X185.347 Y75.752 E17.91272
G1 X185.628 Y75.176 E17.96393
G1 X185.954 Y74.611 E18.01605
G1 X186.306 Y74.088 E18.06643
G1 X186.71 Y73.572 E18.11879
G1 X187.137 Y73.098 E18.16977
G0 F6000 X186.76 Y72.727
G1 F1200 X187.241 Y72.262 E18.22322
G1 X187.761 Y71.826 E18.27745
G1 X188.329 Y71.415 E18.33347
G1 X188.888 Y71.065 E18.38617
G1 X189.494 Y70.743 E18.441
G1 X190.105 Y70.471 E18.49444
G1 X190.762 Y70.231 E18.55033
G1 X191.408 Y70.046 E18.60402
G1 X192.069 Y69.905 E18.65803
G1 X192.747 Y69.81 E18.71273
G1 X193.413 Y69.764 E18.76608
G1 X194.108 Y69.764 E18.82161
G1 X194.773 Y69.81 E18.87487
G1 X195.454 Y69.905 E18.92981
G1 X196.112 Y70.046 E18.98359
G1 X196.776 Y70.236 E19.03877
G1 X197.403 Y70.464 E19.09208
G1 X198.027 Y70.743 E19.1467
G1 X198.63 Y71.062 E19.20121
G1 X199.197 Y71.416 E19.25462
G1 X199.757 Y71.823 E19.30993
G1 X200.28 Y72.262 E19.36449
G1 X200.761 Y72.727 E19.41795
G1 X201.212 Y73.228 E19.47181
G1 X201.645 Y73.781 E19.52793
G1 X202.012 Y74.326 E19.58044
G1 X202.361 Y74.931 E19.63624
G1 X202.649 Y75.521 E19.6887
G1 X202.914 Y76.174 E19.74501
G1 X203.119 Y76.808 E19.79826
G1 X203.282 Y77.461 E19.85203
G1 X203.401 Y78.133 E19.90657
G1 X203.472 Y78.816 E19.96143
G1 X203.478 Y79.012 E19.9771
G1 X184.043 Y79.012 E21.53004
G1 X184.049 Y78.818 E21.54555
G1 X184.12 Y78.132 E21.60066
G1 X184.24 Y77.454 E21.65567
G1 X184.4 Y76.815 E21.70831
G1 X184.611 Y76.165 E21.76291
G1 X184.87 Y75.525 E21.81808
G1 X185.157 Y74.936 E21.87043
G1 X185.509 Y74.326 E21.92671
G1 X185.876 Y73.781 E21.97921
G1 X186.309 Y73.228 E22.03533
G1 X186.76 Y72.727 E22.08919
G1 F1500 E17.08919
G0 F6000 X185.151 Y84.441
G0 X185.151 Y84.04
G1 F1500 E22.08919
G1 F1200 X202.369 Y84.04 E23.46498
G1 X202.013 Y84.66 E23.52211
G1 X201.645 Y85.206 E23.57472
G1 X201.212 Y85.759 E23.63084
G1 X200.764 Y86.257 E23.68437
G1 X200.28 Y86.725 E23.73816
G1 X199.757 Y87.164 E23.79272
G1 X199.197 Y87.571 E23.84804
G1 X198.63 Y87.925 E23.90145
G1 X198.027 Y88.244 E23.95596
G1 X197.407 Y88.521 E24.01022
G1 X196.778 Y88.75 E24.06371
G1 X196.114 Y88.941 E24.11891
G1 X195.446 Y89.083 E24.17348
G1 X194.773 Y89.177 E24.22778
G1 X194.108 Y89.223 E24.28104
G1 X193.413 Y89.223 E24.33658
G1 X192.747 Y89.177 E24.38992
G1 X192.077 Y89.083 E24.44398
G1 X191.404 Y88.94 E24.49896
G1 X190.743 Y88.75 E24.55391
G1 X190.119 Y88.523 E24.60697
G1 X189.492 Y88.243 E24.66184
G1 X188.883 Y87.919 E24.71696
G1 X188.329 Y87.572 E24.76919
G1 X187.76 Y87.16 E24.82532
G1 X187.241 Y86.725 E24.87943
G1 X186.757 Y86.257 E24.93323
G1 X186.309 Y85.759 E24.98675
G1 X185.876 Y85.206 E25.04287
G1 X185.508 Y84.66 E25.09549
G1 X185.151 Y84.04 E25.15265
G0 F6000 X186.083 Y84.568
G1 F1200 X201.438 Y84.568 E26.37958
G1 X201.215 Y84.899 E26.41147
G1 X200.814 Y85.411 E26.46344
G1 X200.384 Y85.889 E26.51481
G1 X199.916 Y86.341 E26.5668
G1 X199.441 Y86.74 E26.61637
G1 X198.902 Y87.132 E26.66962
G1 X198.366 Y87.467 E26.72013
G1 X197.789 Y87.773 E26.77231
G1 X197.212 Y88.03 E26.82279
G1 X196.609 Y88.249 E26.87405
G1 X195.996 Y88.426 E26.92503
G1 X195.35 Y88.563 E26.97779
G1 X194.721 Y88.651 E27.02854
G1 X194.086 Y88.695 E27.0794
G1 X193.435 Y88.695 E27.13142
G1 X192.799 Y88.651 E27.18236
G1 X192.173 Y88.563 E27.23287
G1 X191.521 Y88.425 E27.28613
G1 X190.912 Y88.249 E27.33678
G1 X190.326 Y88.036 E27.3866
G1 X189.714 Y87.763 E27.44015
G1 X189.157 Y87.467 E27.49055
G1 X188.616 Y87.129 E27.54152
G1 X188.092 Y86.749 E27.59324
G1 X187.597 Y86.333 E27.6449
G1 X187.137 Y85.889 E27.69599
G1 X186.707 Y85.411 E27.74736
G1 X186.306 Y84.899 E27.79933
G1 X186.083 Y84.568 E27.83122
G0 F6000 X187.133 Y85.096
G1 F1200 X200.388 Y85.096 E28.89035
G1 X200.008 Y85.519 E28.93578
G1 X199.576 Y85.937 E28.98382
G1 X199.103 Y86.334 E29.03316
G1 X198.598 Y86.7 E29.08299
G1 X198.109 Y87.006 E29.12909
G1 X197.574 Y87.289 E29.17745
G1 X197.004 Y87.543 E29.22731
G1 X196.44 Y87.749 E29.27529
G1 X195.865 Y87.915 E29.32311
G1 X195.269 Y88.041 E29.37179
G1 X194.669 Y88.125 E29.4202
G1 X194.063 Y88.167 E29.46873
G1 X193.458 Y88.167 E29.51708
G1 X192.851 Y88.125 E29.56569
G1 X192.257 Y88.042 E29.61362
G1 X191.653 Y87.914 E29.66295
G1 X191.077 Y87.748 E29.71085
G1 X190.522 Y87.545 E29.75807
G1 X189.947 Y87.289 E29.80836
G1 X189.409 Y87.003 E29.85705
G1 X188.92 Y86.698 E29.9031
G1 X188.413 Y86.33 E29.95316
G1 X187.952 Y85.943 E30.00125
G1 X187.513 Y85.519 E30.05002
G1 X187.133 Y85.096 E30.09545
G0 F6000 X188.394 Y85.624
G1 F1200 X199.128 Y85.624 E30.95314
G1 X198.781 Y85.915 E30.98933
G1 X198.31 Y86.257 E31.03584
G1 X197.847 Y86.547 E31.07949
G1 X197.336 Y86.818 E31.12571
G1 X196.809 Y87.053 E31.17182
G1 X196.288 Y87.242 E31.2161
G1 X195.734 Y87.402 E31.26218
G1 X195.17 Y87.521 E31.30824
G1 X194.617 Y87.599 E31.35286
G1 X194.04 Y87.639 E31.39908
G1 X193.481 Y87.639 E31.44374
G1 X192.902 Y87.599 E31.49012
G1 X192.353 Y87.522 E31.53441
G1 X191.784 Y87.401 E31.5809
G1 X191.233 Y87.242 E31.62672
G1 X190.717 Y87.054 E31.6706
G1 X190.177 Y86.814 E31.71782
G1 X189.679 Y86.549 E31.7629
G1 X189.218 Y86.261 E31.80633
G1 X188.742 Y85.916 E31.8533
G1 X188.394 Y85.624 E31.8896
G0 F6000 X190.057 Y86.152
G1 F1200 X197.466 Y86.152 E32.48161
G1 X197.11 Y86.341 E32.51382
G1 X196.614 Y86.562 E32.55721
G1 X196.119 Y86.742 E32.59929
G1 X195.616 Y86.887 E32.64112
G1 X195.075 Y87.002 E32.68531
G1 X194.55 Y87.075 E32.72767
G1 X194.033 Y87.111 E32.76908
G1 X193.489 Y87.111 E32.81255
G1 X192.968 Y87.075 E32.85428
G1 X192.434 Y87 E32.89736
G1 X191.915 Y86.89 E32.93975
G1 X191.397 Y86.741 E32.98282
G1 X190.929 Y86.57 E33.02264
G1 X190.401 Y86.335 E33.06882
G1 X190.057 Y86.152 E33.09995
G1 F1500 E28.09995
G0 F6000 X157.094 Y78.611
G0 X157.094 Y78.783
G1 F1500 E33.09995
G1 F1200 X157.102 Y79.012 E33.11826
G1 X146.428 Y79.012 E33.97116
G1 X146.29 Y79.051 E33.98261
G1 X146.192 Y79.157 E33.99415
G1 X146.164 Y79.276 E34.00392
G1 X146.164 Y89.112 E34.78986
G1 X145.688 Y89.046 E34.82825
G1 X145.044 Y88.908 E34.88088
G1 X144.355 Y88.711 E34.93814
G1 X143.74 Y88.488 E34.99041
G1 X143.115 Y88.209 E35.0451
G1 X142.513 Y87.889 E35.09958
G1 X141.941 Y87.532 E35.15345
G1 X141.388 Y87.131 E35.20804
G1 X140.863 Y86.69 E35.26282
G1 X140.379 Y86.222 E35.31662
G1 X139.933 Y85.726 E35.36992
G1 X139.497 Y85.168 E35.4265
G1 X139.122 Y84.611 E35.48015
G1 X138.788 Y84.033 E35.53349
G1 X138.488 Y83.418 E35.58817
G1 X138.23 Y82.778 E35.64331
G1 X138.023 Y82.145 E35.69652
G1 X137.861 Y81.484 E35.7509
G1 X137.74 Y80.812 E35.80546
G1 X137.67 Y80.136 E35.85977
G1 X137.646 Y79.458 E35.91397
G1 X137.67 Y78.781 E35.9681
G1 X137.741 Y78.098 E36.02297
G1 X137.862 Y77.42 E36.078
G1 X138.018 Y76.79 E36.12986
G1 X138.231 Y76.133 E36.18505
G1 X138.493 Y75.488 E36.24068
G1 X138.783 Y74.893 E36.29357
G1 X139.122 Y74.304 E36.34787
G1 X139.511 Y73.728 E36.40341
G1 X139.927 Y73.197 E36.45731
G1 X140.369 Y72.707 E36.51003
G1 X140.874 Y72.218 E36.5662
G1 X141.382 Y71.791 E36.61923
G1 X141.947 Y71.382 E36.67496
G1 X142.516 Y71.026 E36.72859
G1 X143.112 Y70.709 E36.78253
G1 X143.745 Y70.426 E36.83794
G1 X144.355 Y70.205 E36.88978
G1 X145.031 Y70.011 E36.94598
G1 X145.697 Y69.869 E37.00039
G1 X146.369 Y69.775 E37.05461
G1 X147.038 Y69.728 E37.10819
G1 X147.726 Y69.728 E37.16317
G1 X148.396 Y69.775 E37.21684
G1 X149.082 Y69.871 E37.27218
G1 X149.72 Y70.007 E37.32431
G1 X150.409 Y70.205 E37.38159
G1 X151.019 Y70.426 E37.43343
G1 X151.652 Y70.709 E37.48884
G1 X152.248 Y71.026 E37.54278
G1 X152.817 Y71.382 E37.59641
G1 X153.382 Y71.791 E37.65214
G1 X153.89 Y72.218 E37.70517
G1 X154.39 Y72.702 E37.76077
G1 X154.846 Y73.206 E37.81508
G1 X155.254 Y73.729 E37.86808
G1 X155.632 Y74.288 E37.922
G1 X155.988 Y74.905 E37.97892
G1 X156.272 Y75.488 E38.03074
G1 X156.532 Y76.13 E38.08608
G1 X156.743 Y76.78 E38.14069
G1 X156.903 Y77.42 E38.1934
G1 X157.023 Y78.097 E38.24834
G1 X157.094 Y78.783 E38.30345
G0 F6000 X156.532 Y78.484
G1 F1200 X146.428 Y78.484 E39.1108
G1 X146.18 Y78.524 E39.13087
G1 X145.957 Y78.639 E39.15092
G1 X145.782 Y78.818 E39.17092
