;FLAVOR:Marlin
;TIME:972
;Filament used: 0.852665m
;Layer height: 0.16
;MINX:118.539
;MINY:128.544
;MINZ:0.28
;MAXX:181.584
;MAXY:171.531
;MAXZ:5.16
;Generated with Cura_SteamEngine 4.12.1
M140 S100
M105
M190 S100
M104 S220
M105
M109 S220
M82 ;absolute extrusion mode
G28 ; home all axes
 M117 Purge extruder
 G92 E0 ; reset extruder
 G1 Z1.0 F3000 ; move z up little to prevent scratching of surface
 G1 X2 Y20 Z0.3 F5000.0 ; move to start-line position
 G1 X2 Y200.0 Z0.3 F1500.0 E15 ; draw 1st line
 G1 X2 Y200.0 Z0.4 F5000.0 ; move to side a little
 G1 X2 Y20 Z0.4 F1500.0 E30 ; draw 2nd line
 G92 E0 ; reset extruder
 G1 Z1.0 F3000 ; move z up little to prevent scratching of surface
G92 E0
G92 E0
G1 F1500 E-5
;LAYER_COUNT:26
;LAYER:0
M107
G1 F300 Z0.48
G0 F6000 X122.717 Y133.167 Z0.48
;TYPE:SKIRT
G1 F300 Z0.28
G1 F1500 E0
G1 F1200 X123.315 Y132.623 E0.05963
G1 X123.822 Y132.239 E0.10654
G1 X124.531 Y131.743 E0.17036
G1 X125.216 Y131.313 E0.23001
G1 X125.754 Y131.036 E0.27464
G1 X126.547 Y130.665 E0.33922
G1 X127.296 Y130.359 E0.3989
G1 X127.913 Y130.169 E0.44651
G1 X128.752 Y129.946 E0.51054
G1 X129.543 Y129.777 E0.5702
G1 X130.132 Y129.703 E0.61399
G1 X131.002 Y129.626 E0.67841
G1 X131.811 Y129.594 E0.73812
G1 X132.446 Y129.626 E0.78502
G1 X133.316 Y129.703 E0.84944
G1 X134.117 Y129.814 E0.90908
G1 X134.696 Y129.946 E0.95289
G1 X135.535 Y130.169 E1.01692
G1 X136.306 Y130.415 E1.07661
G1 X136.901 Y130.665 E1.12421
G1 X137.694 Y131.036 E1.18879
G1 X138.409 Y131.415 E1.24847
G1 X138.917 Y131.743 E1.29307
G1 X139.626 Y132.239 E1.35689
G1 X140.265 Y132.735 E1.41656
G1 X140.731 Y133.167 E1.46343
G1 X141.353 Y133.791 E1.52841
G1 X141.895 Y134.392 E1.5881
G1 X142.26 Y134.873 E1.63264
G1 X142.756 Y135.581 E1.6964
G1 X142.904 Y135.816 E1.71688
G1 X156.519 Y135.816 E2.72109
G1 X156.542 Y135.767 E2.72509
G1 X156.92 Y135.051 E2.7848
G1 X157.255 Y134.533 E2.8303
G1 X157.756 Y133.818 E2.8947
G1 X158.252 Y133.179 E2.95436
G1 X158.666 Y132.732 E2.9993
G1 X159.283 Y132.114 E3.06371
G1 X159.882 Y131.57 E3.12339
G1 X160.373 Y131.198 E3.16883
G1 X161.081 Y130.701 E3.23263
G1 X161.765 Y130.269 E3.2923
G1 X162.326 Y129.981 E3.33881
G1 X163.12 Y129.611 E3.40342
G1 X163.869 Y129.306 E3.46307
G1 X164.471 Y129.121 E3.50952
G1 X165.312 Y128.897 E3.57372
G1 X166.103 Y128.727 E3.63339
G1 X166.696 Y128.653 E3.67747
G1 X167.565 Y128.576 E3.74181
G1 X168.373 Y128.544 E3.80146
G1 X169.009 Y128.576 E3.84843
G1 X169.878 Y128.653 E3.91277
G1 X170.68 Y128.764 E3.97249
G1 X171.262 Y128.897 E4.01652
G1 X172.103 Y129.121 E4.08072
G1 X172.874 Y129.367 E4.14041
G1 X173.454 Y129.611 E4.18682
G1 X174.248 Y129.981 E4.25143
G1 X174.963 Y130.358 E4.31105
G1 X175.493 Y130.701 E4.35761
G1 X176.201 Y131.198 E4.42141
G1 X176.839 Y131.695 E4.48106
G1 X177.291 Y132.114 E4.52652
G1 X177.908 Y132.732 E4.59093
G1 X178.45 Y133.332 E4.65057
G1 X178.818 Y133.818 E4.69554
G1 X179.319 Y134.533 E4.75993
G1 X179.75 Y135.217 E4.81956
G1 X180.031 Y135.763 E4.86485
G1 X180.397 Y136.546 E4.9286
G1 X180.703 Y137.295 E4.98828
G1 X180.886 Y137.885 E5.03384
G1 X181.115 Y138.736 E5.09884
G1 X181.286 Y139.527 E5.15853
G1 X181.365 Y140.146 E5.20456
G1 X181.441 Y141.01 E5.26853
G1 X181.471 Y141.818 E5.32817
G1 X181.441 Y142.442 E5.37425
G1 X181.365 Y143.309 E5.43844
G1 X181.254 Y144.11 E5.49808
G1 X181.115 Y144.719 E5.54416
G1 X180.887 Y145.567 E5.60893
G1 X180.639 Y146.337 E5.66859
G1 X180.404 Y146.894 E5.71318
G1 X180.036 Y147.685 E5.77753
G1 X179.659 Y148.401 E5.83721
G1 X179.316 Y148.933 E5.8839
G1 X178.818 Y149.643 E5.94787
G1 X178.785 Y149.686 E5.95186
G1 X178.931 Y149.879 E5.96971
G1 X179.432 Y150.594 E6.03411
G1 X179.863 Y151.278 E6.09374
G1 X180.144 Y151.824 E6.13903
G1 X180.51 Y152.607 E6.20278
G1 X180.816 Y153.356 E6.26246
G1 X180.999 Y153.946 E6.30802
G1 X181.228 Y154.797 E6.37302
G1 X181.399 Y155.588 E6.43271
G1 X181.478 Y156.207 E6.47874
G1 X181.554 Y157.071 E6.54271
G1 X181.584 Y157.879 E6.60235
G1 X181.554 Y158.503 E6.64843
G1 X181.478 Y159.37 E6.71262
G1 X181.367 Y160.171 E6.77226
G1 X181.228 Y160.78 E6.81834
G1 X181 Y161.628 E6.8831
G1 X180.752 Y162.398 E6.94277
G1 X180.516 Y162.958 E6.98759
G1 X180.149 Y163.746 E7.05171
G1 X179.772 Y164.462 E7.11139
G1 X179.428 Y164.994 E7.15812
G1 X178.928 Y165.706 E7.22229
G1 X178.43 Y166.345 E7.28204
G1 X178.022 Y166.785 E7.3263
G1 X177.404 Y167.404 E7.39082
G1 X176.805 Y167.948 E7.4505
G1 X176.308 Y168.325 E7.49651
G1 X175.6 Y168.821 E7.56027
G1 X174.915 Y169.252 E7.61996
G1 X174.367 Y169.533 E7.66539
G1 X173.577 Y169.902 E7.7297
G1 X172.829 Y170.208 E7.78931
G1 X172.237 Y170.391 E7.83501
G1 X171.388 Y170.619 E7.89985
G1 X170.597 Y170.79 E7.95954
G1 X169.981 Y170.868 E8.00534
G1 X169.116 Y170.944 E8.06938
G1 X168.308 Y170.974 E8.12902
G1 X167.684 Y170.944 E8.1751
G1 X166.819 Y170.868 E8.23914
G1 X166.017 Y170.757 E8.29886
G1 X165.412 Y170.619 E8.34463
G1 X164.563 Y170.391 E8.40947
G1 X163.793 Y170.143 E8.46914
G1 X163.223 Y169.902 E8.51478
G1 X162.433 Y169.533 E8.57909
G1 X161.717 Y169.155 E8.63881
G1 X161.2 Y168.821 E8.68421
G1 X160.492 Y168.325 E8.74797
G1 X159.853 Y167.829 E8.80763
G1 X159.396 Y167.404 E8.85366
G1 X158.778 Y166.785 E8.91818
G1 X158.236 Y166.185 E8.97782
G1 X157.872 Y165.706 E9.02219
G1 X157.372 Y164.994 E9.08636
G1 X156.941 Y164.31 E9.14599
G1 X156.876 Y164.184 E9.15645
G1 X143.613 Y164.184 E10.1347
G1 X143.558 Y164.303 E10.14437
G1 X143.181 Y165.019 E10.20405
G1 X142.838 Y165.551 E10.25074
G1 X142.34 Y166.261 E10.3147
G1 X141.843 Y166.899 E10.37435
G1 X141.427 Y167.348 E10.4195
G1 X140.81 Y167.965 E10.48386
G1 X140.21 Y168.508 E10.54355
G1 X139.723 Y168.878 E10.58866
G1 X139.013 Y169.376 E10.65262
G1 X138.328 Y169.807 E10.71232
G1 X137.769 Y170.095 E10.7587
G1 X136.979 Y170.463 E10.82298
G1 X136.23 Y170.768 E10.88263
G1 X135.646 Y170.948 E10.9277
G1 X134.797 Y171.176 E10.99254
G1 X134.006 Y171.347 E11.05223
G1 X133.39 Y171.425 E11.09803
G1 X132.525 Y171.501 E11.16207
G1 X131.717 Y171.531 E11.22171
G1 X131.093 Y171.501 E11.26779
G1 X130.228 Y171.425 E11.33183
G1 X129.426 Y171.314 E11.39155
G1 X128.821 Y171.176 E11.43732
G1 X127.972 Y170.948 E11.50216
G1 X127.202 Y170.7 E11.56183
G1 X126.639 Y170.463 E11.60688
G1 X125.849 Y170.095 E11.67116
G1 X125.134 Y169.717 E11.73082
G1 X124.605 Y169.376 E11.77724
G1 X123.895 Y168.878 E11.8412
G1 X123.257 Y168.381 E11.90085
G1 X122.808 Y167.965 E11.946
G1 X122.191 Y167.348 E12.01036
G1 X121.648 Y166.748 E12.07004
G1 X121.278 Y166.261 E12.11516
G1 X120.78 Y165.551 E12.17912
G1 X120.349 Y164.866 E12.23881
G1 X120.06 Y164.303 E12.28549
G1 X119.692 Y163.512 E12.34984
G1 X119.387 Y162.763 E12.40949
G1 X119.209 Y162.185 E12.4541
G1 X118.981 Y161.337 E12.51886
G1 X118.81 Y160.546 E12.57855
G1 X118.732 Y159.93 E12.62435
G1 X118.656 Y159.067 E12.68825
G1 X118.624 Y158.259 E12.74789
G1 X118.655 Y157.634 E12.79405
G1 X118.731 Y156.767 E12.85824
G1 X118.842 Y155.966 E12.91789
G1 X118.981 Y155.357 E12.96396
G1 X119.209 Y154.509 E13.02873
G1 X119.457 Y153.739 E13.08839
G1 X119.692 Y153.182 E13.13298
G1 X120.06 Y152.391 E13.19733
G1 X120.437 Y151.675 E13.25701
G1 X120.78 Y151.143 E13.3037
G1 X121.144 Y150.624 E13.35046
G1 X120.695 Y149.983 E13.40818
G1 X120.264 Y149.298 E13.46788
G1 X119.975 Y148.735 E13.51455
G1 X119.607 Y147.944 E13.5789
G1 X119.302 Y147.195 E13.63855
G1 X119.124 Y146.617 E13.68316
G1 X118.896 Y145.769 E13.74792
G1 X118.725 Y144.978 E13.80761
G1 X118.647 Y144.362 E13.85341
G1 X118.571 Y143.499 E13.91731
G1 X118.539 Y142.691 E13.97695
G1 X118.571 Y142.062 E14.02341
G1 X118.648 Y141.189 E14.08805
G1 X118.758 Y140.388 E14.14768
G1 X118.897 Y139.783 E14.19347
G1 X119.122 Y138.946 E14.2574
G1 X119.37 Y138.177 E14.31699
G1 X119.607 Y137.615 E14.36198
G1 X119.976 Y136.823 E14.42642
G1 X120.353 Y136.107 E14.48611
G1 X120.692 Y135.582 E14.5322
G1 X121.191 Y134.87 E14.59633
G1 X121.687 Y134.231 E14.65599
G1 X122.097 Y133.789 E14.70046
G1 X122.717 Y133.167 E14.76524
G0 F6000 X123.091 Y133.54
G1 F1200 X123.671 Y133.015 E14.82294
G1 X124.124 Y132.672 E14.86485
G1 X124.833 Y132.176 E14.92867
G1 X125.496 Y131.761 E14.98636
G1 X125.978 Y131.514 E15.02631
G1 X126.771 Y131.143 E15.09088
G1 X127.495 Y130.849 E15.14852
G1 X128.048 Y130.679 E15.19119
G1 X128.887 Y130.456 E15.25522
G1 X129.653 Y130.294 E15.31297
G1 X130.179 Y130.229 E15.35206
G1 X131.049 Y130.152 E15.41648
G1 X131.831 Y130.123 E15.4742
G1 X132.399 Y130.152 E15.51615
G1 X133.269 Y130.229 E15.58057
G1 X134.044 Y130.338 E15.63829
G1 X134.561 Y130.456 E15.67741
G1 X135.4 Y130.679 E15.74144
G1 X136.144 Y130.918 E15.79907
G1 X136.677 Y131.143 E15.84175
G1 X137.47 Y131.514 E15.90632
G1 X138.161 Y131.882 E15.96406
G1 X138.615 Y132.176 E16.00396
G1 X139.324 Y132.672 E16.06778
G1 X139.941 Y133.152 E16.12544
G1 X140.357 Y133.54 E16.16739
G1 X140.979 Y134.164 E16.23238
G1 X141.503 Y134.746 E16.29014
G1 X141.827 Y135.176 E16.32985
G1 X142.323 Y135.884 E16.39361
G1 X142.612 Y136.344 E16.43368
G1 X156.855 Y136.344 E17.48421
G1 X157.02 Y135.99 E17.51302
G1 X157.387 Y135.299 E17.57073
G1 X157.687 Y134.836 E17.61142
G1 X158.188 Y134.121 E17.67581
G1 X158.669 Y133.504 E17.73352
G1 X159.04 Y133.105 E17.7737
G1 X159.657 Y132.487 E17.83811
G1 X160.237 Y131.962 E17.89582
G1 X160.676 Y131.63 E17.93641
G1 X161.384 Y131.133 E18.00022
G1 X162.047 Y130.717 E18.05795
G1 X162.549 Y130.459 E18.09958
G1 X163.343 Y130.089 E18.16419
G1 X164.068 Y129.796 E18.22186
G1 X164.607 Y129.631 E18.26344
G1 X165.448 Y129.407 E18.32763
G1 X166.213 Y129.244 E18.38532
G1 X166.742 Y129.179 E18.42463
G1 X167.611 Y129.102 E18.48898
G1 X168.393 Y129.073 E18.5467
G1 X168.963 Y129.102 E18.58879
G1 X169.832 Y129.179 E18.65314
G1 X170.606 Y129.288 E18.71079
G1 X171.126 Y129.407 E18.75014
G1 X171.967 Y129.631 E18.81433
G1 X172.712 Y129.871 E18.87206
G1 X173.231 Y130.089 E18.91358
G1 X174.025 Y130.459 E18.97819
G1 X174.716 Y130.826 E19.0359
G1 X175.19 Y131.133 E19.07755
G1 X175.898 Y131.63 E19.14136
G1 X176.514 Y132.111 E19.199
G1 X176.917 Y132.487 E19.23965
G1 X177.534 Y133.105 E19.30407
G1 X178.058 Y133.686 E19.36177
G1 X178.386 Y134.121 E19.40196
G1 X178.887 Y134.836 E19.46635
G1 X179.303 Y135.498 E19.52402
G1 X179.553 Y135.987 E19.56453
G1 X179.919 Y136.77 E19.62828
G1 X180.213 Y137.495 E19.68598
G1 X180.376 Y138.023 E19.72674
G1 X180.605 Y138.874 E19.79174
G1 X180.769 Y139.638 E19.84937
G1 X180.839 Y140.192 E19.89056
G1 X180.915 Y141.056 E19.95453
G1 X180.943 Y141.838 E20.01225
G1 X180.915 Y142.396 E20.05346
G1 X180.839 Y143.263 E20.11765
G1 X180.731 Y144.037 E20.17529
G1 X180.605 Y144.582 E20.21655
G1 X180.377 Y145.43 E20.28132
G1 X180.136 Y146.174 E20.339
G1 X179.926 Y146.671 E20.3788
G1 X179.558 Y147.462 E20.44314
G1 X179.192 Y148.154 E20.50088
G1 X178.884 Y148.629 E20.54264
G1 X178.386 Y149.339 E20.6066
G1 X178.115 Y149.685 E20.63902
G1 X178.171 Y149.747 E20.64518
G1 X178.499 Y150.182 E20.68537
G1 X179 Y150.897 E20.74976
G1 X179.416 Y151.559 E20.80743
G1 X179.666 Y152.048 E20.84794
G1 X180.032 Y152.831 E20.91169
G1 X180.326 Y153.556 E20.96939
G1 X180.489 Y154.084 E21.01015
G1 X180.718 Y154.935 E21.07515
G1 X180.882 Y155.699 E21.13278
G1 X180.952 Y156.253 E21.17397
G1 X181.028 Y157.117 E21.23794
G1 X181.056 Y157.899 E21.29566
G1 X181.028 Y158.457 E21.33687
G1 X180.952 Y159.324 E21.40106
G1 X180.844 Y160.098 E21.4587
G1 X180.718 Y160.643 E21.49996
G1 X180.49 Y161.491 E21.56473
G1 X180.249 Y162.235 E21.62241
G1 X180.037 Y162.735 E21.66247
G1 X179.67 Y163.523 E21.72658
G1 X179.304 Y164.215 E21.78432
G1 X178.995 Y164.691 E21.82618
G1 X178.495 Y165.403 E21.89035
G1 X178.014 Y166.019 E21.94799
G1 X177.648 Y166.412 E21.98761
G1 X177.03 Y167.031 E22.05212
G1 X176.45 Y167.556 E22.10982
G1 X176.005 Y167.892 E22.15095
G1 X175.297 Y168.388 E22.21471
G1 X174.634 Y168.804 E22.27244
G1 X174.144 Y169.055 E22.31305
G1 X173.354 Y169.424 E22.37736
G1 X172.629 Y169.718 E22.43506
G1 X172.1 Y169.881 E22.47589
G1 X171.251 Y170.109 E22.54073
G1 X170.486 Y170.273 E22.59844
G1 X169.935 Y170.342 E22.63939
G1 X169.07 Y170.418 E22.70344
G1 X168.288 Y170.446 E22.76116
G1 X167.73 Y170.418 E22.80236
G1 X166.865 Y170.342 E22.86641
G1 X166.09 Y170.233 E22.92414
G1 X165.549 Y170.109 E22.96507
G1 X164.7 Y169.881 E23.02991
G1 X163.956 Y169.64 E23.0876
G1 X163.446 Y169.424 E23.12845
G1 X162.656 Y169.055 E23.19276
G1 X161.965 Y168.688 E23.25047
G1 X161.503 Y168.388 E23.2911
G1 X160.795 Y167.892 E23.35486
G1 X160.178 Y167.411 E23.41256
G1 X159.77 Y167.031 E23.45368
G1 X159.152 Y166.412 E23.5182
G1 X158.628 Y165.831 E23.57591
G1 X158.305 Y165.403 E23.61546
G1 X157.805 Y164.691 E23.67963
G1 X157.388 Y164.028 E23.7374
G1 X157.198 Y163.656 E23.76821
G1 X143.277 Y163.656 E24.79499
G1 X143.08 Y164.08 E24.82947
G1 X142.714 Y164.772 E24.88721
G1 X142.406 Y165.247 E24.92897
G1 X141.908 Y165.957 E24.99293
G1 X141.426 Y166.574 E25.05068
G1 X141.054 Y166.975 E25.09102
G1 X140.437 Y167.592 E25.15538
G1 X139.856 Y168.116 E25.21309
G1 X139.419 Y168.446 E25.25348
G1 X138.709 Y168.944 E25.31745
G1 X138.047 Y169.36 E25.37511
G1 X137.546 Y169.616 E25.41661
G1 X136.756 Y169.984 E25.48089
G1 X136.031 Y170.278 E25.53859
G1 X135.509 Y170.438 E25.57886
G1 X134.66 Y170.666 E25.6437
G1 X133.895 Y170.83 E25.70141
G1 X133.344 Y170.899 E25.74237
G1 X132.479 Y170.975 E25.80641
G1 X131.697 Y171.003 E25.86413
G1 X131.139 Y170.975 E25.90534
G1 X130.274 Y170.899 E25.96938
G1 X129.499 Y170.79 E26.02711
G1 X128.958 Y170.666 E26.06805
G1 X128.109 Y170.438 E26.13289
G1 X127.365 Y170.197 E26.19057
G1 X126.862 Y169.984 E26.23086
G1 X126.072 Y169.616 E26.29514
G1 X125.381 Y169.25 E26.35281
G1 X124.909 Y168.944 E26.3943
G1 X124.199 Y168.446 E26.45827
G1 X123.582 Y167.964 E26.51602
G1 X123.181 Y167.592 E26.55636
G1 X122.564 Y166.975 E26.62072
G1 X122.04 Y166.394 E26.67843
G1 X121.71 Y165.957 E26.71882
G1 X121.212 Y165.247 E26.78278
G1 X120.796 Y164.585 E26.84045
G1 X120.538 Y164.08 E26.88228
G1 X120.17 Y163.289 E26.94662
G1 X119.877 Y162.564 E27.0043
G1 X119.719 Y162.048 E27.0441
G1 X119.491 Y161.2 E27.10887
G1 X119.326 Y160.435 E27.16659
G1 X119.258 Y159.884 E27.20754
G1 X119.182 Y159.021 E27.27144
G1 X119.153 Y158.239 E27.32916
G1 X119.181 Y157.68 E27.37044
G1 X119.257 Y156.813 E27.43463
G1 X119.365 Y156.039 E27.49228
G1 X119.491 Y155.494 E27.53353
G1 X119.719 Y154.646 E27.5983
G1 X119.96 Y153.902 E27.65599
G1 X120.17 Y153.405 E27.69578
G1 X120.538 Y152.614 E27.76013
G1 X120.904 Y151.922 E27.81787
G1 X121.212 Y151.447 E27.85962
G1 X121.71 Y150.737 E27.92359
G1 X121.8 Y150.621 E27.93442
G1 X121.625 Y150.389 E27.95585
G1 X121.127 Y149.679 E28.01982
G1 X120.711 Y149.017 E28.07749
G1 X120.453 Y148.512 E28.11931
G1 X120.085 Y147.721 E28.18366
G1 X119.792 Y146.996 E28.24134
G1 X119.634 Y146.48 E28.28114
G1 X119.406 Y145.632 E28.34591
G1 X119.241 Y144.867 E28.40363
G1 X119.173 Y144.316 E28.44458
G1 X119.097 Y143.453 E28.50848
G1 X119.068 Y142.671 E28.56619
G1 X119.097 Y142.108 E28.60778
G1 X119.174 Y141.235 E28.67242
G1 X119.282 Y140.461 E28.73006
G1 X119.406 Y139.92 E28.771
G1 X119.631 Y139.083 E28.83492
G1 X119.873 Y138.339 E28.89263
G1 X120.085 Y137.838 E28.93275
G1 X120.454 Y137.046 E28.9972
G1 X120.82 Y136.354 E29.05494
G1 X121.124 Y135.885 E29.09616
G1 X121.623 Y135.173 E29.16029
G1 X122.105 Y134.556 E29.21804
G1 X122.471 Y134.162 E29.2577
G1 X123.091 Y133.54 E29.32248
G0 F6000 X123.465 Y133.913
G1 F1200 X124.025 Y133.407 E29.37815
G1 X124.427 Y133.104 E29.41528
G1 X125.136 Y132.608 E29.4791
G1 X125.777 Y132.209 E29.53479
G1 X126.201 Y131.993 E29.56988
G1 X126.994 Y131.622 E29.63446
G1 X127.694 Y131.338 E29.69018
G1 X128.184 Y131.189 E29.72795
G1 X129.023 Y130.966 E29.79198
G1 X129.762 Y130.811 E29.84768
G1 X130.226 Y130.755 E29.88215
G1 X131.096 Y130.678 E29.94657
G1 X131.85 Y130.651 E30.00222
G1 X132.352 Y130.678 E30.0393
G1 X133.222 Y130.755 E30.10372
G1 X133.97 Y130.861 E30.15944
G1 X134.425 Y130.966 E30.19388
G1 X135.264 Y131.189 E30.25791
G1 X135.982 Y131.421 E30.31357
G1 X136.454 Y131.622 E30.3514
G1 X137.247 Y131.993 E30.41598
G1 X137.912 Y132.348 E30.47158
G1 X138.312 Y132.608 E30.50677
G1 X139.021 Y133.104 E30.57059
G1 X139.616 Y133.569 E30.62629
G1 X139.983 Y133.913 E30.66339
G1 X140.605 Y134.537 E30.72837
