;FLAVOR:Marlin
;TIME:3201
;Filament used: 2.56807m
;Layer height: 0.16
;MINX:114.247
;MINY:90.639
;MINZ:0.28
;MAXX:184.649
;MAXY:174.632
;MAXZ:8.76
;Generated with Cura_SteamEngine 4.12.1
M140 S100
M105
M190 S100
M104 S220
M105
M109 S220
M82 ;absolute extrusion mode
G28 ; home all axes
 M117 Purge extruder
 G92 E0 ; reset extruder
 G1 Z1.0 F3000 ; move z up little to prevent scratching of surface
 G1 X2 Y20 Z0.3 F5000.0 ; move to start-line position
 G1 X2 Y200.0 Z0.3 F1500.0 E15 ; draw 1st line
 G1 X2 Y200.0 Z0.4 F5000.0 ; move to side a little
 G1 X2 Y20 Z0.4 F1500.0 E30 ; draw 2nd line
 G92 E0 ; reset extruder
 G1 Z1.0 F3000 ; move z up little to prevent scratching of surface
G92 E0
G92 E0
G1 F1500 E-5
;LAYER_COUNT:45
;LAYER:0
M107
G1 F300 Z0.48
G0 F6000 X117.398 Y95.748 Z0.48
;TYPE:SKIRT
G1 F300 Z0.28
G1 F1500 E0
G1 F1200 X117.814 Y95.299 E0.04515
G1 X118.43 Y94.683 E0.1094
G1 X119.03 Y94.14 E0.16909
G1 X119.523 Y93.766 E0.21473
G1 X120.237 Y93.266 E0.27902
G1 X120.921 Y92.836 E0.33861
G1 X121.459 Y92.559 E0.38325
G1 X122.251 Y92.188 E0.44775
G1 X123 Y91.881 E0.50746
G1 X123.621 Y91.69 E0.55538
G1 X124.46 Y91.467 E0.61941
G1 X125.251 Y91.298 E0.67907
G1 X125.84 Y91.224 E0.72285
G1 X126.71 Y91.147 E0.78727
G1 X127.519 Y91.115 E0.84699
G1 X128.154 Y91.147 E0.89389
G1 X129.024 Y91.224 E0.95831
G1 X129.825 Y91.335 E1.01795
G1 X130.404 Y91.467 E1.06175
G1 X131.243 Y91.69 E1.12578
G1 X132.014 Y91.936 E1.18547
G1 X132.613 Y92.188 E1.23341
G1 X133.405 Y92.559 E1.29791
G1 X134.119 Y92.938 E1.35754
G1 X134.627 Y93.266 E1.40214
G1 X135.341 Y93.766 E1.46643
G1 X135.98 Y94.262 E1.52609
G1 X136.434 Y94.683 E1.57176
G1 X136.769 Y95.018 E1.6067
G1 X160.707 Y95.018 E3.37231
G1 X160.89 Y94.821 E3.39215
G1 X161.506 Y94.205 E3.4564
G1 X162.106 Y93.662 E3.51609
G1 X162.593 Y93.292 E3.5612
G1 X163.303 Y92.794 E3.62516
G1 X163.988 Y92.363 E3.68486
G1 X164.547 Y92.075 E3.73124
G1 X165.337 Y91.707 E3.79552
G1 X166.086 Y91.402 E3.85517
G1 X166.67 Y91.222 E3.90024
G1 X167.519 Y90.994 E3.96508
G1 X168.31 Y90.823 E4.02477
G1 X168.926 Y90.745 E4.07057
G1 X169.791 Y90.669 E4.13461
G1 X170.599 Y90.639 E4.19425
G1 X171.223 Y90.669 E4.24033
G1 X172.088 Y90.745 E4.30438
G1 X172.89 Y90.856 E4.36409
G1 X173.495 Y90.994 E4.40986
G1 X174.344 Y91.222 E4.4747
G1 X175.114 Y91.47 E4.53437
G1 X175.677 Y91.707 E4.57942
G1 X176.467 Y92.075 E4.6437
G1 X177.182 Y92.453 E4.70336
G1 X177.711 Y92.794 E4.74978
G1 X178.421 Y93.292 E4.81374
G1 X179.059 Y93.789 E4.87339
G1 X179.508 Y94.205 E4.91854
G1 X180.125 Y94.822 E4.9829
G1 X180.668 Y95.422 E5.04259
G1 X181.038 Y95.909 E5.0877
G1 X181.536 Y96.619 E5.15166
G1 X181.967 Y97.304 E5.21136
G1 X182.255 Y97.864 E5.2578
G1 X182.622 Y98.652 E5.32192
G1 X182.927 Y99.401 E5.38157
G1 X183.106 Y99.98 E5.42627
G1 X183.335 Y100.831 E5.49127
G1 X183.506 Y101.622 E5.55096
G1 X183.584 Y102.24 E5.5969
G1 X183.66 Y103.103 E5.6608
G1 X183.692 Y103.911 E5.72044
G1 X183.66 Y104.54 E5.7669
G1 X183.583 Y105.413 E5.83154
G1 X183.473 Y106.214 E5.89117
G1 X183.334 Y106.819 E5.93696
G1 X183.109 Y107.656 E6.00089
G1 X182.861 Y108.425 E6.06048
G1 X182.627 Y108.981 E6.10497
G1 X182.257 Y109.777 E6.16972
G1 X181.881 Y110.492 E6.2293
G1 X181.536 Y111.027 E6.27626
G1 X181.038 Y111.737 E6.34022
G1 X180.541 Y112.375 E6.39987
G1 X180.125 Y112.824 E6.44502
G1 X179.889 Y113.06 E6.46964
G1 X179.889 Y150.901 E9.2607
G1 X180.012 Y150.996 E9.27216
G1 X180.454 Y151.406 E9.31663
G1 X181.076 Y152.026 E9.38141
G1 X181.62 Y152.624 E9.44103
G1 X182.004 Y153.131 E9.48794
G1 X182.5 Y153.84 E9.55176
G1 X182.93 Y154.525 E9.61142
G1 X183.207 Y155.063 E9.65605
G1 X183.577 Y155.854 E9.72046
G1 X183.883 Y156.603 E9.78014
G1 X184.072 Y157.216 E9.82745
G1 X184.296 Y158.057 E9.89164
G1 X184.466 Y158.848 E9.95132
G1 X184.54 Y159.44 E9.99532
G1 X184.617 Y160.308 E10.0596
G1 X184.649 Y161.116 E10.11924
G1 X184.617 Y161.751 E10.16613
G1 X184.54 Y162.623 E10.2307
G1 X184.429 Y163.424 E10.29034
G1 X184.297 Y164.008 E10.33451
G1 X184.074 Y164.846 E10.39847
G1 X183.827 Y165.616 E10.45811
G1 X183.58 Y166.205 E10.50522
G1 X183.209 Y166.999 E10.56986
G1 X182.83 Y167.715 E10.62961
G1 X182.5 Y168.226 E10.67448
G1 X182.004 Y168.935 E10.7383
G1 X181.508 Y169.574 E10.79796
G1 X181.076 Y170.04 E10.84483
G1 X180.452 Y170.662 E10.90982
G1 X179.851 Y171.204 E10.96951
G1 X179.37 Y171.569 E11.01404
G1 X178.662 Y172.065 E11.0778
G1 X177.977 Y172.496 E11.1375
G1 X177.445 Y172.77 E11.18163
G1 X176.653 Y173.142 E11.24617
G1 X175.905 Y173.449 E11.30581
G1 X175.274 Y173.644 E11.35452
G1 X174.434 Y173.867 E11.41863
G1 X173.643 Y174.036 E11.47828
G1 X173.056 Y174.109 E11.52191
G1 X172.186 Y174.186 E11.58633
G1 X171.377 Y174.218 E11.64605
G1 X170.742 Y174.186 E11.69295
G1 X169.872 Y174.109 E11.75737
G1 X169.071 Y173.998 E11.81701
G1 X168.492 Y173.866 E11.86081
G1 X167.653 Y173.643 E11.92484
G1 X166.882 Y173.397 E11.98453
G1 X166.283 Y173.145 E12.03247
G1 X165.491 Y172.774 E12.09697
G1 X164.777 Y172.395 E12.1566
G1 X164.269 Y172.067 E12.2012
G1 X163.555 Y171.567 E12.26549
G1 X162.916 Y171.071 E12.32515
G1 X162.462 Y170.65 E12.37082
G1 X161.846 Y170.034 E12.43507
G1 X161.821 Y170.006 E12.43784
G1 X138.463 Y170.006 E14.16067
G1 X138.048 Y170.452 E14.20561
G1 X137.429 Y171.07 E14.27012
G1 X136.829 Y171.612 E14.32976
G1 X136.35 Y171.976 E14.37413
G1 X135.638 Y172.476 E14.43831
G1 X134.954 Y172.907 E14.49794
G1 X134.394 Y173.195 E14.54438
G1 X133.607 Y173.562 E14.60843
G1 X132.858 Y173.867 E14.66808
G1 X132.271 Y174.049 E14.71341
G1 X131.422 Y174.277 E14.77825
G1 X130.631 Y174.448 E14.83794
G1 X130.015 Y174.526 E14.88374
G1 X129.15 Y174.602 E14.94778
G1 X128.342 Y174.632 E15.00742
G1 X127.719 Y174.602 E15.05342
G1 X126.853 Y174.526 E15.11754
G1 X126.051 Y174.415 E15.17726
G1 X125.445 Y174.277 E15.2231
G1 X124.596 Y174.049 E15.28794
G1 X123.826 Y173.801 E15.34761
G1 X123.253 Y173.559 E15.39349
G1 X122.468 Y173.192 E15.4574
G1 X121.753 Y172.813 E15.51709
G1 X121.238 Y172.48 E15.56232
G1 X120.523 Y171.979 E15.62672
G1 X119.884 Y171.483 E15.68638
G1 X119.437 Y171.069 E15.73132
G1 X118.819 Y170.452 E15.79573
G1 X118.275 Y169.853 E15.85541
G1 X117.903 Y169.362 E15.90085
G1 X117.406 Y168.654 E15.96465
G1 X116.974 Y167.97 E16.02432
G1 X116.684 Y167.405 E16.07116
G1 X116.314 Y166.61 E16.13584
G1 X116.01 Y165.861 E16.19546
G1 X115.826 Y165.266 E16.24139
G1 X115.602 Y164.426 E16.30552
G1 X115.433 Y163.635 E16.36518
G1 X115.358 Y163.041 E16.40934
G1 X115.281 Y162.174 E16.47353
G1 X115.249 Y161.366 E16.53318
G1 X115.281 Y160.729 E16.58022
G1 X115.358 Y159.858 E16.64471
G1 X115.469 Y159.057 E16.70436
G1 X115.602 Y158.47 E16.74875
G1 X115.826 Y157.63 E16.81287
G1 X116.073 Y156.86 E16.87252
G1 X116.314 Y156.286 E16.91843
G1 X116.684 Y155.491 E16.98311
G1 X117.061 Y154.775 E17.04279
G1 X117.406 Y154.242 E17.08962
G1 X117.903 Y153.534 E17.15343
G1 X118.4 Y152.896 E17.21308
G1 X118.819 Y152.444 E17.25854
G1 X119.437 Y151.827 E17.32295
G1 X120.037 Y151.285 E17.38258
G1 X120.111 Y151.229 E17.38943
G1 X120.111 Y115.247 E20.04338
G1 X119.518 Y114.831 E20.09681
G1 X118.88 Y114.334 E20.15646
G1 X118.431 Y113.918 E20.2016
G1 X117.814 Y113.301 E20.26596
G1 X117.271 Y112.701 E20.32565
G1 X116.901 Y112.214 E20.37076
G1 X116.403 Y111.504 E20.43472
G1 X115.972 Y110.819 E20.49442
G1 X115.683 Y110.256 E20.54109
G1 X115.315 Y109.465 E20.60544
G1 X115.01 Y108.716 E20.66509
G1 X114.832 Y108.138 E20.7097
G1 X114.604 Y107.29 E20.77447
G1 X114.433 Y106.499 E20.83416
G1 X114.355 Y105.883 E20.87995
G1 X114.279 Y105.02 E20.94385
G1 X114.247 Y104.212 E21.0035
G1 X114.278 Y103.587 E21.04965
G1 X114.354 Y102.72 E21.11384
G1 X114.465 Y101.919 E21.17349
G1 X114.604 Y101.31 E21.21956
G1 X114.832 Y100.462 E21.28433
G1 X115.08 Y99.692 E21.344
G1 X115.315 Y99.135 E21.38859
G1 X115.683 Y98.344 E21.45293
G1 X116.06 Y97.628 E21.51262
G1 X116.403 Y97.096 E21.55931
G1 X116.901 Y96.386 E21.62327
G1 X117.398 Y95.748 E21.68292
G0 F6000 X117.815 Y96.073
G1 F1200 X118.187 Y95.672 E21.72327
G1 X118.803 Y95.056 E21.78752
G1 X119.384 Y94.532 E21.84523
G1 X119.825 Y94.199 E21.88599
G1 X120.539 Y93.699 E21.95028
G1 X121.202 Y93.283 E22.00801
G1 X121.683 Y93.037 E22.04786
G1 X122.475 Y92.666 E22.11236
G1 X123.2 Y92.371 E22.1701
G1 X123.756 Y92.2 E22.213
G1 X124.595 Y91.977 E22.27703
G1 X125.361 Y91.815 E22.33478
G1 X125.887 Y91.75 E22.37387
G1 X126.757 Y91.673 E22.43829
G1 X127.539 Y91.644 E22.49601
G1 X128.107 Y91.673 E22.53796
G1 X128.977 Y91.75 E22.60238
G1 X129.752 Y91.859 E22.6601
G1 X130.269 Y91.977 E22.69922
G1 X131.108 Y92.2 E22.76325
G1 X131.852 Y92.439 E22.82089
G1 X132.389 Y92.666 E22.86389
G1 X133.181 Y93.037 E22.92839
G1 X133.871 Y93.405 E22.98607
G1 X134.325 Y93.699 E23.02597
G1 X135.039 Y94.199 E23.09026
G1 X135.656 Y94.68 E23.14796
G1 X136.061 Y95.056 E23.18872
G1 X136.551 Y95.546 E23.23983
G1 X160.936 Y95.546 E25.03842
G1 X161.263 Y95.194 E25.07385
G1 X161.879 Y94.578 E25.13811
G1 X162.46 Y94.054 E25.19581
G1 X162.897 Y93.724 E25.2362
G1 X163.607 Y93.226 E25.30017
G1 X164.269 Y92.81 E25.35784
G1 X164.77 Y92.554 E25.39933
G1 X165.56 Y92.186 E25.46361
G1 X166.285 Y91.892 E25.52132
G1 X166.807 Y91.732 E25.56159
G1 X167.656 Y91.504 E25.62643
G1 X168.421 Y91.34 E25.68413
G1 X168.972 Y91.271 E25.72509
G1 X169.837 Y91.195 E25.78914
G1 X170.619 Y91.167 E25.84685
G1 X171.177 Y91.195 E25.88806
G1 X172.042 Y91.271 E25.95211
G1 X172.817 Y91.38 E26.00983
G1 X173.358 Y91.504 E26.05077
G1 X174.207 Y91.732 E26.11561
G1 X174.951 Y91.973 E26.17329
G1 X175.454 Y92.186 E26.21358
G1 X176.244 Y92.554 E26.27786
G1 X176.935 Y92.92 E26.33554
G1 X177.407 Y93.226 E26.37703
G1 X178.117 Y93.724 E26.44099
G1 X178.734 Y94.206 E26.49874
G1 X179.135 Y94.578 E26.53908
G1 X179.752 Y95.195 E26.60344
G1 X180.276 Y95.776 E26.66115
G1 X180.606 Y96.213 E26.70154
G1 X181.104 Y96.923 E26.76551
G1 X181.52 Y97.585 E26.82317
G1 X181.776 Y98.087 E26.86474
G1 X182.143 Y98.875 E26.92885
G1 X182.437 Y99.6 E26.98656
G1 X182.596 Y100.118 E27.02652
G1 X182.825 Y100.969 E27.09152
G1 X182.989 Y101.733 E27.14916
G1 X183.058 Y102.286 E27.19026
G1 X183.134 Y103.149 E27.25416
G1 X183.163 Y103.931 E27.31188
G1 X183.134 Y104.494 E27.35346
G1 X183.057 Y105.367 E27.4181
G1 X182.949 Y106.141 E27.47574
G1 X182.825 Y106.682 E27.51668
G1 X182.6 Y107.519 E27.58061
G1 X182.358 Y108.263 E27.63831
G1 X182.149 Y108.758 E27.67794
G1 X181.779 Y109.554 E27.74269
G1 X181.413 Y110.246 E27.80043
G1 X181.104 Y110.723 E27.84235
G1 X180.606 Y111.433 E27.90631
G1 X180.124 Y112.05 E27.96406
G1 X179.752 Y112.451 E28.0044
G1 X179.361 Y112.842 E28.04519
G1 X179.361 Y151.159 E30.87136
G1 X179.687 Y151.414 E30.90189
G1 X180.081 Y151.78 E30.94155
G1 X180.703 Y152.4 E31.00633
G1 X181.228 Y152.98 E31.06403
G1 X181.571 Y153.433 E31.10594
G1 X182.067 Y154.142 E31.16976
G1 X182.482 Y154.805 E31.22745
G1 X182.729 Y155.287 E31.2674
G1 X183.099 Y156.078 E31.33181
G1 X183.394 Y156.803 E31.38954
G1 X183.562 Y157.352 E31.43189
G1 X183.786 Y158.193 E31.49608
G1 X183.949 Y158.958 E31.55377
G1 X184.014 Y159.486 E31.59301
G1 X184.091 Y160.354 E31.65728
G1 X184.12 Y161.136 E31.715
G1 X184.091 Y161.704 E31.75695
G1 X184.014 Y162.576 E31.82152
G1 X183.906 Y163.351 E31.87923
G1 X183.787 Y163.872 E31.91865
G1 X183.564 Y164.71 E31.98261
G1 X183.324 Y165.455 E32.04034
G1 X183.101 Y165.982 E32.08255
G1 X182.73 Y166.776 E32.14719
G1 X182.363 Y167.467 E32.2049
G1 X182.067 Y167.924 E32.24506
G1 X181.571 Y168.633 E32.30888
G1 X181.091 Y169.25 E32.36653
G1 X180.703 Y169.666 E32.40849
G1 X180.079 Y170.288 E32.47348
G1 X179.497 Y170.812 E32.53124
G1 X179.067 Y171.136 E32.57095
G1 X178.359 Y171.632 E32.63471
G1 X177.696 Y172.048 E32.69244
G1 X177.221 Y172.292 E32.73183
G1 X176.429 Y172.664 E32.79637
G1 X175.705 Y172.96 E32.85406
G1 X175.138 Y173.134 E32.8978
G1 X174.298 Y173.357 E32.96191
G1 X173.533 Y173.519 E33.01958
G1 X173.009 Y173.583 E33.05852
G1 X172.139 Y173.66 E33.12294
G1 X171.357 Y173.689 E33.18066
G1 X170.789 Y173.66 E33.2226
G1 X169.919 Y173.583 E33.28702
G1 X169.144 Y173.474 E33.34475
G1 X168.627 Y173.356 E33.38386
G1 X167.788 Y173.133 E33.44789
G1 X167.044 Y172.894 E33.50553
G1 X166.507 Y172.667 E33.54853
G1 X165.715 Y172.296 E33.61304
G1 X165.025 Y171.928 E33.67072
G1 X164.571 Y171.634 E33.71061
G1 X163.857 Y171.134 E33.77491
G1 X163.24 Y170.653 E33.83261
G1 X162.835 Y170.277 E33.87337
G1 X162.219 Y169.661 E33.93762
G1 X162.054 Y169.478 E33.9558
G1 X138.205 Y169.478 E35.71484
G1 X138.055 Y169.67 E35.73282
G1 X137.675 Y170.078 E35.77394
G1 X137.056 Y170.696 E35.83845
G1 X136.475 Y171.22 E35.89616
G1 X136.047 Y171.543 E35.93571
G1 X135.335 Y172.043 E35.99988
G1 X134.672 Y172.46 E36.05765
G1 X134.171 Y172.717 E36.09918
G1 X133.384 Y173.084 E36.16323
G1 X132.659 Y173.378 E36.22093
G1 X132.134 Y173.539 E36.26144
G1 X131.285 Y173.767 E36.32628
G1 X130.52 Y173.931 E36.38398
G1 X129.969 Y174 E36.42494
G1 X129.104 Y174.076 E36.48899
G1 X128.322 Y174.104 E36.5467
G1 X127.765 Y174.076 E36.58784
G1 X126.899 Y174 E36.65196
G1 X126.124 Y173.892 E36.70967
G1 X125.582 Y173.767 E36.7507
G1 X124.733 Y173.539 E36.81554
G1 X123.989 Y173.298 E36.87322
G1 X123.477 Y173.08 E36.91426
G1 X122.692 Y172.713 E36.97818
G1 X122.001 Y172.346 E37.03589
G1 X121.541 Y172.048 E37.07631
G1 X120.826 Y171.547 E37.14071
G1 X120.209 Y171.066 E37.19841
G1 X119.81 Y170.695 E37.2386
G1 X119.192 Y170.078 E37.30301
G1 X118.667 Y169.498 E37.36071
G1 X118.335 Y169.059 E37.40131
G1 X117.838 Y168.351 E37.46511
G1 X117.422 Y167.688 E37.52284
G1 X117.163 Y167.182 E37.56477
G1 X116.793 Y166.387 E37.62944
G1 X116.499 Y165.662 E37.68715
G1 X116.337 Y165.13 E37.72817
G1 X116.113 Y164.29 E37.79229
G1 X115.95 Y163.524 E37.85005
G1 X115.884 Y162.994 E37.88944
G1 X115.807 Y162.127 E37.95364
G1 X115.778 Y161.345 E38.01136
G1 X115.807 Y160.776 E38.05338
G1 X115.884 Y159.905 E38.11788
G1 X115.992 Y159.13 E38.17559
G1 X116.113 Y158.606 E38.21526
G1 X116.337 Y157.766 E38.27938
G1 X116.576 Y157.022 E38.33702
G1 X116.793 Y156.509 E38.3781
G1 X117.163 Y155.714 E38.44278
G1 X117.529 Y155.022 E38.50052
G1 X117.838 Y154.545 E38.54244
G1 X118.335 Y153.837 E38.60624
G1 X118.816 Y153.221 E38.66388
G1 X119.192 Y152.818 E38.70454
G1 X119.81 Y152.201 E38.76895
G1 X120.391 Y151.677 E38.82666
G1 X120.639 Y151.49 E38.84956
G1 X120.639 Y114.966 E41.54349
G1 X120.532 Y114.897 E41.55288
G1 X119.822 Y114.399 E41.61685
G1 X119.205 Y113.917 E41.67459
G1 X118.804 Y113.545 E41.71494
G1 X118.187 Y112.928 E41.7793
G1 X117.663 Y112.347 E41.837
G1 X117.333 Y111.91 E41.87739
G1 X116.835 Y111.2 E41.94136
G1 X116.419 Y110.538 E41.99903
G1 X116.161 Y110.033 E42.04086
G1 X115.793 Y109.242 E42.1052
G1 X115.5 Y108.517 E42.16288
G1 X115.342 Y108.001 E42.20268
G1 X115.114 Y107.153 E42.26745
G1 X114.949 Y106.388 E42.32517
G1 X114.881 Y105.837 E42.36612
G1 X114.805 Y104.974 E42.43002
G1 X114.776 Y104.192 E42.48774
G1 X114.804 Y103.633 E42.52902
G1 X114.88 Y102.766 E42.59321
G1 X114.988 Y101.992 E42.65085
G1 X115.114 Y101.447 E42.69211
G1 X115.342 Y100.599 E42.75688
G1 X115.583 Y99.855 E42.81456
G1 X115.793 Y99.358 E42.85436
G1 X116.161 Y98.567 E42.91871
G1 X116.527 Y97.875 E42.97645
G1 X116.835 Y97.4 E43.0182
G1 X117.333 Y96.69 E43.08217
G1 X117.815 Y96.073 E43.13992
G0 F6000 X118.231 Y96.399
G1 F1200 X118.561 Y96.046 E43.17556
G1 X119.177 Y95.43 E43.23981
G1 X119.738 Y94.925 E43.29549
G1 X120.128 Y94.631 E43.33151
G1 X120.842 Y94.131 E43.3958
G1 X121.483 Y93.732 E43.45149
G1 X121.907 Y93.515 E43.48662
G1 X122.699 Y93.144 E43.55113
G1 X123.399 Y92.861 E43.60682
G1 X123.892 Y92.71 E43.64485
G1 X124.731 Y92.487 E43.70888
G1 X125.47 Y92.332 E43.76457
G1 X125.934 Y92.276 E43.79905
G1 X126.804 Y92.199 E43.86347
G1 X127.558 Y92.172 E43.91911
G1 X128.06 Y92.199 E43.95619
G1 X128.93 Y92.276 E44.02061
G1 X129.678 Y92.382 E44.07634
G1 X130.133 Y92.487 E44.11078
G1 X130.972 Y92.71 E44.17481
G1 X131.69 Y92.942 E44.23046
G1 X132.165 Y93.144 E44.26853
G1 X132.957 Y93.515 E44.33304
G1 X133.622 Y93.871 E44.38868
G1 X134.022 Y94.131 E44.42386
G1 X134.736 Y94.631 E44.48816
G1 X135.33 Y95.096 E44.5438
G1 X135.687 Y95.43 E44.57986
G1 X136.302 Y96.045 E44.64401
G1 X136.328 Y96.074 E44.64688
G1 X161.186 Y96.074 E46.48035
G1 X161.303 Y95.925 E46.49432
