;FLAVOR:Marlin
;TIME:16752
;Filament used: 11.8066m
;Layer height: 0.16
;MINX:87.887
;MINY:90.989
;MINZ:0.28
;MAXX:209.895
;MAXY:206.074
;MAXZ:20.08
;Generated with Cura_SteamEngine 4.12.1
M140 S100
M105
M190 S100
M104 S220
M105
M109 S220
M82 ;absolute extrusion mode
G28 ; home all axes
 M117 Purge extruder
 G92 E0 ; reset extruder
 G1 Z1.0 F3000 ; move z up little to prevent scratching of surface
 G1 X2 Y20 Z0.3 F5000.0 ; move to start-line position
 G1 X2 Y200.0 Z0.3 F1500.0 E15 ; draw 1st line
 G1 X2 Y200.0 Z0.4 F5000.0 ; move to side a little
 G1 X2 Y20 Z0.4 F1500.0 E30 ; draw 2nd line
 G92 E0 ; reset extruder
 G1 Z1.0 F3000 ; move z up little to prevent scratching of surface
G92 E0
G92 E0
G1 F1500 E-5
;LAYER_COUNT:105
;LAYER:0
M107
G1 F300 Z0.48
G0 F6000 X93.857 Y96.227 Z0.48
;TYPE:SKIRT
G1 F300 Z0.28
G1 F1500 E0
G1 F1200 X94.457 Y95.684 E0.05969
G1 X94.949 Y95.311 E0.10523
G1 X96.374 Y94.313 E0.23354
G1 X97.059 Y93.882 E0.29324
G1 X97.603 Y93.602 E0.33836
G1 X99.184 Y92.863 E0.46708
G1 X99.933 Y92.557 E0.52676
G1 X100.54 Y92.37 E0.57361
G1 X102.226 Y91.92 E0.70232
G1 X103.016 Y91.75 E0.76192
G1 X103.617 Y91.675 E0.80659
G1 X105.353 Y91.522 E0.93513
G1 X106.162 Y91.49 E0.99485
G1 X106.79 Y91.522 E1.04123
G1 X108.527 Y91.675 E1.16984
G1 X109.328 Y91.785 E1.22948
G1 X109.919 Y91.92 E1.27419
G1 X111.602 Y92.369 E1.40267
G1 X112.372 Y92.615 E1.46229
G1 X112.964 Y92.865 E1.50968
G1 X114.548 Y93.607 E1.6387
G1 X115.262 Y93.986 E1.69832
G1 X115.769 Y94.313 E1.74282
G1 X117.192 Y95.309 E1.87093
G1 X117.831 Y95.805 E1.9306
G1 X118.281 Y96.222 E1.97585
G1 X119.517 Y97.456 E2.10467
G1 X120.061 Y98.055 E2.16435
G1 X120.439 Y98.554 E2.21052
G1 X121.436 Y99.978 E2.33874
G1 X121.582 Y100.21 E2.35896
G1 X175.901 Y100.21 E6.3654
G1 X176.017 Y99.99 E6.38374
G1 X176.345 Y99.483 E6.42828
G1 X177.346 Y98.052 E6.55709
G1 X177.842 Y97.413 E6.61675
G1 X178.265 Y96.956 E6.66268
G1 X179.494 Y95.727 E6.79088
G1 X180.094 Y95.184 E6.85057
G1 X180.586 Y94.811 E6.8961
G1 X182.015 Y93.81 E7.02479
G1 X182.699 Y93.379 E7.08442
G1 X183.249 Y93.097 E7.13001
G1 X184.828 Y92.36 E7.25853
G1 X185.577 Y92.055 E7.31818
G1 X186.177 Y91.869 E7.36452
G1 X187.862 Y91.419 E7.49315
G1 X188.653 Y91.249 E7.55283
G1 X189.255 Y91.174 E7.59757
G1 X190.991 Y91.021 E7.72611
G1 X191.8 Y90.989 E7.78583
G1 X192.428 Y91.021 E7.83221
G1 X194.165 Y91.174 E7.96082
G1 X194.966 Y91.284 E8.02046
G1 X195.558 Y91.419 E8.06524
G1 X197.24 Y91.868 E8.19365
G1 X198.01 Y92.115 E8.25329
G1 X198.589 Y92.359 E8.29963
G1 X200.175 Y93.099 E8.42872
G1 X200.891 Y93.476 E8.4884
G1 X201.411 Y93.812 E8.53407
G1 X202.834 Y94.809 E8.66222
G1 X203.473 Y95.306 E8.72193
G1 X203.925 Y95.725 E8.76739
G1 X205.159 Y96.959 E8.89611
G1 X205.702 Y97.559 E8.95579
G1 X206.075 Y98.05 E9.00127
G1 X207.072 Y99.473 E9.12943
G1 X207.502 Y100.158 E9.18908
G1 X207.786 Y100.709 E9.2348
G1 X208.525 Y102.293 E9.36373
G1 X208.83 Y103.042 E9.42338
G1 X209.015 Y103.64 E9.46954
G1 X209.465 Y105.324 E9.59811
G1 X209.635 Y106.115 E9.65779
G1 X209.71 Y106.718 E9.7026
G1 X209.863 Y108.453 E9.83107
G1 X209.895 Y109.261 E9.89071
G1 X209.863 Y109.89 E9.93717
G1 X209.71 Y111.628 E10.06585
G1 X209.6 Y112.429 E10.12549
G1 X209.465 Y113.023 E10.17042
G1 X209.015 Y114.707 E10.29898
G1 X208.767 Y115.477 E10.35865
G1 X208.525 Y116.054 E10.4048
G1 X207.788 Y117.634 E10.53339
G1 X207.41 Y118.349 E10.59304
G1 X207.074 Y118.869 E10.63871
G1 X206.073 Y120.298 E10.76739
G1 X205.577 Y120.937 E10.82706
G1 X205.157 Y121.39 E10.87262
G1 X203.928 Y122.619 E11.00082
G1 X203.328 Y123.162 E11.0605
G1 X202.832 Y123.538 E11.10641
G1 X201.401 Y124.539 E11.23522
G1 X200.716 Y124.969 E11.29487
G1 X200.684 Y124.985 E11.29751
G1 X200.684 Y126.697 E11.42378
G1 X200.82 Y126.847 E11.43872
G1 X201.301 Y127.497 E11.49836
G1 X201.716 Y128.191 E11.558
G1 X202.06 Y128.923 E11.61766
G1 X202.33 Y129.686 E11.67735
G1 X202.523 Y130.471 E11.73698
G1 X202.638 Y131.272 E11.79666
G1 X202.674 Y132.034 E11.85293
G1 X202.674 Y151.724 E13.30522
G1 X202.634 Y152.532 E13.36489
G1 X202.514 Y153.332 E13.42455
G1 X202.317 Y154.116 E13.48418
G1 X202.042 Y154.877 E13.54386
G1 X201.694 Y155.607 E13.60351
G1 X201.275 Y156.3 E13.66324
G1 X200.791 Y156.947 E13.72283
G1 X200.684 Y157.064 E13.73453
G1 X200.684 Y172.174 E14.84901
G1 X200.714 Y172.19 E14.85151
G1 X201.233 Y172.525 E14.89708
G1 X202.654 Y173.52 E15.02503
G1 X203.293 Y174.016 E15.08469
G1 X203.747 Y174.437 E15.13036
G1 X204.988 Y175.678 E15.2598
G1 X205.531 Y176.278 E15.31949
G1 X205.907 Y176.774 E15.3654
G1 X206.901 Y178.195 E15.49331
G1 X207.331 Y178.88 E15.55296
G1 X207.609 Y179.421 E15.59782
G1 X208.347 Y181 E15.72638
G1 X208.653 Y181.749 E15.78606
G1 X208.839 Y182.351 E15.83253
G1 X209.29 Y184.038 E15.96133
G1 X209.46 Y184.829 E16.021
G1 X209.536 Y185.433 E16.0659
G1 X209.689 Y187.168 E16.19437
G1 X209.721 Y187.976 E16.25401
G1 X209.689 Y188.605 E16.30047
G1 X209.536 Y190.343 E16.42915
G1 X209.426 Y191.144 E16.48879
G1 X209.291 Y191.737 E16.53364
G1 X208.841 Y193.422 E16.66228
G1 X208.594 Y194.192 E16.72193
G1 X208.349 Y194.773 E16.76843
G1 X207.612 Y196.351 E16.89689
G1 X207.234 Y197.066 E16.95654
G1 X206.902 Y197.58 E17.00168
G1 X205.9 Y199.012 E17.13059
G1 X205.405 Y199.651 E17.1902
G1 X204.977 Y200.112 E17.2366
G1 X203.747 Y201.34 E17.3648
G1 X203.147 Y201.882 E17.42443
G1 X202.661 Y202.25 E17.4694
G1 X201.231 Y203.252 E17.59819
G1 X200.547 Y203.683 E17.65782
G1 X200 Y203.964 E17.70318
G1 X198.423 Y204.701 E17.83157
G1 X197.674 Y205.007 E17.89124
G1 X197.07 Y205.194 E17.93788
G1 X195.385 Y205.644 E18.06652
G1 X194.594 Y205.814 E18.12619
G1 X193.991 Y205.889 E18.17101
G1 X192.254 Y206.042 E18.29962
G1 X191.446 Y206.074 E18.35927
G1 X190.817 Y206.042 E18.40572
G1 X189.081 Y205.889 E18.53426
G1 X188.28 Y205.779 E18.59389
G1 X187.69 Y205.644 E18.63854
G1 X186.004 Y205.194 E18.76724
G1 X185.233 Y204.947 E18.82696
G1 X184.648 Y204.701 E18.87377
G1 X183.067 Y203.962 E19.00249
G1 X182.353 Y203.584 E19.06208
G1 X181.838 Y203.251 E19.10731
G1 X180.413 Y202.253 E19.23563
G1 X179.774 Y201.757 E19.29529
G1 X179.321 Y201.337 E19.34085
G1 X178.088 Y200.104 E19.46947
G1 X177.545 Y199.504 E19.52915
G1 X177.172 Y199.012 E19.57469
G1 X176.174 Y197.587 E19.70301
G1 X175.743 Y196.902 E19.7627
G1 X175.576 Y196.578 E19.78959
G1 X123.602 Y196.578 E23.62307
G1 X123.376 Y197.006 E23.65877
G1 X123.042 Y197.522 E23.7041
G1 X122.044 Y198.947 E23.83242
G1 X121.548 Y199.586 E23.89209
G1 X121.128 Y200.039 E23.93765
G1 X119.895 Y201.272 E24.06626
G1 X119.295 Y201.815 E24.12595
G1 X118.803 Y202.188 E24.17149
G1 X117.378 Y203.186 E24.29981
G1 X116.693 Y203.617 E24.3595
G1 X116.149 Y203.897 E24.40463
G1 X114.568 Y204.636 E24.53335
G1 X113.819 Y204.942 E24.59302
G1 X113.212 Y205.129 E24.63987
G1 X111.526 Y205.579 E24.76858
G1 X110.736 Y205.749 E24.82818
G1 X110.135 Y205.824 E24.87285
G1 X108.399 Y205.977 E25.00139
G1 X107.59 Y206.009 E25.06111
G1 X106.962 Y205.977 E25.10749
G1 X105.225 Y205.824 E25.2361
G1 X104.424 Y205.714 E25.29574
G1 X103.833 Y205.579 E25.34045
G1 X102.15 Y205.13 E25.46893
G1 X101.38 Y204.884 E25.52855
G1 X100.788 Y204.634 E25.57595
G1 X99.204 Y203.892 E25.70496
G1 X98.49 Y203.513 E25.76458
G1 X97.983 Y203.186 E25.80908
G1 X96.56 Y202.19 E25.9372
G1 X95.921 Y201.694 E25.99686
G1 X95.471 Y201.277 E26.04211
G1 X94.235 Y200.043 E26.17093
G1 X93.691 Y199.444 E26.23061
G1 X93.313 Y198.945 E26.27679
G1 X92.316 Y197.521 E26.405
G1 X91.885 Y196.836 E26.46469
G1 X91.602 Y196.285 E26.51038
G1 X90.864 Y194.702 E26.63921
G1 X90.559 Y193.953 E26.69885
G1 X90.375 Y193.357 E26.74486
G1 X89.925 Y191.673 E26.87343
G1 X89.755 Y190.882 E26.9331
G1 X89.68 Y190.279 E26.97792
G1 X89.527 Y188.545 E27.10631
G1 X89.495 Y187.737 E27.16596
G1 X89.526 Y187.109 E27.21233
G1 X89.679 Y185.37 E27.34109
G1 X89.79 Y184.568 E27.40081
G1 X89.926 Y183.973 E27.44583
G1 X90.376 Y182.29 E27.57432
G1 X90.623 Y181.52 E27.63397
G1 X90.864 Y180.946 E27.67988
G1 X91.602 Y179.363 E27.80871
G1 X91.98 Y178.648 E27.86836
G1 X92.316 Y178.127 E27.91409
G1 X93.313 Y176.703 E28.0423
G1 X93.809 Y176.064 E28.10196
G1 X94.235 Y175.605 E28.14815
G1 X95.471 Y174.371 E28.27697
G1 X96.071 Y173.829 E28.33661
G1 X96.56 Y173.458 E28.38189
G1 X97.983 Y172.462 E28.51
G1 X98.668 Y172.032 E28.56965
G1 X99.204 Y171.756 E28.61412
G1 X99.316 Y171.704 E28.62323
G1 X99.316 Y126.542 E31.95427
G1 X99.185 Y126.487 E31.96475
G1 X97.608 Y125.75 E32.09314
G1 X96.893 Y125.372 E32.15279
G1 X96.381 Y125.041 E32.19776
G1 X94.949 Y124.039 E32.32667
G1 X94.31 Y123.544 E32.38629
G1 X93.849 Y123.116 E32.43269
G1 X92.621 Y121.886 E32.56088
G1 X92.079 Y121.286 E32.62052
G1 X91.711 Y120.8 E32.66548
G1 X90.709 Y119.37 E32.79427
G1 X90.278 Y118.686 E32.8539
G1 X89.996 Y118.137 E32.89943
G1 X89.259 Y116.559 E33.02788
G1 X88.953 Y115.81 E33.08756
G1 X88.767 Y115.209 E33.13396
G1 X88.317 Y113.525 E33.26253
G1 X88.147 Y112.734 E33.32221
G1 X88.072 Y112.131 E33.36702
G1 X87.919 Y110.396 E33.49549
G1 X87.887 Y109.588 E33.55513
G1 X87.919 Y108.959 E33.60159
G1 X88.072 Y107.221 E33.73027
G1 X88.182 Y106.42 E33.78991
G1 X88.317 Y105.827 E33.83477
G1 X88.767 Y104.142 E33.9634
G1 X89.014 Y103.372 E34.02305
G1 X89.259 Y102.79 E34.06962
G1 X89.998 Y101.208 E34.19841
G1 X90.376 Y100.493 E34.25806
G1 X90.71 Y99.977 E34.3034
G1 X91.708 Y98.552 E34.43172
G1 X92.204 Y97.913 E34.49138
G1 X92.624 Y97.46 E34.53694
G1 X93.857 Y96.227 E34.66556
G0 F6000 X94.23 Y96.6
G1 F1200 X94.811 Y96.076 E34.72326
G1 X95.252 Y95.743 E34.76402
G1 X96.677 Y94.745 E34.89234
G1 X97.34 Y94.33 E34.95003
G1 X97.827 Y94.08 E34.99041
G1 X99.408 Y93.341 E35.11913
G1 X100.133 Y93.047 E35.17683
G1 X100.676 Y92.88 E35.21873
G1 X102.362 Y92.43 E35.34744
G1 X103.127 Y92.267 E35.40513
G1 X103.664 Y92.201 E35.44504
G1 X105.4 Y92.048 E35.57358
G1 X106.182 Y92.019 E35.6313
G1 X106.744 Y92.048 E35.67281
G1 X108.481 Y92.201 E35.80142
G1 X109.256 Y92.309 E35.85913
G1 X109.782 Y92.43 E35.89894
G1 X111.465 Y92.879 E36.02742
G1 X112.21 Y93.119 E36.08515
G1 X112.74 Y93.343 E36.12759
G1 X114.324 Y94.085 E36.2566
G1 X115.014 Y94.453 E36.31428
G1 X115.466 Y94.746 E36.35401
G1 X116.889 Y95.742 E36.48212
G1 X117.506 Y96.223 E36.53983
G1 X117.908 Y96.596 E36.58028
G1 X119.144 Y97.83 E36.7091
G1 X119.669 Y98.41 E36.7668
G1 X120.007 Y98.857 E36.80813
G1 X121.004 Y100.281 E36.93635
G1 X121.29 Y100.738 E36.97611
G1 X176.218 Y100.738 E41.02747
G1 X176.484 Y100.238 E41.06925
G1 X176.778 Y99.786 E41.10902
G1 X177.779 Y98.355 E41.23783
G1 X178.259 Y97.737 E41.29554
G1 X178.638 Y97.329 E41.33661
G1 X179.867 Y96.1 E41.46481
G1 X180.448 Y95.576 E41.52252
G1 X180.889 Y95.243 E41.56328
G1 X182.318 Y94.242 E41.69196
G1 X182.98 Y93.827 E41.74959
G1 X183.472 Y93.575 E41.79036
G1 X185.051 Y92.838 E41.91889
G1 X185.776 Y92.544 E41.97659
G1 X186.314 Y92.379 E42.0181
G1 X187.999 Y91.929 E42.14674
G1 X188.764 Y91.766 E42.20443
G1 X189.302 Y91.7 E42.24441
G1 X191.038 Y91.547 E42.37295
G1 X191.82 Y91.518 E42.43066
G1 X192.382 Y91.547 E42.47217
G1 X194.119 Y91.7 E42.60078
G1 X194.894 Y91.808 E42.6585
G1 X195.422 Y91.929 E42.69845
G1 X197.104 Y92.378 E42.82686
G1 X197.848 Y92.618 E42.88452
G1 X198.366 Y92.837 E42.926
G1 X199.952 Y93.577 E43.05508
G1 X200.643 Y93.944 E43.11279
G1 X201.108 Y94.245 E43.15365
G1 X202.531 Y95.242 E43.2818
G1 X203.148 Y95.723 E43.33951
G1 X203.552 Y96.098 E43.38016
G1 X204.786 Y97.332 E43.50888
G1 X205.31 Y97.913 E43.56659
G1 X205.642 Y98.353 E43.60724
G1 X206.639 Y99.776 E43.7354
G1 X207.055 Y100.439 E43.79313
G1 X207.307 Y100.932 E43.83397
G1 X208.046 Y102.516 E43.96289
G1 X208.34 Y103.241 E44.02059
G1 X208.504 Y103.777 E44.06193
G1 X208.954 Y105.461 E44.1905
G1 X209.118 Y106.226 E44.24821
G1 X209.184 Y106.764 E44.28819
G1 X209.337 Y108.499 E44.41665
G1 X209.366 Y109.281 E44.47437
G1 X209.338 Y109.843 E44.51587
G1 X209.185 Y111.581 E44.64456
G1 X209.076 Y112.356 E44.70229
G1 X208.954 Y112.886 E44.7424
G1 X208.504 Y114.57 E44.87097
G1 X208.264 Y115.315 E44.9287
G1 X208.046 Y115.83 E44.96994
G1 X207.309 Y117.41 E45.09854
G1 X206.943 Y118.102 E45.15628
G1 X206.642 Y118.566 E45.19707
G1 X205.641 Y119.995 E45.32576
G1 X205.16 Y120.613 E45.38352
G1 X204.784 Y121.017 E45.42422
G1 X203.555 Y122.246 E45.55242
G1 X202.974 Y122.77 E45.61013
G1 X202.529 Y123.105 E45.65121
G1 X201.098 Y124.106 E45.78002
G1 X200.435 Y124.522 E45.83775
G1 X200.156 Y124.664 E45.86084
G1 X200.156 Y126.899 E46.02569
G1 X200.428 Y127.201 E46.05566
G1 X200.89 Y127.832 E46.11335
G1 X201.285 Y128.507 E46.17103
G1 X201.61 Y129.219 E46.22876
G1 X201.86 Y129.961 E46.28651
G1 X202.033 Y130.724 E46.34422
G1 X202.127 Y131.5 E46.40187
G1 X202.146 Y132.034 E46.44128
G1 X202.146 Y151.724 E47.89357
G1 X202.106 Y152.505 E47.95125
G1 X201.987 Y153.279 E48.00901
G1 X201.789 Y154.035 E48.06665
G1 X201.515 Y154.768 E48.12437
G1 X201.167 Y155.469 E48.18209
G1 X200.75 Y156.131 E48.2398
G1 X200.268 Y156.747 E48.29749
G1 X200.156 Y156.867 E48.3096
G1 X200.156 Y172.492 E49.46206
G1 X200.467 Y172.657 E49.48803
G1 X200.93 Y172.958 E49.52876
G1 X202.351 Y173.953 E49.65671
G1 X202.968 Y174.433 E49.71437
G1 X203.374 Y174.81 E49.75523
G1 X204.615 Y176.051 E49.88468
G1 X205.139 Y176.632 E49.94239
G1 X205.474 Y177.077 E49.98347
G1 X206.468 Y178.498 E50.11138
G1 X206.884 Y179.161 E50.16911
G1 X207.131 Y179.644 E50.20912
G1 X207.869 Y181.223 E50.33768
G1 X208.163 Y181.948 E50.39538
G1 X208.329 Y182.488 E50.43705
G1 X208.78 Y184.175 E50.56585
G1 X208.943 Y184.94 E50.62354
G1 X209.01 Y185.479 E50.6636
G1 X209.163 Y187.214 E50.79207
G1 X209.192 Y187.996 E50.84979
G1 X209.164 Y188.558 E50.89129
G1 X209.011 Y190.296 E51.01998
G1 X208.902 Y191.071 E51.0777
G1 X208.781 Y191.6 E51.11773
G1 X208.331 Y193.285 E51.24636
G1 X208.091 Y194.03 E51.30409
G1 X207.871 Y194.55 E51.34574
G1 X207.134 Y196.128 E51.4742
G1 X206.767 Y196.819 E51.53191
G1 X206.47 Y197.277 E51.57217
G1 X205.468 Y198.709 E51.70108
G1 X204.987 Y199.327 E51.75884
G1 X204.604 Y199.738 E51.80028
G1 X203.374 Y200.966 E51.92847
G1 X202.793 Y201.49 E51.98618
G1 X202.358 Y201.818 E52.02636
G1 X200.928 Y202.82 E52.15515
G1 X200.266 Y203.236 E52.21282
G1 X199.776 Y203.486 E52.25339
G1 X198.199 Y204.223 E52.38179
G1 X197.475 Y204.518 E52.43945
G1 X196.933 Y204.684 E52.48126
G1 X195.248 Y205.134 E52.6099
G1 X194.483 Y205.297 E52.66759
G1 X193.945 Y205.363 E52.70757
G1 X192.208 Y205.516 E52.83618
G1 X191.426 Y205.545 E52.8939
G1 X190.864 Y205.516 E52.9354
G1 X189.128 Y205.363 E53.06394
G1 X188.353 Y205.255 E53.12166
G1 X187.826 Y205.134 E53.16154
G1 X186.14 Y204.684 E53.29025
G1 X185.395 Y204.444 E53.34798
G1 X184.872 Y204.223 E53.38986
G1 X183.291 Y203.484 E53.51858
G1 X182.6 Y203.117 E53.57629
G1 X182.141 Y202.819 E53.61665
G1 X180.716 Y201.821 E53.74497
G1 X180.099 Y201.34 E53.80267
G1 X179.694 Y200.964 E53.84343
G1 X178.461 Y199.731 E53.97205
G1 X177.937 Y199.15 E54.02975
G1 X177.604 Y198.709 E54.07051
G1 X176.606 Y197.284 E54.19883
G1 X176.191 Y196.621 E54.25652
G1 X175.94 Y196.132 E54.29706
G1 X175.902 Y196.05 E54.30373
G1 X123.284 Y196.05 E58.18471
G1 X122.909 Y196.758 E58.2438
G1 X122.61 Y197.219 E58.28433
G1 X121.612 Y198.644 E58.41265
G1 X121.131 Y199.261 E58.47035
G1 X120.755 Y199.666 E58.51111
G1 X119.522 Y200.899 E58.63973
G1 X118.941 Y201.423 E58.69743
G1 X118.5 Y201.756 E58.73819
G1 X117.075 Y202.754 E58.86651
G1 X116.412 Y203.169 E58.9242
G1 X115.925 Y203.419 E58.96458
G1 X114.344 Y204.158 E59.0933
G1 X113.619 Y204.452 E59.151
G1 X113.076 Y204.619 E59.1929
G1 X111.39 Y205.069 E59.32161
G1 X110.625 Y205.232 E59.3793
G1 X110.088 Y205.298 E59.41921
G1 X108.352 Y205.451 E59.54775
G1 X107.57 Y205.48 E59.60547
G1 X107.008 Y205.451 E59.64697
G1 X105.271 Y205.298 E59.77559
G1 X104.496 Y205.19 E59.8333
G1 X103.97 Y205.069 E59.87311
G1 X102.287 Y204.62 E60.00159
G1 X101.542 Y204.38 E60.05932
G1 X101.012 Y204.156 E60.10176
G1 X99.428 Y203.414 E60.23077
G1 X98.738 Y203.046 E60.28845
G1 X98.286 Y202.753 E60.32818
G1 X96.863 Y201.757 E60.45629
G1 X96.246 Y201.276 E60.514
G1 X95.844 Y200.903 E60.55445
G1 X94.608 Y199.669 E60.68327
G1 X94.083 Y199.089 E60.74097
G1 X93.745 Y198.642 E60.7823
G1 X92.748 Y197.218 E60.91052
G1 X92.333 Y196.555 E60.96821
G1 X92.081 Y196.062 E61.00905
