;FLAVOR:Marlin
;TIME:10635
;Filament used: 8.25625m
;Layer height: 0.16
;MINX:104.999
;MINY:134.104
;MINZ:0.28
;MAXX:194.999
;MAXY:183.332
;MAXZ:10.52
;Generated with Cura_SteamEngine 4.12.1
M140 S95
M105
M190 S95
M104 S220
M105
M109 S220
M82 ;absolute extrusion mode
G28 ; home all axes
 M117 Purge extruder
 G92 E0 ; reset extruder
 G1 Z1.0 F3000 ; move z up little to prevent scratching of surface
 G1 X2 Y20 Z0.3 F5000.0 ; move to start-line position
 G1 X2 Y200.0 Z0.3 F1500.0 E15 ; draw 1st line
 G1 X2 Y200.0 Z0.4 F5000.0 ; move to side a little
 G1 X2 Y20 Z0.4 F1500.0 E30 ; draw 2nd line
 G92 E0 ; reset extruder
 G1 Z1.0 F3000 ; move z up little to prevent scratching of surface
G92 E0
G92 E0
G1 F1500 E-5
;LAYER_COUNT:63
;LAYER:0
M107
G1 F300 Z0.48
G0 F6000 X156.619 Y152.1 Z0.48
;TYPE:SKIRT
G1 F300 Z0.28
G1 F1500 E0
G1 F1200 X156.25 Y152.525 E0.04497
G1 X155.946 Y152.998 E0.0899
G1 X155.711 Y153.509 E0.13484
G1 X155.552 Y154.048 E0.17975
G1 X155.47 Y154.605 E0.22473
G1 X155.459 Y154.9 E0.24832
G1 X155.459 Y169.495 E1.41452
G1 X155.499 Y170.056 E1.45946
G1 X155.618 Y170.606 E1.50443
G1 X155.814 Y171.133 E1.54935
G1 X156.082 Y171.627 E1.59426
G1 X156.418 Y172.079 E1.63926
G1 X156.619 Y172.295 E1.66284
G1 X156.93 Y172.606 E1.69798
G1 X157.355 Y172.975 E1.74295
G1 X157.828 Y173.279 E1.78788
G1 X158.339 Y173.514 E1.83282
G1 X158.878 Y173.673 E1.87773
G1 X159.435 Y173.755 E1.92271
G1 X159.73 Y173.766 E1.9463
G1 X174.325 Y173.766 E3.1125
G1 X174.886 Y173.726 E3.15744
G1 X175.436 Y173.607 E3.20241
G1 X175.963 Y173.411 E3.24733
G1 X176.457 Y173.143 E3.29224
G1 X176.909 Y172.807 E3.33724
G1 X177.125 Y172.606 E3.36082
G1 X177.436 Y172.295 E3.39596
G1 X177.805 Y171.87 E3.44094
G1 X178.109 Y171.397 E3.48586
G1 X178.344 Y170.886 E3.53081
G1 X178.503 Y170.347 E3.57571
G1 X178.585 Y169.79 E3.6207
G1 X178.596 Y169.495 E3.64428
G1 X178.596 Y154.9 E4.81048
G1 X178.556 Y154.339 E4.85542
G1 X178.437 Y153.789 E4.90039
G1 X178.241 Y153.262 E4.94532
G1 X177.973 Y152.768 E4.99022
G1 X177.637 Y152.316 E5.03523
G1 X177.436 Y152.1 E5.0588
G1 X177.125 Y151.789 E5.09395
G1 X176.7 Y151.42 E5.13892
G1 X176.227 Y151.116 E5.18385
G1 X175.716 Y150.881 E5.22879
G1 X175.177 Y150.722 E5.27369
G1 X174.62 Y150.64 E5.31868
G1 X174.325 Y150.629 E5.34227
G1 X159.73 Y150.629 E6.50847
G1 X159.169 Y150.669 E6.55341
G1 X158.619 Y150.788 E6.59837
G1 X158.092 Y150.984 E6.6433
G1 X157.598 Y151.252 E6.68821
G1 X157.146 Y151.588 E6.73321
G1 X156.93 Y151.789 E6.75678
G1 X156.619 Y152.1 E6.79193
G0 F6000 X156.992 Y152.473
G1 F1200 X156.651 Y152.871 E6.83381
G1 X156.375 Y153.315 E6.87558
G1 X156.169 Y153.797 E6.91746
G1 X156.039 Y154.304 E6.95928
G1 X155.987 Y154.9 E7.00709
G1 X155.987 Y169.495 E8.17329
G1 X156.027 Y170.017 E8.21512
G1 X156.146 Y170.527 E8.25697
G1 X156.341 Y171.013 E8.29881
G1 X156.608 Y171.463 E8.34062
G1 X156.992 Y171.922 E8.38844
G1 X157.303 Y172.233 E8.42358
G1 X157.701 Y172.574 E8.46546
G1 X158.145 Y172.85 E8.50723
G1 X158.627 Y173.056 E8.54912
G1 X159.134 Y173.186 E8.59094
G1 X159.73 Y173.238 E8.63874
G1 X174.325 Y173.238 E9.80494
G1 X174.847 Y173.198 E9.84678
G1 X175.357 Y173.079 E9.88862
G1 X175.843 Y172.884 E9.93046
G1 X176.293 Y172.617 E9.97227
G1 X176.752 Y172.233 E10.02009
G1 X177.063 Y171.922 E10.05524
G1 X177.404 Y171.524 E10.09711
G1 X177.68 Y171.08 E10.13889
G1 X177.886 Y170.598 E10.18077
G1 X178.016 Y170.091 E10.22259
G1 X178.068 Y169.495 E10.2704
G1 X178.068 Y154.9 E11.4366
G1 X178.028 Y154.378 E11.47843
G1 X177.909 Y153.868 E11.52028
G1 X177.714 Y153.382 E11.56212
G1 X177.447 Y152.932 E11.60393
G1 X177.063 Y152.473 E11.65175
G1 X176.752 Y152.162 E11.68689
G1 X176.354 Y151.821 E11.72877
G1 X175.91 Y151.545 E11.77054
G1 X175.428 Y151.339 E11.81243
G1 X174.921 Y151.209 E11.85425
G1 X174.325 Y151.157 E11.90205
G1 X159.73 Y151.157 E13.06825
G1 X159.208 Y151.197 E13.11008
G1 X158.698 Y151.316 E13.15193
G1 X158.212 Y151.511 E13.19377
G1 X157.762 Y151.778 E13.23558
G1 X157.303 Y152.162 E13.2834
G1 X156.992 Y152.473 E13.31854
G0 F6000 X157.366 Y152.847
G1 F1200 X157.054 Y153.214 E13.35703
G1 X156.808 Y153.628 E13.39551
G1 X156.634 Y154.077 E13.43399
G1 X156.536 Y154.549 E13.47251
G1 X156.515 Y154.9 E13.50061
G1 X156.515 Y169.495 E14.66681
G1 X156.555 Y169.975 E14.70529
G1 X156.674 Y170.442 E14.7438
G1 X156.868 Y170.882 E14.78223
G1 X157.132 Y171.285 E14.82072
G1 X157.366 Y171.548 E14.84885
G1 X157.677 Y171.859 E14.88399
G1 X158.044 Y172.171 E14.92248
G1 X158.458 Y172.417 E14.96096
G1 X158.907 Y172.591 E14.99944
G1 X159.379 Y172.689 E15.03796
G1 X159.73 Y172.71 E15.06605
G1 X174.325 Y172.71 E16.23226
G1 X174.805 Y172.67 E16.27074
G1 X175.272 Y172.551 E16.30925
G1 X175.712 Y172.357 E16.34767
G1 X176.115 Y172.093 E16.38617
G1 X176.378 Y171.859 E16.4143
G1 X176.689 Y171.548 E16.44944
G1 X177.001 Y171.181 E16.48793
G1 X177.247 Y170.767 E16.52641
G1 X177.421 Y170.318 E16.56489
G1 X177.519 Y169.846 E16.60341
G1 X177.54 Y169.495 E16.6315
G1 X177.54 Y154.9 E17.7977
G1 X177.5 Y154.42 E17.83619
G1 X177.381 Y153.953 E17.8747
G1 X177.187 Y153.513 E17.91312
G1 X176.923 Y153.11 E17.95162
G1 X176.689 Y152.847 E17.97975
G1 X176.378 Y152.536 E18.01489
G1 X176.011 Y152.224 E18.05338
G1 X175.597 Y151.978 E18.09186
G1 X175.148 Y151.804 E18.13034
G1 X174.676 Y151.706 E18.16886
G1 X174.325 Y151.685 E18.19695
G1 X159.73 Y151.685 E19.36315
G1 X159.25 Y151.725 E19.40164
G1 X158.783 Y151.844 E19.44015
G1 X158.343 Y152.038 E19.47857
G1 X157.94 Y152.302 E19.51707
G1 X157.677 Y152.536 E19.5452
G1 X157.366 Y152.847 E19.58034
G0 F6000 X157.739 Y153.22
G1 F1200 X157.46 Y153.555 E19.61517
G1 X157.248 Y153.935 E19.64994
G1 X157.108 Y154.347 E19.68471
G1 X157.043 Y154.9 E19.7292
G1 X157.043 Y169.495 E20.8954
G1 X157.083 Y169.929 E20.93023
G1 X157.201 Y170.348 E20.96501
G1 X157.394 Y170.738 E20.99978
G1 X157.739 Y171.175 E21.04427
G1 X158.05 Y171.486 E21.07941
G1 X158.385 Y171.765 E21.11425
G1 X158.765 Y171.977 E21.14902
G1 X159.177 Y172.117 E21.18379
G1 X159.73 Y172.182 E21.22828
G1 X174.325 Y172.182 E22.39448
G1 X174.759 Y172.142 E22.42931
G1 X175.178 Y172.024 E22.46409
G1 X175.568 Y171.831 E22.49886
G1 X176.005 Y171.486 E22.54335
G1 X176.316 Y171.175 E22.57849
G1 X176.595 Y170.84 E22.61332
G1 X176.807 Y170.46 E22.64809
G1 X176.947 Y170.048 E22.68286
G1 X177.012 Y169.495 E22.72735
G1 X177.012 Y154.9 E23.89356
G1 X176.972 Y154.466 E23.92838
G1 X176.854 Y154.047 E23.96316
G1 X176.661 Y153.657 E23.99793
G1 X176.316 Y153.22 E24.04242
G1 X176.005 Y152.909 E24.07756
G1 X175.67 Y152.63 E24.1124
G1 X175.29 Y152.418 E24.14717
G1 X174.878 Y152.278 E24.18194
G1 X174.325 Y152.213 E24.22643
G1 X159.73 Y152.213 E25.39263
G1 X159.296 Y152.253 E25.42746
G1 X158.877 Y152.371 E25.46224
G1 X158.487 Y152.564 E25.49701
G1 X158.05 Y152.909 E25.5415
G1 X157.739 Y153.22 E25.57664
G0 F6000 X158.112 Y153.593
G1 F1200 X157.87 Y153.892 E25.60738
G1 X157.695 Y154.233 E25.638
G1 X157.595 Y154.604 E25.6687
G1 X157.571 Y154.9 E25.69243
G1 X157.571 Y169.495 E26.85863
G1 X157.611 Y169.877 E26.88932
G1 X157.729 Y170.242 E26.91998
G1 X157.92 Y170.575 E26.95065
G1 X158.112 Y170.802 E26.97441
G1 X158.423 Y171.113 E27.00955
G1 X158.722 Y171.355 E27.04029
G1 X159.063 Y171.53 E27.07091
G1 X159.434 Y171.63 E27.10161
G1 X159.73 Y171.654 E27.12534
G1 X174.325 Y171.654 E28.29154
G1 X174.707 Y171.614 E28.32223
G1 X175.072 Y171.496 E28.35289
G1 X175.405 Y171.305 E28.38356
G1 X175.632 Y171.113 E28.40732
G1 X175.943 Y170.802 E28.44246
G1 X176.185 Y170.503 E28.4732
G1 X176.36 Y170.162 E28.50382
G1 X176.46 Y169.791 E28.53452
G1 X176.484 Y169.495 E28.55825
G1 X176.484 Y154.9 E29.72445
G1 X176.444 Y154.518 E29.75514
G1 X176.326 Y154.153 E29.7858
G1 X176.135 Y153.82 E29.81647
G1 X175.943 Y153.593 E29.84023
G1 X175.632 Y153.282 E29.87537
G1 X175.333 Y153.04 E29.90611
G1 X174.992 Y152.865 E29.93673
G1 X174.621 Y152.765 E29.96743
G1 X174.325 Y152.741 E29.99116
G1 X159.73 Y152.741 E31.15736
G1 X159.348 Y152.781 E31.18806
G1 X158.983 Y152.899 E31.21871
G1 X158.65 Y153.09 E31.24938
G1 X158.423 Y153.282 E31.27314
G1 X158.112 Y153.593 E31.30828
G0 F6000 X158.486 Y153.967
G1 F1200 X158.286 Y154.222 E31.33418
G1 X158.155 Y154.519 E31.36011
G1 X158.099 Y154.9 E31.39088
G1 X158.099 Y169.495 E32.55708
G1 X158.139 Y169.817 E32.58301
G1 X158.256 Y170.119 E32.60889
G1 X158.486 Y170.428 E32.63967
G1 X158.797 Y170.739 E32.67481
G1 X159.052 Y170.939 E32.70071
G1 X159.349 Y171.07 E32.72665
G1 X159.73 Y171.126 E32.75742
G1 X174.325 Y171.126 E33.92362
G1 X174.647 Y171.086 E33.94954
G1 X174.949 Y170.969 E33.97542
G1 X175.258 Y170.739 E34.0062
G1 X175.569 Y170.428 E34.04135
G1 X175.769 Y170.173 E34.06724
G1 X175.9 Y169.876 E34.09318
G1 X175.956 Y169.495 E34.12395
G1 X175.956 Y154.9 E35.29015
G1 X175.916 Y154.578 E35.31608
G1 X175.799 Y154.276 E35.34195
G1 X175.569 Y153.967 E35.37273
G1 X175.258 Y153.656 E35.40788
G1 X175.003 Y153.456 E35.43377
G1 X174.706 Y153.325 E35.45971
G1 X174.325 Y153.269 E35.49048
G1 X159.73 Y153.269 E36.65668
G1 X159.408 Y153.309 E36.68261
G1 X159.106 Y153.426 E36.70849
G1 X158.797 Y153.656 E36.73927
G1 X158.486 Y153.967 E36.77441
G0 F6000 X158.859 Y154.34
G1 F1200 X158.712 Y154.543 E36.79444
G1 X158.627 Y154.9 E36.82376
G1 X158.627 Y169.495 E37.98996
G1 X158.667 Y169.743 E38.01003
G1 X158.859 Y170.055 E38.03931
G1 X159.17 Y170.366 E38.07445
G1 X159.373 Y170.513 E38.09448
G1 X159.73 Y170.598 E38.1238
G1 X174.325 Y170.598 E39.29
G1 X174.573 Y170.558 E39.31007
G1 X174.885 Y170.366 E39.33935
G1 X175.196 Y170.055 E39.37449
G1 X175.343 Y169.852 E39.39452
G1 X175.428 Y169.495 E39.42384
G1 X175.428 Y154.9 E40.59004
G1 X175.388 Y154.652 E40.61011
G1 X175.196 Y154.34 E40.63938
G1 X174.885 Y154.029 E40.67453
G1 X174.682 Y153.882 E40.69455
G1 X174.325 Y153.797 E40.72388
G1 X159.73 Y153.797 E41.89008
G1 X159.482 Y153.837 E41.91015
G1 X159.17 Y154.029 E41.93942
G1 X158.859 Y154.34 E41.97457
G0 F6000 X159.232 Y154.713
G1 F1200 X159.155 Y154.9 E41.99073
G1 X159.155 Y169.495 E43.15693
G1 X159.232 Y169.682 E43.17309
G1 X159.543 Y169.993 E43.20823
G1 X159.73 Y170.07 E43.22439
G1 X174.325 Y170.07 E44.39059
G1 X174.512 Y169.993 E44.40675
G1 X174.823 Y169.682 E44.44189
G1 X174.9 Y169.495 E44.45805
G1 X174.9 Y154.9 E45.62425
G1 X174.823 Y154.713 E45.64041
G1 X174.512 Y154.402 E45.67556
G1 X174.325 Y154.325 E45.69172
G1 X159.73 Y154.325 E46.85792
G1 X159.543 Y154.402 E46.87408
G1 X159.232 Y154.713 E46.90922
G1 F1500 E41.90922
G1 F300 Z0.48
G0 F6000 X157.427 Y146.402 Z0.48
G1 F300 Z0.28
G1 F1500 E46.90922
G1 F1200 X157.984 Y146.484 E46.95421
G1 X158.279 Y146.495 E46.97779
G1 X177.521 Y146.495 E48.51531
G1 X178.082 Y146.455 E48.56025
G1 X178.632 Y146.336 E48.60521
G1 X179.159 Y146.14 E48.65014
G1 X179.653 Y145.872 E48.69505
G1 X180.105 Y145.536 E48.74005
G1 X180.321 Y145.335 E48.76363
G1 X180.632 Y145.024 E48.79877
G1 X181.001 Y144.599 E48.84374
G1 X181.305 Y144.126 E48.88867
G1 X181.54 Y143.615 E48.93361
G1 X181.699 Y143.076 E48.97852
G1 X181.781 Y142.519 E49.0235
G1 X181.792 Y142.224 E49.04709
G1 X181.792 Y140.988 E49.14585
G1 X191.04 Y140.988 E49.8848
G1 X191.04 Y179.373 E52.95193
G1 X117.737 Y179.373 E58.80914
G1 X118.105 Y178.949 E58.854
G1 X118.409 Y178.476 E58.89893
G1 X118.644 Y177.965 E58.94387
G1 X118.803 Y177.426 E58.98877
G1 X118.885 Y176.869 E59.03376
G1 X118.896 Y176.574 E59.05735
G1 X118.896 Y162.363 E60.19286
G1 X118.856 Y161.802 E60.2378
G1 X118.737 Y161.252 E60.28277
G1 X118.541 Y160.725 E60.3277
G1 X118.273 Y160.231 E60.3726
G1 X117.937 Y159.779 E60.41761
G1 X117.736 Y159.563 E60.44118
G1 X117.425 Y159.252 E60.47633
G1 X117 Y158.883 E60.5213
G1 X116.527 Y158.579 E60.56623
G1 X116.016 Y158.344 E60.61117
G1 X115.477 Y158.185 E60.65607
G1 X114.92 Y158.103 E60.70106
G1 X114.625 Y158.092 E60.72465
G1 X108.96 Y158.092 E61.1773
G1 X108.96 Y140.988 E62.54398
G1 X118.598 Y140.988 E63.3141
G1 X118.716 Y141.205 E63.33384
G1 X118.716 Y142.542 E63.44067
G1 X118.756 Y143.103 E63.48561
G1 X118.875 Y143.653 E63.53057
G1 X119.071 Y144.18 E63.5755
G1 X119.339 Y144.674 E63.62041
G1 X119.675 Y145.126 E63.66541
G1 X119.876 Y145.342 E63.68899
G1 X120.187 Y145.653 E63.72413
G1 X120.612 Y146.022 E63.7691
G1 X121.085 Y146.326 E63.81403
G1 X121.596 Y146.561 E63.85897
G1 X122.135 Y146.72 E63.90387
G1 X122.692 Y146.802 E63.94886
G1 X122.987 Y146.813 E63.97245
G1 X141.339 Y146.813 E65.43885
G1 X141.9 Y146.773 E65.48379
G1 X142.45 Y146.654 E65.52875
G1 X142.977 Y146.458 E65.57368
G1 X143.471 Y146.19 E65.61859
G1 X143.923 Y145.854 E65.66359
G1 X144.139 Y145.653 E65.68717
G1 X144.45 Y145.342 E65.72231
G1 X144.819 Y144.917 E65.76728
G1 X145.123 Y144.444 E65.81221
G1 X145.358 Y143.933 E65.85715
G1 X145.517 Y143.394 E65.90206
G1 X145.599 Y142.837 E65.94704
G1 X145.61 Y142.542 E65.97063
G1 X145.61 Y141.393 E66.06244
G1 X145.823 Y141.062 E66.09389
G1 X145.857 Y140.988 E66.1004
G1 X154.008 Y140.988 E66.7517
G1 X154.008 Y142.224 E66.85046
G1 X154.048 Y142.785 E66.8954
G1 X154.167 Y143.335 E66.94036
G1 X154.363 Y143.862 E66.98529
G1 X154.631 Y144.356 E67.0302
G1 X154.967 Y144.808 E67.0752
G1 X155.168 Y145.024 E67.09878
G1 X155.479 Y145.335 E67.13392
G1 X155.904 Y145.704 E67.17889
G1 X156.377 Y146.008 E67.22382
G1 X156.888 Y146.243 E67.26876
G1 X157.427 Y146.402 E67.31367
G0 F6000 X157.683 Y145.915
G1 F1200 X158.279 Y145.967 E67.36147
G1 X177.521 Y145.967 E68.89899
G1 X178.043 Y145.927 E68.94082
G1 X178.553 Y145.808 E68.98266
G1 X179.039 Y145.613 E69.02451
G1 X179.489 Y145.346 E69.06632
G1 X179.948 Y144.962 E69.11413
G1 X180.259 Y144.651 E69.14928
G1 X180.6 Y144.253 E69.19116
G1 X180.876 Y143.809 E69.23293
G1 X181.082 Y143.327 E69.27481
G1 X181.212 Y142.82 E69.31663
G1 X181.264 Y142.224 E69.36444
G1 X181.264 Y140.46 E69.50539
G1 X191.568 Y140.46 E70.32872
G1 X191.568 Y179.901 E73.48022
G1 X116.247 Y179.901 E79.49868
G1 X116.593 Y179.696 E79.53082
G1 X117.052 Y179.312 E79.57863
G1 X117.363 Y179.001 E79.61378
G1 X117.704 Y178.603 E79.65566
G1 X117.98 Y178.159 E79.69743
G1 X118.186 Y177.677 E79.73931
G1 X118.316 Y177.17 E79.78114
G1 X118.368 Y176.574 E79.82894
G1 X118.368 Y162.363 E80.96446
G1 X118.328 Y161.841 E81.00629
G1 X118.209 Y161.331 E81.04813
G1 X118.014 Y160.845 E81.08998
G1 X117.747 Y160.395 E81.13179
G1 X117.363 Y159.936 E81.17961
G1 X117.052 Y159.625 E81.21475
G1 X116.654 Y159.284 E81.25663
G1 X116.21 Y159.008 E81.2984
G1 X115.728 Y158.802 E81.34028
G1 X115.221 Y158.672 E81.38211
G1 X114.625 Y158.62 E81.42991
G1 X108.432 Y158.62 E81.92476
G1 X108.432 Y140.46 E83.37582
G1 X118.935 Y140.46 E84.21505
G1 X119.022 Y140.678 E84.2338
G1 X119.244 Y141.052 E84.26856
G1 X119.244 Y142.542 E84.38761
G1 X119.284 Y143.064 E84.42945
G1 X119.403 Y143.574 E84.47129
G1 X119.598 Y144.06 E84.51313
G1 X119.865 Y144.51 E84.55494
G1 X120.249 Y144.969 E84.60276
G1 X120.56 Y145.28 E84.63791
G1 X120.958 Y145.621 E84.67978
G1 X121.402 Y145.897 E84.72156
G1 X121.884 Y146.103 E84.76344
G1 X122.391 Y146.233 E84.80526
G1 X122.987 Y146.285 E84.85307
G1 X141.339 Y146.285 E86.31947
G1 X141.861 Y146.245 E86.3613
G1 X142.371 Y146.126 E86.40315
G1 X142.857 Y145.931 E86.44499
G1 X143.307 Y145.664 E86.4868
G1 X143.766 Y145.28 E86.53462
G1 X144.077 Y144.969 E86.56976
G1 X144.418 Y144.571 E86.61164
G1 X144.694 Y144.127 E86.65341
G1 X144.9 Y143.645 E86.69529
G1 X145.03 Y143.138 E86.73712
G1 X145.082 Y142.542 E86.78492
G1 X145.082 Y141.231 E86.88967
G1 X145.118 Y141.189 E86.89409
G1 X145.394 Y140.745 E86.93587
G1 X145.516 Y140.46 E86.96064
G1 X154.485 Y140.46 E87.6773
G1 X154.536 Y140.588 E87.68831
G1 X154.536 Y142.224 E87.81903
G1 X154.576 Y142.746 E87.86087
G1 X154.695 Y143.256 E87.90271
G1 X154.89 Y143.742 E87.94455
G1 X155.157 Y144.192 E87.98636
G1 X155.541 Y144.651 E88.03418
G1 X155.852 Y144.962 E88.06933
G1 X156.25 Y145.303 E88.1112
G1 X156.694 Y145.579 E88.15298
G1 X157.176 Y145.785 E88.19486
G1 X157.683 Y145.915 E88.23668
G0 F6000 X157.928 Y145.418
G1 F1200 X158.279 Y145.439 E88.26478
G1 X177.521 Y145.439 E89.80229
G1 X178.001 Y145.399 E89.84078
G1 X178.468 Y145.28 E89.87929
G1 X178.908 Y145.086 E89.91771
G1 X179.311 Y144.822 E89.95621
G1 X179.574 Y144.588 E89.98434
G1 X179.885 Y144.277 E90.01948
G1 X180.197 Y143.91 E90.05797
G1 X180.443 Y143.496 E90.09645
