;FLAVOR:Marlin
;TIME:9140
;Filament used: 6.78268m
;Layer height: 0.16
;MINX:104.999
;MINY:134.103
;MINZ:0.2
;MAXX:194.999
;MAXY:183.332
;MAXZ:10.48
;Generated with Cura_SteamEngine 4.13.1
M140 S60
M105
M190 S60
M104 S200
M105
M109 S200
M82 ;absolute extrusion mode
G28 ; home all axes
 M117 Purge extruder
 G92 E0 ; reset extruder
 G1 Z1.0 F3000 ; move z up little to prevent scratching of surface
 G1 X2 Y20 Z0.3 F5000.0 ; move to start-line position
 G1 X2 Y200.0 Z0.3 F1500.0 E15 ; draw 1st line
 G1 X2 Y200.0 Z0.4 F5000.0 ; move to side a little
 G1 X2 Y20 Z0.4 F1500.0 E30 ; draw 2nd line
 G92 E0 ; reset extruder
 G1 Z1.0 F3000 ; move z up little to prevent scratching of surface
G92 E0
G92 E0
G1 F1500 E-2
;LAYER_COUNT:65
;LAYER:0
M107
G1 F300 Z0.4
G0 F6000 X125.465 Y150.123 Z0.4
;TYPE:SKIRT
G1 F300 Z0.2
G1 F1500 E0
G1 F1200 X125.176 Y150.386 E0.0143
G1 X124.865 Y150.697 E0.03039
G1 X124.486 Y151.133 E0.05152
G1 X124.17 Y151.617 E0.07267
G1 X123.924 Y152.14 E0.09382
G1 X123.753 Y152.692 E0.11496
G1 X123.659 Y153.263 E0.13613
G1 X123.641 Y153.653 E0.15041
G1 X123.641 Y174.215 E0.9027
G1 X123.681 Y174.792 E0.92386
G1 X123.8 Y175.357 E0.94498
G1 X123.996 Y175.901 E0.96614
G1 X124.265 Y176.412 E0.98727
G1 X124.602 Y176.882 E1.00843
G1 X124.865 Y177.171 E1.02272
G1 X125.176 Y177.482 E1.03881
G1 X125.612 Y177.861 E1.05995
G1 X126.096 Y178.177 E1.0811
G1 X126.619 Y178.423 E1.10224
G1 X127.171 Y178.594 E1.12339
G1 X127.742 Y178.688 E1.14456
G1 X128.132 Y178.706 E1.15884
G1 X145.442 Y178.706 E1.79215
G1 X146.019 Y178.666 E1.81331
G1 X146.584 Y178.547 E1.83443
G1 X147.128 Y178.351 E1.85559
G1 X147.639 Y178.082 E1.87672
G1 X148.109 Y177.745 E1.89788
G1 X148.398 Y177.482 E1.91217
G1 X148.709 Y177.171 E1.92826
G1 X149.088 Y176.735 E1.9494
G1 X149.404 Y176.251 E1.97055
G1 X149.65 Y175.728 E1.99169
G1 X149.821 Y175.176 E2.01283
G1 X149.915 Y174.605 E2.03401
G1 X149.933 Y174.215 E2.04829
G1 X149.933 Y153.653 E2.80057
G1 X149.893 Y153.076 E2.82174
G1 X149.774 Y152.511 E2.84286
G1 X149.578 Y151.967 E2.86401
G1 X149.309 Y151.456 E2.88514
G1 X148.972 Y150.986 E2.9063
G1 X148.709 Y150.697 E2.9206
G1 X148.398 Y150.386 E2.93669
G1 X147.962 Y150.007 E2.95783
G1 X147.478 Y149.691 E2.97897
G1 X146.955 Y149.445 E3.00012
G1 X146.403 Y149.274 E3.02126
G1 X145.832 Y149.18 E3.04243
G1 X145.442 Y149.162 E3.05672
G1 X128.132 Y149.162 E3.69002
G1 X127.555 Y149.202 E3.71118
G1 X126.99 Y149.321 E3.73231
G1 X126.446 Y149.517 E3.75346
G1 X125.935 Y149.786 E3.77459
G1 X125.465 Y150.123 E3.79575
G0 F6000 X125.487 Y150.697
G1 F1200 X125.176 Y151.008 E3.81184
G1 X124.819 Y151.422 E3.83184
G1 X124.526 Y151.884 E3.85186
G1 X124.303 Y152.383 E3.87185
G1 X124.156 Y152.909 E3.89184
G1 X124.081 Y153.653 E3.91919
G1 X124.081 Y174.215 E4.67148
G1 X124.121 Y174.76 E4.69147
G1 X124.24 Y175.294 E4.71149
G1 X124.435 Y175.804 E4.73146
G1 X124.703 Y176.281 E4.75148
G1 X125.176 Y176.86 E4.77883
G1 X125.487 Y177.171 E4.79493
G1 X125.901 Y177.528 E4.81493
G1 X126.363 Y177.821 E4.83494
G1 X126.862 Y178.044 E4.85494
G1 X127.388 Y178.191 E4.87492
G1 X128.132 Y178.266 E4.90228
G1 X145.442 Y178.266 E5.53558
G1 X145.987 Y178.226 E5.55558
G1 X146.521 Y178.107 E5.57559
G1 X147.031 Y177.912 E5.59557
G1 X147.508 Y177.644 E5.61559
G1 X148.087 Y177.171 E5.64294
G1 X148.398 Y176.86 E5.65903
G1 X148.755 Y176.446 E5.67903
G1 X149.048 Y175.984 E5.69905
G1 X149.271 Y175.485 E5.71904
G1 X149.418 Y174.959 E5.73903
G1 X149.493 Y174.215 E5.76638
G1 X149.493 Y153.653 E6.51867
G1 X149.453 Y153.108 E6.53866
G1 X149.334 Y152.574 E6.55868
G1 X149.139 Y152.064 E6.57865
G1 X148.871 Y151.587 E6.59867
G1 X148.398 Y151.008 E6.62603
G1 X148.087 Y150.697 E6.64212
G1 X147.673 Y150.34 E6.66212
G1 X147.211 Y150.047 E6.68213
G1 X146.712 Y149.824 E6.70213
G1 X146.186 Y149.677 E6.72211
G1 X145.442 Y149.602 E6.74947
G1 X128.132 Y149.602 E7.38278
G1 X127.587 Y149.642 E7.40277
G1 X127.053 Y149.761 E7.42278
G1 X126.543 Y149.956 E7.44276
G1 X126.066 Y150.224 E7.46278
G1 X125.487 Y150.697 E7.49013
G0 F6000 X126.207 Y150.662
G1 F1200 X125.799 Y151.009 E7.50973
G1 X125.488 Y151.32 E7.52582
G1 X125.154 Y151.71 E7.5446
G1 X124.885 Y152.147 E7.56338
G1 X124.687 Y152.621 E7.58217
G1 X124.564 Y153.119 E7.60094
G1 X124.521 Y153.653 E7.62054
G1 X124.521 Y174.215 E8.37283
G1 X124.561 Y174.727 E8.39161
G1 X124.68 Y175.226 E8.41038
G1 X124.875 Y175.701 E8.42917
G1 X125.141 Y176.14 E8.44795
G1 X125.488 Y176.548 E8.46754
G1 X125.799 Y176.859 E8.48364
G1 X126.189 Y177.193 E8.50242
G1 X126.626 Y177.462 E8.5212
G1 X127.1 Y177.66 E8.53999
G1 X127.598 Y177.783 E8.55876
G1 X128.132 Y177.826 E8.57836
G1 X145.442 Y177.826 E9.21166
G1 X145.954 Y177.786 E9.23045
G1 X146.453 Y177.667 E9.24922
G1 X146.928 Y177.472 E9.26801
G1 X147.367 Y177.206 E9.28679
G1 X147.775 Y176.859 E9.30638
G1 X148.086 Y176.548 E9.32247
G1 X148.42 Y176.158 E9.34126
G1 X148.689 Y175.721 E9.36003
G1 X148.887 Y175.247 E9.37883
G1 X149.01 Y174.749 E9.3976
G1 X149.053 Y174.215 E9.4172
G1 X149.053 Y153.653 E10.16948
G1 X149.013 Y153.141 E10.18827
G1 X148.894 Y152.642 E10.20704
G1 X148.699 Y152.167 E10.22582
G1 X148.433 Y151.728 E10.2446
G1 X148.086 Y151.32 E10.2642
G1 X147.775 Y151.009 E10.28029
G1 X147.385 Y150.675 E10.29908
G1 X146.948 Y150.406 E10.31785
G1 X146.474 Y150.208 E10.33665
G1 X145.976 Y150.085 E10.35541
G1 X145.442 Y150.042 E10.37501
G1 X128.132 Y150.042 E11.00832
G1 X127.62 Y150.082 E11.02711
G1 X127.121 Y150.201 E11.04588
G1 X126.646 Y150.396 E11.06466
G1 X126.207 Y150.662 E11.08344
G0 F6000 X126.358 Y151.099
G1 F1200 X126.11 Y151.32 E11.0956
G1 X125.799 Y151.631 E11.11169
G1 X125.49 Y151.996 E11.12918
G1 X125.247 Y152.407 E11.14665
G1 X125.075 Y152.853 E11.16414
G1 X124.98 Y153.321 E11.18161
G1 X124.961 Y153.653 E11.19378
G1 X124.961 Y174.215 E11.94606
G1 X125.001 Y174.691 E11.96354
G1 X125.12 Y175.154 E11.98103
G1 X125.314 Y175.591 E11.99852
G1 X125.578 Y175.989 E12.016
G1 X125.799 Y176.237 E12.02815
G1 X126.11 Y176.548 E12.04424
G1 X126.475 Y176.857 E12.06174
G1 X126.886 Y177.1 E12.07921
G1 X127.332 Y177.272 E12.09669
G1 X127.8 Y177.367 E12.11417
G1 X128.132 Y177.386 E12.12633
G1 X145.442 Y177.386 E12.75964
G1 X145.918 Y177.346 E12.77712
G1 X146.381 Y177.227 E12.7946
G1 X146.818 Y177.033 E12.8121
G1 X147.216 Y176.769 E12.82957
G1 X147.464 Y176.548 E12.84172
G1 X147.775 Y176.237 E12.85782
G1 X148.084 Y175.872 E12.87531
G1 X148.327 Y175.461 E12.89278
G1 X148.499 Y175.015 E12.91027
G1 X148.594 Y174.547 E12.92774
G1 X148.613 Y174.215 E12.93991
G1 X148.613 Y153.653 E13.69219
G1 X148.573 Y153.177 E13.70967
G1 X148.454 Y152.714 E13.72716
G1 X148.26 Y152.277 E13.74465
G1 X147.996 Y151.879 E13.76212
G1 X147.775 Y151.631 E13.77428
G1 X147.464 Y151.32 E13.79037
G1 X147.099 Y151.011 E13.80787
G1 X146.688 Y150.768 E13.82533
G1 X146.242 Y150.596 E13.84282
G1 X145.774 Y150.501 E13.86029
G1 X145.442 Y150.482 E13.87246
G1 X128.132 Y150.482 E14.50577
G1 X127.656 Y150.522 E14.52324
G1 X127.193 Y150.641 E14.54073
G1 X126.756 Y150.835 E14.55823
G1 X126.358 Y151.099 E14.5757
G0 F6000 X126.421 Y151.631
G1 F1200 X126.11 Y151.942 E14.59179
G1 X125.829 Y152.28 E14.60787
G1 X125.613 Y152.663 E14.62396
G1 X125.47 Y153.078 E14.64002
G1 X125.401 Y153.653 E14.66121
G1 X125.401 Y174.215 E15.41349
G1 X125.441 Y174.653 E15.42958
G1 X125.559 Y175.076 E15.44565
G1 X125.752 Y175.471 E15.46173
G1 X126.11 Y175.926 E15.48292
G1 X126.421 Y176.237 E15.49901
G1 X126.759 Y176.518 E15.51509
G1 X127.142 Y176.734 E15.53118
G1 X127.557 Y176.877 E15.54724
G1 X128.132 Y176.946 E15.56842
G1 X145.442 Y176.946 E16.20173
G1 X145.88 Y176.906 E16.21782
G1 X146.303 Y176.788 E16.23389
G1 X146.698 Y176.595 E16.24997
G1 X147.153 Y176.237 E16.27115
G1 X147.464 Y175.926 E16.28725
G1 X147.745 Y175.588 E16.30333
G1 X147.961 Y175.205 E16.31941
G1 X148.104 Y174.79 E16.33547
G1 X148.173 Y174.215 E16.35666
G1 X148.173 Y153.653 E17.10895
G1 X148.133 Y153.215 E17.12504
G1 X148.015 Y152.792 E17.1411
G1 X147.822 Y152.397 E17.15719
G1 X147.464 Y151.942 E17.17837
G1 X147.153 Y151.631 E17.19446
G1 X146.815 Y151.35 E17.21054
G1 X146.432 Y151.134 E17.22663
G1 X146.017 Y150.991 E17.24269
G1 X145.442 Y150.922 E17.26388
G1 X128.132 Y150.922 E17.89718
G1 X127.694 Y150.962 E17.91328
G1 X127.271 Y151.08 E17.92934
G1 X126.876 Y151.273 E17.94543
G1 X126.421 Y151.631 E17.96661
G0 F6000 X127.009 Y151.712
G1 F1200 X126.732 Y151.942 E17.97978
G1 X126.421 Y152.253 E17.99587
G1 X126.169 Y152.561 E18.01043
G1 X125.985 Y152.913 E18.02496
G1 X125.874 Y153.294 E18.03948
G1 X125.841 Y153.653 E18.05267
G1 X125.841 Y174.215 E18.80496
G1 X125.881 Y174.61 E18.81948
G1 X125.999 Y174.99 E18.83404
G1 X126.191 Y175.338 E18.84858
G1 X126.421 Y175.615 E18.86175
G1 X126.732 Y175.926 E18.87784
G1 X127.04 Y176.178 E18.8924
G1 X127.392 Y176.362 E18.90694
G1 X127.773 Y176.473 E18.92145
G1 X128.132 Y176.506 E18.93464
G1 X145.442 Y176.506 E19.56795
G1 X145.837 Y176.466 E19.58248
G1 X146.217 Y176.348 E19.59703
G1 X146.565 Y176.156 E19.61158
G1 X146.842 Y175.926 E19.62475
G1 X147.153 Y175.615 E19.64084
G1 X147.405 Y175.307 E19.6554
G1 X147.589 Y174.955 E19.66993
G1 X147.7 Y174.574 E19.68445
G1 X147.733 Y174.215 E19.69764
G1 X147.733 Y153.653 E20.44992
G1 X147.693 Y153.258 E20.46445
G1 X147.575 Y152.878 E20.47901
G1 X147.383 Y152.53 E20.49355
G1 X147.153 Y152.253 E20.50672
G1 X146.842 Y151.942 E20.52281
G1 X146.534 Y151.69 E20.53737
G1 X146.182 Y151.506 E20.5519
G1 X145.801 Y151.395 E20.56642
G1 X145.442 Y151.362 E20.57961
G1 X128.132 Y151.362 E21.21292
G1 X127.737 Y151.402 E21.22744
G1 X127.357 Y151.52 E21.242
G1 X127.009 Y151.712 E21.25654
G0 F6000 X127.043 Y152.253
G1 F1200 X126.732 Y152.564 E21.27263
G1 X126.514 Y152.838 E21.28544
G1 X126.364 Y153.155 E21.29827
G1 X126.281 Y153.653 E21.31675
G1 X126.281 Y174.215 E22.06903
G1 X126.321 Y174.563 E22.08185
G1 X126.438 Y174.893 E22.09466
G1 X126.732 Y175.304 E22.11314
G1 X127.043 Y175.615 E22.12923
G1 X127.317 Y175.833 E22.14205
G1 X127.634 Y175.983 E22.15488
G1 X128.132 Y176.066 E22.17335
G1 X145.442 Y176.066 E22.80665
G1 X145.79 Y176.026 E22.81947
G1 X146.12 Y175.909 E22.83228
G1 X146.531 Y175.615 E22.85077
G1 X146.842 Y175.304 E22.86686
G1 X147.06 Y175.03 E22.87967
G1 X147.21 Y174.713 E22.8925
G1 X147.293 Y174.215 E22.91097
G1 X147.293 Y153.653 E23.66326
G1 X147.253 Y153.305 E23.67607
G1 X147.136 Y152.975 E23.68888
G1 X146.842 Y152.564 E23.70737
G1 X146.531 Y152.253 E23.72346
G1 X146.257 Y152.035 E23.73627
G1 X145.94 Y151.885 E23.7491
G1 X145.442 Y151.802 E23.76757
G1 X128.132 Y151.802 E24.40088
G1 X127.784 Y151.842 E24.41369
G1 X127.454 Y151.959 E24.4265
G1 X127.043 Y152.253 E24.44499
G0 F6000 X127.354 Y152.564
G1 F1200 X127.043 Y152.875 E24.46108
G1 X126.864 Y153.111 E24.47192
G1 X126.754 Y153.386 E24.48276
G1 X126.721 Y153.653 E24.4926
G1 X126.721 Y174.215 E25.24488
G1 X126.761 Y174.508 E25.2557
G1 X126.877 Y174.78 E25.26652
G1 X127.043 Y174.993 E25.2764
G1 X127.354 Y175.304 E25.29249
G1 X127.59 Y175.483 E25.30333
G1 X127.865 Y175.593 E25.31417
G1 X128.132 Y175.626 E25.32401
G1 X145.442 Y175.626 E25.95732
G1 X145.735 Y175.586 E25.96813
G1 X146.007 Y175.47 E25.97895
G1 X146.22 Y175.304 E25.98883
G1 X146.531 Y174.993 E26.00492
G1 X146.71 Y174.757 E26.01576
G1 X146.82 Y174.482 E26.0266
G1 X146.853 Y174.215 E26.03644
G1 X146.853 Y153.653 E26.78872
G1 X146.813 Y153.36 E26.79954
G1 X146.697 Y153.088 E26.81036
G1 X146.531 Y152.875 E26.82024
G1 X146.22 Y152.564 E26.83633
G1 X145.984 Y152.385 E26.84717
G1 X145.709 Y152.275 E26.85801
G1 X145.442 Y152.242 E26.86785
G1 X128.132 Y152.242 E27.50116
G1 X127.839 Y152.282 E27.51198
G1 X127.567 Y152.398 E27.52279
G1 X127.354 Y152.564 E27.53267
G0 F6000 X127.665 Y152.875
G1 F1200 X127.354 Y153.186 E27.54877
G1 X127.223 Y153.374 E27.55715
G1 X127.161 Y153.653 E27.56761
G1 X127.161 Y174.215 E28.31989
G1 X127.201 Y174.44 E28.32825
G1 X127.354 Y174.682 E28.33873
G1 X127.665 Y174.993 E28.35482
G1 X127.853 Y175.124 E28.3632
G1 X128.132 Y175.186 E28.37366
G1 X145.442 Y175.186 E29.00696
G1 X145.667 Y175.146 E29.01532
G1 X145.909 Y174.993 E29.0258
G1 X146.22 Y174.682 E29.04189
G1 X146.351 Y174.494 E29.05027
G1 X146.413 Y174.215 E29.06073
G1 X146.413 Y153.653 E29.81301
G1 X146.373 Y153.428 E29.82138
G1 X146.22 Y153.186 E29.83185
G1 X145.909 Y152.875 E29.84794
G1 X145.721 Y152.744 E29.85632
G1 X145.442 Y152.682 E29.86678
G1 X128.132 Y152.682 E30.50009
G1 X127.907 Y152.722 E30.50845
G1 X127.665 Y152.875 E30.51892
G0 F6000 X127.976 Y153.186
G1 F1200 X127.665 Y153.497 E30.53501
G1 X127.601 Y153.653 E30.54118
G1 X127.601 Y174.215 E31.29347
G1 X127.665 Y174.371 E31.29964
G1 X127.976 Y174.682 E31.31573
G1 X128.132 Y174.746 E31.3219
G1 X145.442 Y174.746 E31.9552
G1 X145.598 Y174.682 E31.96137
G1 X145.909 Y174.371 E31.97746
G1 X145.973 Y174.215 E31.98363
G1 X145.973 Y153.653 E32.73592
G1 X145.909 Y153.497 E32.74209
G1 X145.598 Y153.186 E32.75818
G1 X145.442 Y153.122 E32.76435
G1 X128.132 Y153.122 E33.39765
G1 X127.976 Y153.186 E33.40382
G1 F1500 E31.40382
G1 F300 Z0.4
G0 F6000 X123.397 Y144.956 Z0.4
G1 F300 Z0.2
G1 F1500 E33.40382
G1 F1200 X140.403 Y144.956 E34.02601
G1 X140.98 Y144.916 E34.04717
G1 X141.63 Y144.772 E34.07153
G1 X143.271 Y144.268 E34.13433
G1 X143.811 Y144.06 E34.1555
G1 X144.316 Y143.78 E34.17663
G1 X144.778 Y143.434 E34.19775
G1 X145.188 Y143.026 E34.21891
G1 X145.405 Y142.757 E34.23155
G1 X145.666 Y142.404 E34.24761
G1 X145.977 Y141.917 E34.26876
G1 X146.217 Y141.391 E34.28991
G1 X146.273 Y141.206 E34.29698
G1 X154.725 Y141.206 E34.60621
G1 X154.81 Y141.608 E34.62124
G1 X155.006 Y142.152 E34.64239
G1 X155.275 Y142.663 E34.66352
G1 X155.612 Y143.133 E34.68468
G1 X155.875 Y143.422 E34.69898
G1 X156.186 Y143.733 E34.71507
G1 X156.622 Y144.112 E34.7362
G1 X157.106 Y144.428 E34.75735
G1 X157.629 Y144.674 E34.7785
G1 X158.181 Y144.845 E34.79964
G1 X158.752 Y144.939 E34.82081
G1 X159.142 Y144.957 E34.8351
G1 X176.089 Y144.956 E35.45512
G1 X176.666 Y144.916 E35.47628
G1 X177.231 Y144.797 E35.49741
G1 X177.775 Y144.601 E35.51856
G1 X178.286 Y144.332 E35.53969
G1 X178.756 Y143.995 E35.56085
G1 X179.045 Y143.732 E35.57514
G1 X179.356 Y143.421 E35.59124
G1 X179.735 Y142.985 E35.61237
G1 X180.051 Y142.501 E35.63352
G1 X180.297 Y141.978 E35.65466
G1 X180.468 Y141.426 E35.67581
G1 X180.642 Y141.206 E35.68607
G1 X190.82 Y141.206 E36.05844
G1 X190.82 Y179.153 E37.44678
G1 X119.675 Y179.153 E40.0497
G1 X119.875 Y178.953 E40.06005
G1 X120.254 Y178.517 E40.08118
G1 X120.57 Y178.033 E40.10233
G1 X120.816 Y177.51 E40.12348
G1 X120.987 Y176.958 E40.14462
G1 X121.081 Y176.387 E40.16579
G1 X121.099 Y175.997 E40.18007
G1 X121.099 Y163.689 E40.63038
G1 X121.059 Y163.112 E40.65154
G1 X120.94 Y162.547 E40.67266
G1 X120.744 Y162.003 E40.69382
G1 X120.475 Y161.492 E40.71495
G1 X120.138 Y161.022 E40.7361
G1 X119.875 Y160.733 E40.7504
G1 X119.564 Y160.422 E40.76649
G1 X119.128 Y160.043 E40.78763
G1 X118.644 Y159.727 E40.80878
G1 X118.121 Y159.481 E40.82992
G1 X117.569 Y159.31 E40.85106
G1 X116.998 Y159.216 E40.87224
G1 X116.608 Y159.198 E40.88652
G1 X114.934 Y159.198 E40.94776
G1 X114.802 Y159.136 E40.9531
G1 X114.25 Y158.965 E40.97424
G1 X113.679 Y158.871 E40.99541
G1 X113.289 Y158.853 E41.0097
G1 X111.001 Y158.853 E41.09341
G1 X110.424 Y158.893 E41.11457
G1 X109.859 Y159.012 E41.13569
G1 X109.343 Y159.198 E41.15576
G1 X109.18 Y159.198 E41.16172
G1 X109.18 Y141.206 E41.81998
G1 X118.981 Y141.206 E42.17856
G1 X119.065 Y141.607 E42.19355
G1 X119.261 Y142.151 E42.21471
G1 X119.53 Y142.662 E42.23583
G1 X119.867 Y143.132 E42.25699
G1 X120.13 Y143.421 E42.27129
G1 X120.441 Y143.732 E42.28738
G1 X120.877 Y144.111 E42.30852
G1 X121.361 Y144.427 E42.32966
G1 X121.884 Y144.673 E42.35081
G1 X122.436 Y144.844 E42.37195
G1 X123.007 Y144.938 E42.39312
G1 X123.397 Y144.956 E42.40741
G0 F6000 X123.397 Y144.516
G1 F1200 X140.403 Y144.516 E43.02959
G1 X140.948 Y144.476 E43.04959
G1 X141.501 Y144.351 E43.07033
G1 X143.142 Y143.847 E43.13313
G1 X143.651 Y143.649 E43.15312
G1 X144.127 Y143.379 E43.17314
G1 X144.557 Y143.042 E43.19313
G1 X145.051 Y142.496 E43.22006
G1 X145.312 Y142.143 E43.23613
G1 X145.604 Y141.68 E43.25615
G1 X145.826 Y141.181 E43.27613
G1 X145.941 Y140.766 E43.29189
