;FLAVOR:Marlin
;TIME:2116
;Filament used: 1.48151m
;Layer height: 0.16
;MINX:169.301
;MINY:136.071
;MINZ:0.28
;MAXX:216.464
;MAXY:183.186
;MAXZ:19.96
;Generated with Cura_SteamEngine 4.13.1
M140 S95
M105
M190 S95
M104 S220
M105
M109 S220
M82 ;absolute extrusion mode
G28 ; home all axes
 M117 Purge extruder
 G92 E0 ; reset extruder
 G1 Z1.0 F3000 ; move z up little to prevent scratching of surface
 G1 X2 Y20 Z0.3 F5000.0 ; move to start-line position
 G1 X2 Y200.0 Z0.3 F1500.0 E15 ; draw 1st line
 G1 X2 Y200.0 Z0.4 F5000.0 ; move to side a little
 G1 X2 Y20 Z0.4 F1500.0 E30 ; draw 2nd line
 G92 E0 ; reset extruder
 G1 Z1.0 F3000 ; move z up little to prevent scratching of surface
G92 E0
G92 E0
G1 F1500 E-5
;LAYER_COUNT:111
;LAYER:0
M107
G0 F6000 X170.685 Y138.284 Z0.28
;TYPE:SKIRT
G1 F1500 E0
G1 F1200 X171.158 Y137.772 E0.0557
G1 X171.687 Y137.318 E0.1114
G1 X172.264 Y136.928 E0.16705
G1 X172.882 Y136.606 E0.22273
G1 X173.532 Y136.357 E0.27835
G1 X174.207 Y136.184 E0.33403
G1 X174.897 Y136.09 E0.38967
G1 X175.373 Y136.071 E0.42773
G1 X190.373 Y136.071 E1.6263
G1 X191.069 Y136.111 E1.682
G1 X191.755 Y136.23 E1.73763
G1 X192.423 Y136.428 E1.7933
G1 X193.064 Y136.7 E1.84894
G1 X193.67 Y137.044 E1.90462
G1 X194.232 Y137.455 E1.96026
G1 X194.744 Y137.928 E2.01595
G1 X195.198 Y138.457 E2.07166
G1 X195.588 Y139.034 E2.1273
G1 X195.91 Y139.652 E2.18299
G1 X196.159 Y140.302 E2.2386
G1 X196.332 Y140.977 E2.29428
G1 X196.426 Y141.667 E2.34993
G1 X196.445 Y142.143 E2.38799
G1 X196.445 Y147.061 E2.78096
G1 X196.693 Y146.85 E2.80698
G1 X197.043 Y146.572 E2.84269
G1 X197.279 Y146.396 E2.86622
G1 X197.503 Y146.236 E2.88821
G1 X197.748 Y146.07 E2.91186
G1 X198.018 Y145.898 E2.93744
G1 X198.27 Y145.746 E2.96095
G1 X198.527 Y145.599 E2.98461
G1 X198.787 Y145.459 E3.00821
G1 X199.041 Y145.33 E3.03097
G1 X199.308 Y145.202 E3.05463
G1 X199.586 Y145.077 E3.07898
G1 X199.858 Y144.963 E3.10255
G1 X200.15 Y144.849 E3.1276
G1 X200.428 Y144.749 E3.1512
G1 X200.699 Y144.659 E3.17402
G1 X200.982 Y144.572 E3.19768
G1 X201.279 Y144.489 E3.22232
G1 X201.564 Y144.417 E3.24581
G1 X201.844 Y144.353 E3.26876
G1 X202.135 Y144.294 E3.29248
G1 X202.41 Y144.245 E3.3148
G1 X202.706 Y144.199 E3.33874
G1 X203.052 Y144.155 E3.36661
G1 X203.351 Y144.126 E3.39061
G1 X203.634 Y144.106 E3.41328
G1 X203.934 Y144.091 E3.43728
G1 X204.237 Y144.083 E3.4615
G1 X204.535 Y144.083 E3.48531
G1 X204.839 Y144.091 E3.50961
G1 X205.138 Y144.106 E3.53353
G1 X205.42 Y144.126 E3.55612
G1 X205.719 Y144.155 E3.58012
G1 X206.02 Y144.192 E3.60436
G1 X206.284 Y144.231 E3.62568
G1 X206.588 Y144.284 E3.65034
G1 X206.913 Y144.349 E3.67682
G1 X207.237 Y144.423 E3.70338
G1 X207.528 Y144.498 E3.72739
G1 X207.782 Y144.569 E3.74846
G1 X208.025 Y144.643 E3.76876
G1 X208.287 Y144.73 E3.79082
G1 X208.566 Y144.829 E3.81447
G1 X208.808 Y144.92 E3.83513
G1 X208.989 Y144.994 E3.85076
G1 X209.261 Y145.11 E3.87438
G1 X209.537 Y145.236 E3.89863
G1 X209.802 Y145.365 E3.92218
G1 X210.054 Y145.495 E3.94483
G1 X210.314 Y145.637 E3.96851
G1 X210.594 Y145.8 E3.99439
G1 X210.845 Y145.955 E4.01797
G1 X211.094 Y146.117 E4.0417
G1 X211.337 Y146.284 E4.06526
G1 X211.554 Y146.44 E4.08662
G1 X211.79 Y146.618 E4.11024
G1 X212.043 Y146.82 E4.13611
G1 X212.27 Y147.011 E4.15981
G1 X212.478 Y147.194 E4.18195
G1 X212.697 Y147.396 E4.20575
G1 X212.944 Y147.637 E4.23333
G1 X213.153 Y147.853 E4.25734
G1 X213.321 Y148.033 E4.27702
G1 X213.519 Y148.255 E4.30079
G1 X213.746 Y148.526 E4.32903
G1 X213.933 Y148.762 E4.35309
G1 X214.111 Y148.998 E4.37671
G1 X214.285 Y149.241 E4.4006
G1 X214.443 Y149.473 E4.42302
G1 X214.607 Y149.726 E4.44712
G1 X214.765 Y149.983 E4.47122
G1 X214.914 Y150.24 E4.49496
G1 X215.081 Y150.549 E4.52302
G1 X215.236 Y150.856 E4.5505
G1 X215.365 Y151.127 E4.57449
G1 X215.485 Y151.397 E4.59809
G1 X215.599 Y151.672 E4.62188
G1 X215.705 Y151.946 E4.64536
G1 X215.813 Y152.248 E4.67098
G1 X215.905 Y152.529 E4.69461
G1 X215.989 Y152.81 E4.71804
G1 X216.067 Y153.094 E4.74158
G1 X216.134 Y153.361 E4.76357
G1 X216.199 Y153.648 E4.78709
G1 X216.257 Y153.937 E4.81064
G1 X216.308 Y154.227 E4.83417
G1 X216.355 Y154.539 E4.85938
G1 X216.391 Y154.832 E4.88297
G1 X216.417 Y155.098 E4.90432
G1 X216.449 Y155.563 E4.94157
G1 X216.46 Y155.858 E4.96515
G1 X216.464 Y156.199 E4.9924
G1 X216.462 Y156.362 E5.00543
G1 X216.455 Y156.622 E5.02621
G1 X216.441 Y156.906 E5.04893
G1 X216.419 Y157.204 E5.07281
G1 X216.392 Y157.476 E5.09465
G1 X216.366 Y157.694 E5.11219
G1 X216.322 Y157.997 E5.13666
G1 X216.258 Y158.372 E5.16705
G1 X216.192 Y158.704 E5.1941
G1 X216.125 Y158.997 E5.21812
G1 X216.051 Y159.287 E5.24203
G1 X215.97 Y159.575 E5.26594
G1 X215.89 Y159.838 E5.2879
G1 X215.806 Y160.092 E5.30928
G1 X215.708 Y160.366 E5.33253
G1 X215.601 Y160.644 E5.35633
G1 X215.487 Y160.919 E5.38012
G1 X215.368 Y161.188 E5.40362
G1 X215.223 Y161.493 E5.43061
G1 X215.054 Y161.824 E5.4603
G1 X214.887 Y162.13 E5.48816
G1 X214.753 Y162.359 E5.50936
G1 X214.61 Y162.591 E5.53114
G1 X214.434 Y162.863 E5.55702
G1 X214.252 Y163.128 E5.58271
G1 X214.078 Y163.368 E5.6064
G1 X213.903 Y163.597 E5.62943
G1 X213.719 Y163.827 E5.65296
G1 X213.511 Y164.074 E5.67876
G1 X213.314 Y164.295 E5.70242
G1 X213.105 Y164.518 E5.72684
G1 X212.898 Y164.728 E5.7504
G1 X212.711 Y164.909 E5.7712
G1 X212.494 Y165.111 E5.79489
G1 X212.254 Y165.323 E5.82047
G1 X212.027 Y165.513 E5.84413
G1 X211.79 Y165.702 E5.86835
G1 X211.553 Y165.881 E5.89208
G1 X211.317 Y166.051 E5.91532
G1 X211.068 Y166.221 E5.93941
G1 X210.831 Y166.374 E5.96195
G1 X210.578 Y166.53 E5.9857
G1 X210.275 Y166.706 E6.0137
G1 X210.01 Y166.849 E6.03776
G1 X209.76 Y166.976 E6.06017
G1 X209.49 Y167.106 E6.08411
G1 X209.209 Y167.233 E6.10875
G1 X208.933 Y167.349 E6.13267
G1 X208.635 Y167.465 E6.15823
G1 X208.307 Y167.583 E6.18608
G1 X208.004 Y167.683 E6.21157
G1 X207.722 Y167.768 E6.23511
G1 X207.426 Y167.849 E6.25963
G1 X207.179 Y167.91 E6.27996
G1 X206.963 Y167.959 E6.29766
G1 X206.709 Y168.012 E6.31839
G1 X206.451 Y168.06 E6.33936
G1 X206.158 Y168.108 E6.36308
G1 X205.794 Y168.156 E6.39242
G1 X205.501 Y168.186 E6.41595
G1 X205.077 Y168.218 E6.44993
G1 X205.083 Y168.425 E6.46648
G1 X205.084 Y168.719 E6.48997
G1 X205.077 Y169.027 E6.51459
G1 X205.063 Y169.323 E6.53826
G1 X205.042 Y169.614 E6.56158
G1 X205.014 Y169.907 E6.5851
G1 X204.98 Y170.193 E6.60811
G1 X204.938 Y170.485 E6.63168
G1 X204.891 Y170.768 E6.6546
G1 X204.835 Y171.059 E6.67828
G1 X204.764 Y171.38 E6.70455
G1 X204.693 Y171.665 E6.72802
G1 X204.613 Y171.955 E6.75206
G1 X204.528 Y172.236 E6.77552
G1 X204.451 Y172.472 E6.79535
G1 X204.354 Y172.751 E6.81895
G1 X204.229 Y173.079 E6.847
G1 X204.116 Y173.352 E6.87061
G1 X203.997 Y173.621 E6.89411
G1 X203.871 Y173.888 E6.9177
G1 X203.747 Y174.136 E6.93986
G1 X203.61 Y174.395 E6.96327
G1 X203.453 Y174.674 E6.98885
G1 X203.301 Y174.928 E7.0125
G1 X203.162 Y175.15 E7.03343
G1 X203 Y175.396 E7.05697
G1 X202.902 Y175.54 E7.07089
G1 X201.15 Y178.041 E7.31488
G1 X200.887 Y178.401 E7.35051
G1 X200.696 Y178.646 E7.37533
G1 X200.505 Y178.879 E7.3994
G1 X200.311 Y179.104 E7.42314
G1 X200.111 Y179.325 E7.44696
G1 X199.903 Y179.545 E7.47115
G1 X199.69 Y179.758 E7.49522
G1 X199.471 Y179.965 E7.5193
G1 X199.249 Y180.166 E7.54323
G1 X199.019 Y180.364 E7.56748
G1 X198.788 Y180.553 E7.59132
G1 X198.541 Y180.745 E7.61632
G1 X198.299 Y180.923 E7.64033
G1 X198.069 Y181.084 E7.66276
G1 X197.82 Y181.25 E7.68667
G1 X197.525 Y181.435 E7.7145
G1 X197.266 Y181.587 E7.73849
G1 X197.038 Y181.714 E7.75935
G1 X196.774 Y181.854 E7.78322
G1 X196.481 Y182 E7.80938
G1 X196.209 Y182.126 E7.83333
G1 X195.936 Y182.244 E7.8571
G1 X195.657 Y182.357 E7.88115
G1 X195.401 Y182.454 E7.90302
G1 X195.118 Y182.554 E7.92701
G1 X194.787 Y182.66 E7.95478
G1 X194.501 Y182.743 E7.97857
G1 X194.21 Y182.82 E8.00263
G1 X193.919 Y182.889 E8.02652
G1 X193.666 Y182.943 E8.04719
G1 X193.37 Y183 E8.07128
G1 X193.035 Y183.055 E8.09841
G1 X192.739 Y183.095 E8.12227
G1 X192.45 Y183.127 E8.14551
G1 X192.15 Y183.153 E8.16957
G1 X191.849 Y183.172 E8.19367
G1 X191.55 Y183.183 E8.21757
G1 X191.246 Y183.186 E8.24187
G1 X190.947 Y183.182 E8.26576
G1 X190.623 Y183.169 E8.29167
G1 X190.324 Y183.149 E8.31561
G1 X190.038 Y183.124 E8.33855
G1 X189.741 Y183.09 E8.36244
G1 X189.44 Y183.047 E8.38674
G1 X189.144 Y182.998 E8.41071
G1 X188.864 Y182.945 E8.43348
G1 X188.57 Y182.882 E8.4575
G1 X188.255 Y182.806 E8.4834
G1 X187.967 Y182.728 E8.50724
G1 X187.67 Y182.639 E8.53201
G1 X187.385 Y182.546 E8.55597
G1 X187.133 Y182.458 E8.5773
G1 X186.851 Y182.352 E8.60137
G1 X186.527 Y182.219 E8.62935
G1 X186.254 Y182.098 E8.65321
G1 X186.007 Y181.982 E8.67502
G1 X185.738 Y181.848 E8.69903
G1 X185.457 Y181.699 E8.72445
G1 X185.197 Y181.552 E8.74831
G1 X184.945 Y181.401 E8.77179
G1 X184.693 Y181.242 E8.79559
G1 X184.427 Y181.064 E8.82117
G1 X184.181 Y180.89 E8.84524
G1 X183.954 Y180.722 E8.86781
G1 X183.718 Y180.538 E8.89172
G1 X183.483 Y180.345 E8.91602
G1 X183.256 Y180.149 E8.93998
G1 X183.023 Y179.937 E8.96515
G1 X182.807 Y179.73 E8.98906
G1 X182.598 Y179.52 E9.01273
G1 X181.253 Y178.099 E9.16907
G1 X181.055 Y177.879 E9.19272
G1 X179.781 Y176.394 E9.34906
G1 X179.595 Y176.166 E9.37258
G1 X178.395 Y174.622 E9.52883
G1 X178.216 Y174.38 E9.55288
G1 X177.093 Y172.777 E9.70927
G1 X176.93 Y172.532 E9.73278
G1 X175.887 Y170.878 E9.88903
G1 X175.733 Y170.62 E9.91304
G1 X174.772 Y168.915 E10.06942
G1 X174.634 Y168.654 E10.09301
G1 X173.758 Y166.906 E10.24924
G1 X173.631 Y166.638 E10.27294
G1 X172.841 Y164.848 E10.42928
G1 X172.729 Y164.576 E10.45278
G1 X172.027 Y162.751 E10.60902
G1 X171.926 Y162.47 E10.63288
G1 X171.314 Y160.611 E10.78927
G1 X171.228 Y160.324 E10.81321
G1 X170.709 Y158.439 E10.96943
G1 X170.638 Y158.153 E10.99298
G1 X170.211 Y156.245 E11.14921
G1 X170.153 Y155.952 E11.17307
G1 X169.82 Y154.023 E11.32949
G1 X169.776 Y153.732 E11.353
G1 X169.537 Y151.79 E11.50935
G1 X169.508 Y151.492 E11.53327
G1 X169.365 Y149.542 E11.6895
G1 X169.351 Y149.247 E11.7131
G1 X169.303 Y147.293 E11.86928
G1 X169.301 Y147.144 E11.88119
G1 X169.301 Y142.143 E12.28079
G1 X169.341 Y141.447 E12.3365
G1 X169.46 Y140.761 E12.39213
G1 X169.658 Y140.093 E12.4478
G1 X169.93 Y139.452 E12.50344
G1 X170.274 Y138.846 E12.55912
G1 X170.685 Y138.284 E12.61475
G0 F6000 X171.208 Y138.484
G1 F1200 X171.677 Y138.011 E12.66798
G1 X172.199 Y137.598 E12.72116
G1 X172.766 Y137.25 E12.77432
G1 X173.371 Y136.973 E12.82749
G1 X174.006 Y136.77 E12.88076
G1 X174.659 Y136.645 E12.93388
G1 X175.373 Y136.599 E12.99105
G1 X190.373 Y136.599 E14.18961
G1 X191.037 Y136.639 E14.24277
G1 X191.692 Y136.758 E14.29596
G1 X192.328 Y136.955 E14.34916
G1 X192.936 Y137.227 E14.40238
G1 X193.507 Y137.57 E14.45561
G1 X194.032 Y137.978 E14.50874
G1 X194.505 Y138.447 E14.56196
G1 X194.918 Y138.969 E14.61515
G1 X195.266 Y139.536 E14.6683
G1 X195.543 Y140.141 E14.72147
G1 X195.746 Y140.776 E14.77474
G1 X195.871 Y141.429 E14.82787
G1 X195.917 Y142.143 E14.88504
G1 X195.917 Y147.098 E15.28096
G1 X195.939 Y148.057 E15.35761
G1 X195.955 Y148.267 E15.37444
G1 X196.016 Y148.201 E15.38162
G1 X196.225 Y147.987 E15.40552
G1 X196.431 Y147.787 E15.42846
G1 X196.652 Y147.583 E15.45249
G1 X196.834 Y147.422 E15.47191
G1 X197.14 Y147.166 E15.50379
G1 X197.359 Y146.995 E15.52599
G1 X197.595 Y146.819 E15.54951
G1 X197.799 Y146.673 E15.56956
G1 X198.044 Y146.507 E15.59321
G1 X198.291 Y146.35 E15.61659
G1 X198.543 Y146.198 E15.64011
G1 X198.778 Y146.064 E15.66172
G1 X199.038 Y145.924 E15.68532
G1 X199.269 Y145.806 E15.70604
G1 X199.536 Y145.678 E15.7297
G1 X199.79 Y145.564 E15.75195
G1 X200.062 Y145.45 E15.77552
G1 X200.328 Y145.346 E15.79834
G1 X200.606 Y145.246 E15.82194
G1 X200.854 Y145.164 E15.84281
G1 X201.137 Y145.077 E15.86647
G1 X201.408 Y145.001 E15.88896
G1 X201.693 Y144.929 E15.91245
G1 X201.949 Y144.871 E15.93342
G1 X202.24 Y144.812 E15.95715
G1 X202.491 Y144.767 E15.97752
G1 X202.787 Y144.721 E16.00146
G1 X203.103 Y144.681 E16.02691
G1 X203.402 Y144.652 E16.05091
G1 X203.66 Y144.633 E16.07159
G1 X203.96 Y144.618 E16.09559
G1 X204.237 Y144.611 E16.11773
G1 X204.535 Y144.611 E16.14154
G1 X204.813 Y144.618 E16.16376
G1 X205.112 Y144.633 E16.18768
G1 X205.369 Y144.652 E16.20827
G1 X205.668 Y144.681 E16.23228
G1 X205.943 Y144.715 E16.25442
G1 X206.207 Y144.754 E16.27574
G1 X206.484 Y144.802 E16.2982
G1 X206.809 Y144.867 E16.32469
G1 X207.106 Y144.934 E16.34901
G1 X207.397 Y145.009 E16.37303
G1 X207.628 Y145.074 E16.3922
G1 X207.871 Y145.148 E16.4125
G1 X208.11 Y145.227 E16.43261
G1 X208.389 Y145.326 E16.45627
G1 X208.782 Y145.479 E16.48996
G1 X209.054 Y145.595 E16.51359
G1 X209.306 Y145.71 E16.53573
G1 X209.571 Y145.839 E16.55928
G1 X209.801 Y145.958 E16.57997
G1 X210.061 Y146.1 E16.60364
G1 X210.317 Y146.249 E16.62731
G1 X210.568 Y146.404 E16.65088
G1 X210.795 Y146.552 E16.67253
G1 X211.038 Y146.719 E16.69609
G1 X211.236 Y146.862 E16.71561
G1 X211.472 Y147.04 E16.73923
G1 X211.703 Y147.224 E16.76283
G1 X211.93 Y147.415 E16.78653
G1 X212.12 Y147.582 E16.80674
G1 X212.339 Y147.784 E16.83055
G1 X212.564 Y148.004 E16.85569
G1 X212.773 Y148.22 E16.87971
G1 X212.926 Y148.385 E16.89769
G1 X213.124 Y148.607 E16.92146
G1 X213.332 Y148.854 E16.94726
G1 X213.519 Y149.09 E16.97132
G1 X213.682 Y149.305 E16.99288
G1 X213.856 Y149.548 E17.01676
G1 X214 Y149.76 E17.03724
G1 X214.164 Y150.013 E17.06133
G1 X214.308 Y150.248 E17.08335
G1 X214.457 Y150.505 E17.10709
G1 X214.61 Y150.787 E17.13272
G1 X214.765 Y151.094 E17.1602
G1 X214.882 Y151.341 E17.18204
G1 X215.002 Y151.611 E17.20565
G1 X215.107 Y151.863 E17.22747
G1 X215.213 Y152.137 E17.25094
G1 X215.311 Y152.412 E17.27427
G1 X215.403 Y152.693 E17.29789
G1 X215.48 Y152.95 E17.31933
G1 X215.558 Y153.234 E17.34286
G1 X215.619 Y153.477 E17.36288
G1 X215.684 Y153.764 E17.3864
G1 X215.737 Y154.029 E17.40799
G1 X215.788 Y154.319 E17.43152
G1 X215.831 Y154.603 E17.45447
G1 X215.867 Y154.896 E17.47806
G1 X215.908 Y155.356 E17.51496
G1 X215.921 Y155.582 E17.53305
G1 X215.932 Y155.877 E17.55664
G1 X215.936 Y156.199 E17.58237
G1 X215.927 Y156.608 E17.61506
G1 X215.914 Y156.867 E17.63578
G1 X215.892 Y157.165 E17.65965
G1 X215.868 Y157.414 E17.67964
G1 X215.842 Y157.632 E17.69718
G1 X215.802 Y157.908 E17.71947
G1 X215.738 Y158.283 E17.74987
G1 X215.678 Y158.586 E17.77455
G1 X215.611 Y158.879 E17.79856
G1 X215.543 Y159.144 E17.82042
G1 X215.462 Y159.432 E17.84433
G1 X215.389 Y159.672 E17.86437
G1 X215.305 Y159.926 E17.88575
G1 X215.215 Y160.176 E17.90698
G1 X215.108 Y160.454 E17.93078
G1 X215.004 Y160.706 E17.95257
G1 X214.885 Y160.975 E17.97607
G1 X214.753 Y161.253 E18.00066
G1 X214.584 Y161.584 E18.03036
G1 X214.431 Y161.863 E18.05578
G1 X214.297 Y162.092 E18.07698
G1 X214.167 Y162.304 E18.09685
G1 X213.991 Y162.576 E18.12274
G1 X213.824 Y162.818 E18.14623
G1 X213.65 Y163.058 E18.16992
G1 X213.491 Y163.267 E18.1909
G1 X213.307 Y163.497 E18.21444
G1 X213.116 Y163.723 E18.23808
G1 X212.919 Y163.944 E18.26174
G1 X212.729 Y164.147 E18.28396
G1 X212.522 Y164.357 E18.30752
G1 X212.351 Y164.523 E18.32656
G1 X212.134 Y164.725 E18.35025
G1 X211.915 Y164.918 E18.37357
G1 X211.688 Y165.108 E18.39723
G1 X211.471 Y165.281 E18.4194
G1 X211.234 Y165.46 E18.44313
G1 X211.019 Y165.615 E18.46431
G1 X210.77 Y165.785 E18.4884
G1 X210.554 Y165.925 E18.50897
G1 X210.301 Y166.081 E18.53272
G1 X210.024 Y166.241 E18.55828
G1 X209.759 Y166.384 E18.58234
G1 X209.531 Y166.5 E18.60278
G1 X209.261 Y166.63 E18.62673
G1 X209.004 Y166.746 E18.64926
G1 X208.728 Y166.862 E18.67318
G1 X208.457 Y166.968 E18.69643
G1 X208.129 Y167.086 E18.72428
G1 X207.852 Y167.177 E18.74758
G1 X207.57 Y167.262 E18.77112
G1 X207.299 Y167.336 E18.79356
G1 X207.052 Y167.397 E18.81389
G1 X206.855 Y167.442 E18.83004
G1 X206.601 Y167.495 E18.85077
G1 X206.365 Y167.539 E18.86995
G1 X206.072 Y167.587 E18.89368
G1 X205.741 Y167.631 E18.92036
G1 X205.448 Y167.661 E18.94389
G1 X205.22 Y167.68 E18.96217
G1 X204.924 Y167.698 E18.98587
G1 X204.625 Y167.708 E19.00977
G1 X204.52 Y167.709 E19.01816
G1 X204.531 Y167.851 E19.02954
G1 X204.547 Y168.146 E19.05315
G1 X204.555 Y168.427 E19.07561
G1 X204.556 Y168.721 E19.0991
G1 X204.55 Y169.002 E19.12156
G1 X204.536 Y169.298 E19.14524
