;FLAVOR:Marlin
;TIME:16895
;Filament used: 11.0186m
;Layer height: 0.16
;MINX:104.999
;MINY:122.295
;MINZ:0.2
;MAXX:194.999
;MAXY:177.925
;MAXZ:33.24
;Generated with Cura_SteamEngine 4.13.1
M140 S60
M105
M190 S60
M104 S200
M105
M109 S200
M82 ;absolute extrusion mode
G28 ; home all axes
 M117 Purge extruder
 G92 E0 ; reset extruder
 G1 Z1.0 F3000 ; move z up little to prevent scratching of surface
 G1 X2 Y20 Z0.3 F5000.0 ; move to start-line position
 G1 X2 Y200.0 Z0.3 F1500.0 E15 ; draw 1st line
 G1 X2 Y200.0 Z0.4 F5000.0 ; move to side a little
 G1 X2 Y20 Z0.4 F1500.0 E30 ; draw 2nd line
 G92 E0 ; reset extruder
 G1 Z1.0 F3000 ; move z up little to prevent scratching of surface
G92 E0
G92 E0
G1 F1500 E-2
;LAYER_COUNT:214
;LAYER:0
M107
G1 F300 Z0.4
G0 F6000 X109.181 Y133.149 Z0.4
;TYPE:SKIRT
G1 F300 Z0.2
G1 F1500 E0
G1 F1200 X122.689 Y133.148 E0.49421
G1 X123.266 Y133.108 E0.51537
G1 X123.831 Y132.989 E0.53649
G1 X124.375 Y132.793 E0.55765
G1 X124.886 Y132.524 E0.57877
G1 X125.356 Y132.187 E0.59993
G1 X125.645 Y131.924 E0.61423
G1 X125.956 Y131.613 E0.63032
G1 X126.335 Y131.177 E0.65146
G1 X126.651 Y130.693 E0.6726
G1 X126.897 Y130.17 E0.69375
G1 X127.041 Y129.705 E0.71156
G1 X137.145 Y129.705 E1.08123
G1 X137.16 Y129.923 E1.08922
G1 X137.279 Y130.488 E1.11035
G1 X137.475 Y131.032 E1.1315
G1 X137.744 Y131.543 E1.15263
G1 X138.081 Y132.013 E1.17379
G1 X138.344 Y132.302 E1.18808
G1 X138.655 Y132.613 E1.20417
G1 X139.091 Y132.992 E1.22531
G1 X139.575 Y133.308 E1.24646
G1 X140.098 Y133.554 E1.2676
G1 X140.65 Y133.725 E1.28875
G1 X141.221 Y133.819 E1.30992
G1 X141.611 Y133.837 E1.3242
G1 X158.389 Y133.837 E1.93804
G1 X158.966 Y133.797 E1.95921
G1 X159.531 Y133.678 E1.98033
G1 X160.075 Y133.482 E2.00149
G1 X160.586 Y133.213 E2.02261
G1 X161.056 Y132.876 E2.04377
G1 X161.345 Y132.613 E2.05807
G1 X161.656 Y132.302 E2.07416
G1 X162.035 Y131.866 E2.0953
G1 X162.351 Y131.382 E2.11644
G1 X162.597 Y130.859 E2.13759
G1 X162.768 Y130.307 E2.15873
G1 X162.862 Y129.736 E2.1799
G1 X162.863 Y129.705 E2.18104
G1 X172.671 Y129.705 E2.53987
G1 X172.817 Y129.982 E2.55133
G1 X173.154 Y130.452 E2.57249
G1 X173.34 Y130.656 E2.58259
G1 X173.444 Y130.854 E2.59077
G1 X173.781 Y131.324 E2.61193
G1 X174.044 Y131.613 E2.62623
G1 X174.355 Y131.924 E2.64232
G1 X174.791 Y132.303 E2.66345
G1 X175.275 Y132.619 E2.6846
G1 X175.798 Y132.865 E2.70575
G1 X176.35 Y133.036 E2.72689
G1 X176.921 Y133.13 E2.74806
G1 X177.311 Y133.148 E2.76235
G1 X190.82 Y133.148 E3.25659
G1 X190.82 Y173.745 E4.74188
G1 X109.18 Y173.745 E7.72877
G1 X109.181 Y133.149 E9.21402
G0 F6000 X108.741 Y132.709
G1 F1200 X122.689 Y132.708 E9.72432
G1 X123.234 Y132.668 E9.74432
G1 X123.768 Y132.549 E9.76433
G1 X124.278 Y132.353 E9.78432
G1 X124.755 Y132.086 E9.80432
G1 X125.334 Y131.613 E9.83168
G1 X125.645 Y131.302 E9.84777
G1 X126.002 Y130.888 E9.86777
G1 X126.295 Y130.426 E9.88778
G1 X126.518 Y129.927 E9.90778
G1 X126.665 Y129.401 E9.92776
G1 X126.782 Y129.265 E9.93432
G1 X137.532 Y129.265 E10.32763
G1 X137.56 Y129.346 E10.33076
G1 X137.6 Y129.891 E10.35075
G1 X137.719 Y130.425 E10.37077
G1 X137.914 Y130.935 E10.39075
G1 X138.182 Y131.412 E10.41076
G1 X138.655 Y131.991 E10.43812
G1 X138.966 Y132.302 E10.45421
G1 X139.38 Y132.659 E10.47421
G1 X139.842 Y132.952 E10.49423
G1 X140.341 Y133.175 E10.51422
G1 X140.867 Y133.322 E10.5342
G1 X141.611 Y133.397 E10.56156
G1 X158.389 Y133.397 E11.1754
G1 X158.934 Y133.357 E11.1954
G1 X159.468 Y133.238 E11.21541
G1 X159.978 Y133.043 E11.23539
G1 X160.455 Y132.775 E11.25541
G1 X161.034 Y132.302 E11.28276
G1 X161.345 Y131.991 E11.29885
G1 X161.702 Y131.577 E11.31885
G1 X161.995 Y131.115 E11.33887
G1 X162.218 Y130.616 E11.35886
G1 X162.365 Y130.09 E11.37885
G1 X162.44 Y129.346 E11.4062
G1 X162.482 Y129.265 E11.40954
G1 X172.945 Y129.265 E11.79234
G1 X172.987 Y129.374 E11.79662
G1 X173.255 Y129.851 E11.81663
G1 X173.694 Y130.388 E11.84201
G1 X173.882 Y130.723 E11.85606
G1 X174.355 Y131.302 E11.88342
G1 X174.666 Y131.613 E11.89951
G1 X175.08 Y131.97 E11.91951
G1 X175.542 Y132.263 E11.93953
G1 X176.041 Y132.486 E11.95952
G1 X176.567 Y132.633 E11.9795
G1 X177.311 Y132.708 E12.00686
G1 X191.26 Y132.708 E12.5172
G1 X191.26 Y174.185 E14.03469
G1 X108.74 Y174.185 E17.05377
G1 X108.741 Y132.709 E18.57122
G0 F6000 X108.301 Y132.269
G1 F1200 X122.689 Y132.268 E19.09762
G1 X123.201 Y132.228 E19.11641
G1 X123.701 Y132.109 E19.13522
G1 X124.176 Y131.914 E19.154
G1 X124.615 Y131.648 E19.17278
G1 X125.022 Y131.301 E19.19235
G1 X125.333 Y130.99 E19.20844
G1 X125.667 Y130.6 E19.22723
G1 X125.936 Y130.163 E19.246
G1 X126.134 Y129.689 E19.2648
G1 X126.254 Y129.203 E19.28311
G1 X126.547 Y128.861 E19.29959
G1 X126.569 Y128.825 E19.30113
G1 X137.729 Y128.825 E19.70943
G1 X137.74 Y128.843 E19.7102
G1 X138 Y129.149 E19.72489
G1 X138 Y129.346 E19.7321
G1 X138.04 Y129.858 E19.75089
G1 X138.159 Y130.357 E19.76966
G1 X138.354 Y130.832 E19.78845
G1 X138.62 Y131.271 E19.80723
G1 X138.967 Y131.679 E19.82682
G1 X139.278 Y131.99 E19.84291
G1 X139.668 Y132.324 E19.8617
G1 X140.105 Y132.593 E19.88047
G1 X140.579 Y132.791 E19.89927
G1 X141.077 Y132.914 E19.91803
G1 X141.611 Y132.957 E19.93763
G1 X158.389 Y132.957 E20.55148
G1 X158.901 Y132.917 E20.57027
G1 X159.4 Y132.798 E20.58903
G1 X159.875 Y132.603 E20.60782
G1 X160.314 Y132.337 E20.6266
G1 X160.722 Y131.99 E20.6462
G1 X161.033 Y131.679 E20.66229
G1 X161.367 Y131.289 E20.68107
G1 X161.636 Y130.852 E20.69985
G1 X161.834 Y130.378 E20.71864
G1 X161.957 Y129.88 E20.73741
G1 X162 Y129.346 E20.75701
G1 X162 Y129.149 E20.76422
G1 X162.247 Y128.861 E20.7781
G1 X162.269 Y128.825 E20.77964
G1 X173.244 Y128.825 E21.18117
G1 X173.427 Y129.271 E21.19881
G1 X173.693 Y129.71 E21.21759
G1 X174.046 Y130.124 E21.2375
G1 X174.054 Y130.143 E21.23825
G1 X174.32 Y130.582 E21.25703
G1 X174.667 Y130.99 E21.27663
G1 X174.978 Y131.301 E21.29272
G1 X175.368 Y131.635 E21.3115
G1 X175.805 Y131.904 E21.33028
G1 X176.279 Y132.102 E21.34907
G1 X176.777 Y132.225 E21.36784
G1 X177.311 Y132.268 E21.38744
G1 X191.7 Y132.268 E21.91388
G1 X191.7 Y174.625 E23.46356
G1 X108.3 Y174.625 E26.51484
G1 X108.301 Y132.269 E28.06449
G0 F6000 X107.861 Y131.829
G1 F1200 X122.689 Y131.828 E28.60698
G1 X123.165 Y131.788 E28.62446
G1 X123.628 Y131.669 E28.64195
G1 X124.065 Y131.475 E28.65944
G1 X124.463 Y131.211 E28.67692
G1 X124.711 Y130.99 E28.68907
G1 X125.022 Y130.679 E28.70516
G1 X125.331 Y130.314 E28.72266
G1 X125.574 Y129.903 E28.74013
G1 X125.746 Y129.457 E28.75762
G1 X125.838 Y129.004 E28.77453
G1 X125.902 Y128.94 E28.77784
G1 X126.211 Y128.575 E28.79534
G1 X126.323 Y128.385 E28.80341
G1 X137.973 Y128.385 E29.22963
G1 X138.177 Y128.692 E29.24312
G1 X138.398 Y128.94 E29.25527
G1 X138.44 Y128.982 E29.25745
G1 X138.44 Y129.346 E29.27076
G1 X138.48 Y129.822 E29.28824
G1 X138.599 Y130.285 E29.30573
G1 X138.793 Y130.722 E29.32322
G1 X139.057 Y131.12 E29.3407
G1 X139.278 Y131.368 E29.35285
G1 X139.589 Y131.679 E29.36894
G1 X139.954 Y131.988 E29.38644
G1 X140.365 Y132.231 E29.40391
G1 X140.811 Y132.403 E29.42139
G1 X141.279 Y132.498 E29.43887
G1 X141.611 Y132.517 E29.45103
G1 X158.389 Y132.517 E30.06487
G1 X158.865 Y132.477 E30.08235
G1 X159.328 Y132.358 E30.09984
G1 X159.765 Y132.164 E30.11733
G1 X160.163 Y131.9 E30.13481
G1 X160.411 Y131.679 E30.14696
G1 X160.722 Y131.368 E30.16305
G1 X161.031 Y131.003 E30.18055
G1 X161.274 Y130.592 E30.19802
G1 X161.446 Y130.146 E30.21551
G1 X161.541 Y129.678 E30.23298
G1 X161.56 Y129.346 E30.24514
G1 X161.56 Y128.982 E30.25846
G1 X161.602 Y128.94 E30.26063
G1 X161.911 Y128.575 E30.27813
G1 X162.023 Y128.385 E30.2862
G1 X173.585 Y128.385 E30.70921
G1 X173.672 Y128.724 E30.72201
G1 X173.866 Y129.161 E30.73951
G1 X174.13 Y129.559 E30.75698
G1 X174.351 Y129.807 E30.76913
G1 X174.493 Y130.033 E30.7789
G1 X174.757 Y130.431 E30.79637
G1 X174.978 Y130.679 E30.80853
G1 X175.289 Y130.99 E30.82462
G1 X175.654 Y131.299 E30.84211
G1 X176.065 Y131.542 E30.85958
G1 X176.511 Y131.714 E30.87707
G1 X176.979 Y131.809 E30.89454
G1 X177.311 Y131.828 E30.90671
G1 X192.14 Y131.828 E31.44924
G1 X192.14 Y175.065 E33.03112
G1 X107.86 Y175.065 E36.1146
G1 X107.861 Y131.829 E37.69644
G0 F6000 X107.421 Y131.389
G1 F1200 X122.689 Y131.388 E38.25504
G1 X123.127 Y131.348 E38.27113
G1 X123.55 Y131.23 E38.28719
G1 X123.945 Y131.037 E38.30328
G1 X124.4 Y130.679 E38.32446
G1 X124.711 Y130.368 E38.34055
G1 X124.992 Y130.03 E38.35663
G1 X125.208 Y129.647 E38.37272
G1 X125.351 Y129.232 E38.38878
G1 X125.401 Y128.82 E38.40396
G1 X125.591 Y128.629 E38.41382
G1 X125.872 Y128.291 E38.4299
G1 X126.067 Y127.945 E38.44443
G1 X138.239 Y127.945 E38.88976
G1 X138.351 Y128.174 E38.89909
G1 X138.709 Y128.629 E38.92027
G1 X138.88 Y128.8 E38.92912
G1 X138.88 Y129.346 E38.94909
G1 X138.92 Y129.784 E38.96518
G1 X139.038 Y130.207 E38.98125
G1 X139.231 Y130.602 E38.99733
G1 X139.589 Y131.057 E39.01852
G1 X139.9 Y131.368 E39.03461
G1 X140.238 Y131.649 E39.05069
G1 X140.621 Y131.865 E39.06678
G1 X141.036 Y132.008 E39.08284
G1 X141.611 Y132.077 E39.10402
G1 X158.389 Y132.077 E39.71787
G1 X158.827 Y132.037 E39.73396
G1 X159.25 Y131.919 E39.75002
G1 X159.645 Y131.726 E39.76611
G1 X160.1 Y131.368 E39.78729
G1 X160.411 Y131.057 E39.80338
G1 X160.692 Y130.719 E39.81946
G1 X160.908 Y130.336 E39.83555
G1 X161.051 Y129.921 E39.85161
G1 X161.12 Y129.346 E39.8728
G1 X161.12 Y128.8 E39.89277
G1 X161.291 Y128.629 E39.90162
G1 X161.572 Y128.291 E39.9177
G1 X161.767 Y127.945 E39.93223
G1 X173.939 Y127.945 E40.37756
G1 X173.993 Y128.223 E40.38792
G1 X174.111 Y128.646 E40.40399
G1 X174.304 Y129.041 E40.42007
G1 X174.662 Y129.496 E40.44125
G1 X174.79 Y129.624 E40.44788
G1 X174.931 Y129.913 E40.45964
G1 X175.289 Y130.368 E40.48082
G1 X175.6 Y130.679 E40.49692
G1 X175.938 Y130.96 E40.513
G1 X176.321 Y131.176 E40.52908
G1 X176.736 Y131.319 E40.54514
G1 X177.311 Y131.388 E40.56633
G1 X192.58 Y131.388 E41.12497
G1 X192.58 Y175.505 E42.73904
G1 X107.42 Y175.505 E45.85471
G1 X107.421 Y131.389 E47.46875
G0 F6000 X106.981 Y130.949
G1 F1200 X122.689 Y130.948 E48.04344
G1 X123.085 Y130.908 E48.058
G1 X123.464 Y130.79 E48.07253
G1 X123.812 Y130.598 E48.08707
G1 X124.089 Y130.368 E48.10024
G1 X124.4 Y130.057 E48.11633
G1 X124.652 Y129.749 E48.13089
G1 X124.836 Y129.397 E48.14542
G1 X124.947 Y129.016 E48.15994
G1 X124.98 Y128.657 E48.17313
G1 X124.98 Y128.618 E48.17456
G1 X125.28 Y128.318 E48.19008
G1 X125.532 Y128.01 E48.20464
G1 X125.716 Y127.658 E48.21917
G1 X125.761 Y127.505 E48.22501
G1 X138.54 Y127.505 E48.69254
G1 X138.598 Y127.693 E48.69974
G1 X138.79 Y128.041 E48.71428
G1 X139.02 Y128.318 E48.72745
G1 X139.32 Y128.618 E48.74298
G1 X139.32 Y129.346 E48.76961
G1 X139.36 Y129.741 E48.78414
G1 X139.478 Y130.121 E48.79869
G1 X139.67 Y130.469 E48.81323
G1 X139.9 Y130.746 E48.82641
G1 X140.211 Y131.057 E48.8425
G1 X140.519 Y131.309 E48.85706
G1 X140.871 Y131.493 E48.87159
G1 X141.252 Y131.604 E48.88611
G1 X141.611 Y131.637 E48.8993
G1 X158.389 Y131.637 E49.51314
G1 X158.784 Y131.597 E49.52767
G1 X159.164 Y131.479 E49.54222
G1 X159.512 Y131.287 E49.55676
G1 X159.789 Y131.057 E49.56994
G1 X160.1 Y130.746 E49.58603
G1 X160.352 Y130.438 E49.60059
G1 X160.536 Y130.086 E49.61512
G1 X160.647 Y129.705 E49.62964
G1 X160.68 Y129.346 E49.64283
G1 X160.68 Y128.618 E49.66946
G1 X160.98 Y128.318 E49.68499
G1 X161.232 Y128.01 E49.69955
G1 X161.416 Y127.658 E49.71408
G1 X161.461 Y127.505 E49.71991
G1 X174.24 Y127.505 E50.18745
G1 X174.403 Y127.883 E50.20251
G1 X174.433 Y128.18 E50.21343
G1 X174.551 Y128.56 E50.22799
G1 X174.743 Y128.908 E50.24253
G1 X174.973 Y129.185 E50.2557
G1 X175.159 Y129.371 E50.26532
G1 X175.178 Y129.432 E50.26766
G1 X175.37 Y129.78 E50.2822
G1 X175.6 Y130.057 E50.29537
G1 X175.911 Y130.368 E50.31147
G1 X176.219 Y130.62 E50.32603
G1 X176.571 Y130.804 E50.34056
G1 X176.952 Y130.915 E50.35508
G1 X177.311 Y130.948 E50.36827
G1 X193.02 Y130.948 E50.943
G1 X193.02 Y175.945 E52.58926
G1 X106.98 Y175.945 E55.73714
G1 X106.981 Y130.949 E57.38337
G0 F6000 X106.541 Y130.509
G1 F1200 X122.689 Y130.508 E57.97416
G1 X123.037 Y130.468 E57.98698
G1 X123.367 Y130.351 E57.99979
G1 X123.778 Y130.057 E58.01827
G1 X124.089 Y129.746 E58.03436
G1 X124.307 Y129.472 E58.04718
G1 X124.457 Y129.155 E58.06001
G1 X124.54 Y128.657 E58.07848
G1 X124.54 Y128.436 E58.08656
G1 X124.969 Y128.007 E58.10876
G1 X125.187 Y127.733 E58.12157
G1 X125.337 Y127.416 E58.1344
G1 X125.396 Y127.065 E58.14742
G1 X138.897 Y127.065 E58.64137
G1 X138.92 Y127.266 E58.64877
G1 X139.037 Y127.596 E58.66158
G1 X139.331 Y128.007 E58.68007
G1 X139.76 Y128.436 E58.70227
G1 X139.76 Y129.346 E58.73556
G1 X139.8 Y129.694 E58.74838
G1 X139.917 Y130.024 E58.76119
G1 X140.211 Y130.435 E58.77968
G1 X140.522 Y130.746 E58.79577
G1 X140.796 Y130.964 E58.80858
G1 X141.113 Y131.114 E58.82141
G1 X141.611 Y131.197 E58.83988
G1 X158.389 Y131.197 E59.45372
G1 X158.737 Y131.157 E59.46654
G1 X159.067 Y131.04 E59.47935
G1 X159.478 Y130.746 E59.49783
G1 X159.789 Y130.435 E59.51393
G1 X160.007 Y130.161 E59.52674
G1 X160.157 Y129.844 E59.53957
G1 X160.24 Y129.346 E59.55804
G1 X160.24 Y128.436 E59.59133
G1 X160.669 Y128.007 E59.61353
G1 X160.887 Y127.733 E59.62634
G1 X161.037 Y127.416 E59.63917
G1 X161.096 Y127.065 E59.65219
G1 X174.597 Y127.065 E60.14614
G1 X174.62 Y127.266 E60.15354
G1 X174.737 Y127.596 E60.16635
G1 X174.833 Y127.785 E60.17411
G1 X174.873 Y128.133 E60.18692
G1 X174.99 Y128.463 E60.19973
G1 X175.284 Y128.874 E60.21822
G1 X175.547 Y129.137 E60.23183
G1 X175.617 Y129.335 E60.23951
G1 X175.911 Y129.746 E60.258
G1 X176.222 Y130.057 E60.27409
G1 X176.496 Y130.275 E60.2869
G1 X176.813 Y130.425 E60.29973
G1 X177.311 Y130.508 E60.31821
G1 X193.46 Y130.508 E60.90903
G1 X193.46 Y176.385 E62.5875
G1 X106.54 Y176.385 E65.76757
G1 X106.541 Y130.509 E67.44599
G0 F6000 X106.101 Y130.069
G1 F1200 X122.689 Y130.068 E68.05288
G1 X122.982 Y130.028 E68.0637
G1 X123.254 Y129.912 E68.07452
G1 X123.467 Y129.746 E68.0844
G1 X123.778 Y129.435 E68.10049
G1 X123.957 Y129.199 E68.11133
G1 X124.067 Y128.924 E68.12217
G1 X124.1 Y128.657 E68.13201
G1 X124.1 Y128.254 E68.14675
G1 X124.658 Y127.696 E68.17562
G1 X124.837 Y127.46 E68.18646
G1 X124.947 Y127.185 E68.1973
G1 X124.98 Y126.918 E68.20714
G1 X124.98 Y126.625 E68.21786
G1 X139.32 Y126.625 E68.7425
G1 X139.32 Y126.918 E68.75322
G1 X139.36 Y127.211 E68.76404
G1 X139.476 Y127.483 E68.77486
G1 X139.642 Y127.696 E68.78474
G1 X140.2 Y128.254 E68.81361
G1 X140.2 Y129.346 E68.85357
G1 X140.24 Y129.639 E68.86438
G1 X140.356 Y129.911 E68.8752
G1 X140.522 Y130.124 E68.88508
G1 X140.833 Y130.435 E68.90117
G1 X141.069 Y130.614 E68.91201
G1 X141.344 Y130.724 E68.92285
G1 X141.611 Y130.757 E68.93269
G1 X158.389 Y130.757 E69.54653
G1 X158.682 Y130.717 E69.55735
G1 X158.954 Y130.601 E69.56817
G1 X159.167 Y130.435 E69.57805
G1 X159.478 Y130.124 E69.59414
G1 X159.657 Y129.888 E69.60498
G1 X159.767 Y129.613 E69.61582
G1 X159.8 Y129.346 E69.62566
G1 X159.8 Y128.254 E69.66561
G1 X160.358 Y127.696 E69.69448
G1 X160.537 Y127.46 E69.70532
G1 X160.647 Y127.185 E69.71615
G1 X160.68 Y126.918 E69.726
G1 X160.68 Y126.625 E69.73672
G1 X175.02 Y126.625 E70.26136
G1 X175.02 Y126.918 E70.27208
G1 X175.06 Y127.211 E70.2829
G1 X175.176 Y127.483 E70.29372
G1 X175.273 Y127.607 E70.29948
G1 X175.273 Y127.785 E70.30599
G1 X175.313 Y128.078 E70.31681
G1 X175.429 Y128.35 E70.32763
G1 X175.595 Y128.563 E70.33751
G1 X175.906 Y128.874 E70.3536
G1 X175.94 Y128.95 E70.35665
G1 X176.056 Y129.222 E70.36747
G1 X176.222 Y129.435 E70.37735
G1 X176.533 Y129.746 E70.39344
G1 X176.769 Y129.925 E70.40427
G1 X177.044 Y130.035 E70.41511
G1 X177.311 Y130.068 E70.42495
G1 X193.9 Y130.068 E71.03188
G1 X193.9 Y176.825 E72.74254
G1 X106.1 Y176.825 E75.9548
G1 X106.101 Y130.069 E77.66543
G0 F6000 X105.661 Y129.629
G1 F1200 X122.689 Y129.628 E78.28841
G1 X122.914 Y129.588 E78.29678
G1 X123.156 Y129.435 E78.30725
G1 X123.467 Y129.124 E78.32334
G1 X123.598 Y128.936 E78.33172
G1 X123.66 Y128.657 E78.34218
G1 X123.66 Y128.056 E78.36417
G1 X123.703 Y128.029 E78.36603
G1 X124.347 Y127.385 E78.39935
G1 X124.478 Y127.197 E78.40773
G1 X124.54 Y126.918 E78.41819
G1 X124.54 Y126.185 E78.44501
