;FLAVOR:Marlin
;TIME:29567
;Filament used: 18.1009m
;Layer height: 0.16
;MINX:84.112
;MINY:65.109
;MINZ:0.28
;MAXX:217.05
;MAXY:151.918
;MAXZ:59.28
;Generated with Cura_SteamEngine 4.13.1
M140 S90
M105
M190 S90
M104 S220
M105
M109 S220
M82 ;absolute extrusion mode
G28 ; home all axes
 M117 Purge extruder
 G92 E0 ; reset extruder
 G1 Z1.0 F3000 ; move z up little to prevent scratching of surface
 G1 X2 Y20 Z0.3 F5000.0 ; move to start-line position
 G1 X2 Y200.0 Z0.3 F1500.0 E15 ; draw 1st line
 G1 X2 Y200.0 Z0.4 F5000.0 ; move to side a little
 G1 X2 Y20 Z0.4 F1500.0 E30 ; draw 2nd line
 G92 E0 ; reset extruder
 G1 Z1.0 F3000 ; move z up little to prevent scratching of surface
G92 E0
G92 E0
G1 F1500 E-5
;LAYER_COUNT:333
;LAYER:0
M107
G1 F300 Z0.48
G0 F6000 X200.786 Y71.779 Z0.48
;TYPE:SKIRT
G1 F300 Z0.28
G1 F1500 E0
G1 F1200 X200.838 Y71.69 E0.0076
G1 X201.082 Y71.328 E0.0398
G1 X201.339 Y70.999 E0.07059
G1 X201.613 Y70.695 E0.10078
G1 X201.925 Y70.393 E0.13281
G1 X202.245 Y70.125 E0.16359
G1 X202.583 Y69.879 E0.19443
G1 X202.946 Y69.654 E0.22593
G1 X203.314 Y69.457 E0.25672
G1 X203.707 Y69.282 E0.28845
G1 X204.091 Y69.142 E0.31859
G1 X204.504 Y69.024 E0.35027
G1 X204.908 Y68.938 E0.38074
G1 X205.333 Y68.879 E0.41239
G1 X205.752 Y68.849 E0.44337
G1 X206.172 Y68.849 E0.47435
G1 X206.59 Y68.879 E0.50526
G1 X207.012 Y68.937 E0.53668
G1 X207.412 Y69.023 E0.56685
G1 X207.835 Y69.144 E0.59931
G1 X208.226 Y69.286 E0.62999
G1 X208.61 Y69.457 E0.66099
G1 X208.978 Y69.654 E0.69178
G1 X209.341 Y69.879 E0.72328
G1 X209.679 Y70.125 E0.75411
G1 X209.998 Y70.393 E0.78484
G1 X210.313 Y70.697 E0.81713
G1 X210.58 Y70.994 E0.84659
G1 X210.85 Y71.339 E0.8789
G1 X211.075 Y71.673 E0.9086
G1 X211.295 Y72.052 E0.94093
G1 X211.481 Y72.434 E0.97227
G1 X211.637 Y72.823 E1.00318
G1 X211.762 Y73.204 E1.03275
G1 X211.868 Y73.634 E1.06542
G1 X211.941 Y74.041 E1.09592
G1 X211.984 Y74.453 E1.12647
G1 X211.999 Y74.882 E1.15813
G1 X211.984 Y75.315 E1.19009
G1 X211.941 Y75.724 E1.22042
G1 X211.891 Y76.003 E1.24133
G1 X211.86 Y75.565 E1.27371
G1 X211.741 Y75.015 E1.31522
G1 X211.545 Y74.488 E1.35669
G1 X211.277 Y73.994 E1.39814
G1 X210.941 Y73.542 E1.43968
G1 X210.74 Y73.326 E1.46145
G1 X210.353 Y72.939 E1.50181
G1 X209.928 Y72.57 E1.54333
G1 X209.455 Y72.266 E1.5848
G1 X208.944 Y72.031 E1.62628
G1 X208.405 Y71.872 E1.66773
G1 X207.848 Y71.79 E1.70926
G1 X207.553 Y71.779 E1.73103
G1 X200.786 Y71.779 E2.23015
G0 F6000 X200.396 Y71.399
G1 F1200 X200.653 Y71.019 E2.26399
G1 X200.936 Y70.656 E2.29794
G1 X201.226 Y70.334 E2.3299
G1 X201.57 Y70.002 E2.36516
G1 X201.921 Y69.708 E2.39893
G1 X202.292 Y69.438 E2.43278
G1 X202.678 Y69.198 E2.4663
G1 X203.082 Y68.982 E2.50009
G1 X203.505 Y68.794 E2.53423
G1 X203.936 Y68.637 E2.56807
G1 X204.376 Y68.511 E2.60182
G1 X204.809 Y68.418 E2.63449
G1 X205.282 Y68.353 E2.6697
G1 X205.728 Y68.321 E2.70268
G1 X206.195 Y68.321 E2.73713
G1 X206.642 Y68.353 E2.77018
G1 X207.111 Y68.418 E2.80511
G1 X207.54 Y68.51 E2.83747
G1 X207.991 Y68.639 E2.87207
G1 X208.428 Y68.798 E2.90637
G1 X208.842 Y68.982 E2.93978
G1 X209.246 Y69.198 E2.97357
G1 X209.632 Y69.438 E3.0071
G1 X210.003 Y69.708 E3.04094
G1 X210.353 Y70.002 E3.07465
G1 X210.694 Y70.33 E3.10955
G1 X210.982 Y70.651 E3.14136
G1 X211.279 Y71.031 E3.17693
G1 X211.524 Y71.395 E3.2093
G1 X211.761 Y71.803 E3.2441
G1 X211.966 Y72.224 E3.27864
G1 X212.132 Y72.637 E3.31147
G1 X212.271 Y73.061 E3.34438
G1 X212.382 Y73.51 E3.37849
G1 X212.467 Y73.989 E3.41437
G1 X212.511 Y74.408 E3.44545
G1 X212.528 Y74.883 E3.4805
G1 X212.511 Y75.345 E3.5146
G1 X212.466 Y75.784 E3.54715
G1 X212.381 Y76.259 E3.58274
G1 X212.277 Y76.682 E3.61487
G1 X212.132 Y77.127 E3.64939
G1 X211.958 Y77.556 E3.68354
G1 X211.762 Y77.961 E3.71673
G1 X211.527 Y78.366 E3.75126
G1 X211.274 Y78.742 E3.78469
G1 X211.092 Y78.975 E3.8065
G1 X211.092 Y78.433 E3.84647
G1 X211.255 Y77.97 E3.88268
G1 X211.352 Y77.455 E3.92133
G1 X211.372 Y77.082 E3.94888
G1 X211.372 Y76.126 E4.01939
G1 X211.332 Y75.604 E4.05801
G1 X211.213 Y75.094 E4.09663
G1 X211.018 Y74.608 E4.13526
G1 X210.751 Y74.158 E4.17385
G1 X210.367 Y73.699 E4.21799
G1 X209.98 Y73.312 E4.25836
G1 X209.582 Y72.971 E4.29702
G1 X209.138 Y72.695 E4.33558
G1 X208.656 Y72.489 E4.37424
G1 X208.149 Y72.359 E4.41284
G1 X207.553 Y72.307 E4.45697
G1 X199.924 Y72.307 E5.01967
G1 X199.963 Y72.211 E5.02731
G1 X200.162 Y71.804 E5.06073
G1 X200.396 Y71.399 E5.09522
G0 F6000 X199.949 Y71.118
G1 F1200 X200.221 Y70.715 E5.13109
G1 X200.533 Y70.315 E5.1685
G1 X200.854 Y69.958 E5.20391
G1 X201.214 Y69.612 E5.24074
G1 X201.591 Y69.295 E5.27707
G1 X201.992 Y69.003 E5.31366
G1 X202.429 Y68.732 E5.35159
G1 X202.849 Y68.507 E5.38673
G1 X203.303 Y68.306 E5.42335
G1 X203.763 Y68.138 E5.45947
G1 X204.252 Y67.998 E5.49699
G1 X204.724 Y67.897 E5.53259
G1 X205.216 Y67.829 E5.56922
G1 X205.719 Y67.793 E5.60642
G1 X206.205 Y67.793 E5.64226
G1 X206.707 Y67.829 E5.67939
G1 X207.199 Y67.897 E5.71602
G1 X207.661 Y67.996 E5.75087
G1 X208.163 Y68.14 E5.78939
G1 X208.629 Y68.309 E5.82595
G1 X209.075 Y68.507 E5.86194
G1 X209.495 Y68.732 E5.89709
G1 X209.932 Y69.003 E5.93501
G1 X210.333 Y69.295 E5.9716
G1 X210.71 Y69.611 E6.00788
G1 X211.066 Y69.956 E6.04445
G1 X211.39 Y70.316 E6.08017
G1 X211.708 Y70.722 E6.11821
G1 X211.974 Y71.117 E6.15333
G1 X212.23 Y71.559 E6.19101
G1 X212.44 Y71.99 E6.22637
G1 X212.629 Y72.46 E6.26373
G1 X212.778 Y72.913 E6.29891
G1 X212.9 Y73.408 E6.33651
G1 X212.989 Y73.904 E6.37368
G1 X213.038 Y74.378 E6.40882
G1 X213.056 Y74.883 E6.4461
G1 X213.038 Y75.388 E6.48337
G1 X212.99 Y75.856 E6.51807
G1 X212.898 Y76.372 E6.55673
G1 X212.785 Y76.826 E6.59123
G1 X212.629 Y77.306 E6.62846
G1 X212.442 Y77.767 E6.66515
G1 X212.224 Y78.215 E6.7019
G1 X211.972 Y78.65 E6.73898
G1 X211.703 Y79.05 E6.77453
G1 X211.392 Y79.448 E6.81179
G1 X211.07 Y79.805 E6.84725
G1 X210.706 Y80.157 E6.8846
G1 X210.564 Y80.277 E6.89831
G1 X210.564 Y78.302 E7.04398
G1 X210.67 Y78.072 E7.06266
G1 X210.796 Y77.607 E7.09819
G1 X210.844 Y77.082 E7.13708
G1 X210.844 Y76.126 E7.20759
G1 X210.804 Y75.646 E7.24312
G1 X210.685 Y75.179 E7.27866
G1 X210.491 Y74.739 E7.31413
G1 X210.227 Y74.336 E7.34967
G1 X209.993 Y74.073 E7.37563
G1 X209.606 Y73.686 E7.416
G1 X209.239 Y73.374 E7.45153
G1 X208.825 Y73.128 E7.48705
G1 X208.376 Y72.954 E7.52256
G1 X207.904 Y72.856 E7.55812
G1 X207.553 Y72.835 E7.58406
G1 X199.172 Y72.835 E8.20222
G1 X199.3 Y72.442 E8.2327
G1 X199.48 Y71.997 E8.26811
G1 X199.691 Y71.564 E8.30364
G1 X199.949 Y71.118 E8.34164
G0 F6000 X199.503 Y70.835
G1 F1200 X199.792 Y70.407 E8.37973
G1 X200.125 Y69.98 E8.41967
G1 X200.482 Y69.583 E8.45905
G1 X200.851 Y69.228 E8.49682
G1 X201.276 Y68.871 E8.53776
G1 X201.701 Y68.562 E8.57651
G1 X202.143 Y68.287 E8.61491
G1 X202.622 Y68.031 E8.65497
G1 X203.114 Y67.813 E8.69466
G1 X203.604 Y67.634 E8.73314
G1 X204.114 Y67.488 E8.77226
G1 X204.637 Y67.376 E8.81171
G1 X205.166 Y67.303 E8.8511
G1 X205.696 Y67.265 E8.89029
G1 X206.228 Y67.265 E8.92953
G1 X206.757 Y67.303 E8.96865
G1 X207.286 Y67.376 E9.00804
G1 X207.803 Y67.487 E9.04704
G1 X208.332 Y67.638 E9.08762
G1 X208.806 Y67.811 E9.12483
G1 X209.302 Y68.031 E9.16485
G1 X209.781 Y68.287 E9.20491
G1 X210.223 Y68.562 E9.24331
G1 X210.648 Y68.871 E9.28207
G1 X211.065 Y69.221 E9.32222
G1 X211.453 Y69.596 E9.36202
G1 X211.792 Y69.972 E9.39936
G1 X212.13 Y70.405 E9.43988
G1 X212.426 Y70.844 E9.47893
G1 X212.693 Y71.305 E9.51822
G1 X212.927 Y71.787 E9.55774
G1 X213.125 Y72.279 E9.59686
G1 X213.287 Y72.773 E9.6352
G1 X213.417 Y73.299 E9.67517
G1 X213.512 Y73.833 E9.71517
G1 X213.565 Y74.333 E9.75226
G1 X213.584 Y74.883 E9.79285
G1 X213.565 Y75.432 E9.83337
G1 X213.512 Y75.933 E9.87052
G1 X213.416 Y76.47 E9.91076
G1 X213.288 Y76.99 E9.95026
G1 X213.13 Y77.477 E9.98802
G1 X212.923 Y77.985 E10.02848
G1 X212.691 Y78.464 E10.06774
G1 X212.426 Y78.92 E10.10664
G1 X212.122 Y79.372 E10.14682
G1 X211.805 Y79.777 E10.18475
G1 X211.449 Y80.172 E10.22397
G1 X211.055 Y80.553 E10.2644
G1 X210.666 Y80.881 E10.30193
G1 X210.216 Y81.207 E10.34291
G1 X210.036 Y81.32 E10.35859
G1 X210.036 Y78.186 E10.58974
G1 X210.086 Y78.102 E10.59695
G1 X210.236 Y77.693 E10.62909
G1 X210.316 Y77.082 E10.67454
G1 X210.316 Y76.126 E10.74505
G1 X210.276 Y75.692 E10.7772
G1 X210.158 Y75.273 E10.8093
G1 X209.965 Y74.883 E10.8414
G1 X209.62 Y74.446 E10.88246
G1 X209.233 Y74.059 E10.92283
G1 X208.898 Y73.78 E10.95499
G1 X208.518 Y73.568 E10.98708
G1 X208.106 Y73.428 E11.01918
G1 X207.553 Y73.363 E11.06025
G1 X198.494 Y73.363 E11.72842
G1 X198.505 Y73.297 E11.73335
G1 X198.632 Y72.79 E11.7719
G1 X198.803 Y72.265 E11.81263
G1 X198.998 Y71.78 E11.85118
G1 X199.224 Y71.318 E11.88912
G1 X199.503 Y70.835 E11.93026
G0 F6000 X199.049 Y70.564
G1 F1200 X199.372 Y70.086 E11.97281
G1 X199.716 Y69.645 E12.01406
G1 X200.096 Y69.223 E12.05595
G1 X200.51 Y68.824 E12.09836
G1 X200.944 Y68.459 E12.14018
G1 X201.401 Y68.127 E12.18185
G1 X201.887 Y67.825 E12.22405
G1 X202.389 Y67.556 E12.26606
G1 X202.912 Y67.324 E12.30826
G1 X203.448 Y67.129 E12.35033
G1 X203.986 Y66.975 E12.3916
G1 X204.539 Y66.857 E12.43331
G1 X205.114 Y66.777 E12.47613
G1 X205.673 Y66.737 E12.51746
G1 X206.251 Y66.737 E12.56009
G1 X206.809 Y66.777 E12.60136
G1 X207.384 Y66.857 E12.64418
G1 X207.913 Y66.97 E12.68407
G1 X208.499 Y67.138 E12.72904
G1 X209.012 Y67.324 E12.76928
G1 X209.535 Y67.556 E12.81149
G1 X210.037 Y67.825 E12.85349
G1 X210.523 Y68.127 E12.8957
G1 X210.98 Y68.459 E12.93736
G1 X211.414 Y68.823 E12.97914
G1 X211.826 Y69.221 E13.02139
G1 X212.2 Y69.637 E13.06265
G1 X212.558 Y70.096 E13.10558
G1 X212.875 Y70.566 E13.1474
G1 X213.159 Y71.055 E13.18911
G1 X213.412 Y71.576 E13.23183
G1 X213.622 Y72.097 E13.27326
G1 X213.795 Y72.625 E13.31424
G1 X213.934 Y73.189 E13.35708
G1 X214.035 Y73.753 E13.39934
G1 X214.092 Y74.305 E13.44028
G1 X214.113 Y74.882 E13.48286
G1 X214.092 Y75.46 E13.52552
G1 X214.035 Y76.012 E13.56645
G1 X213.933 Y76.583 E13.60924
G1 X213.799 Y77.127 E13.65056
G1 X213.623 Y77.667 E13.69245
G1 X213.408 Y78.196 E13.73457
G1 X213.16 Y78.707 E13.77646
G1 X212.872 Y79.204 E13.81883
G1 X212.551 Y79.681 E13.86124
G1 X212.207 Y80.12 E13.90237
G1 X211.835 Y80.533 E13.94337
G1 X211.411 Y80.943 E13.98687
G1 X210.979 Y81.307 E14.02854
G1 X210.514 Y81.644 E14.0709
G1 X210.043 Y81.938 E14.11185
G1 X209.508 Y82.221 E14.15649
G1 X209.508 Y78.059 E14.46347
G1 X209.679 Y77.708 E14.49227
G1 X209.771 Y77.335 E14.5206
G1 X209.788 Y77.082 E14.53931
G1 X209.788 Y76.126 E14.60982
G1 X209.748 Y75.744 E14.63815
G1 X209.63 Y75.379 E14.66644
G1 X209.439 Y75.046 E14.69476
G1 X209.247 Y74.819 E14.71668
G1 X208.86 Y74.432 E14.75705
G1 X208.561 Y74.19 E14.78542
G1 X208.22 Y74.015 E14.81369
G1 X207.849 Y73.915 E14.84203
G1 X207.553 Y73.891 E14.86394
G1 X197.875 Y73.891 E15.57777
G1 X197.889 Y73.754 E15.58792
G1 X197.988 Y73.193 E15.62994
G1 X198.126 Y72.641 E15.67191
G1 X198.308 Y72.08 E15.71541
G1 X198.518 Y71.558 E15.75691
G1 X198.757 Y71.069 E15.79705
G1 X199.049 Y70.564 E15.84008
G0 F6000 X198.601 Y70.284
G1 F1200 X198.94 Y69.782 E15.88476
G1 X199.32 Y69.296 E15.93026
G1 X199.716 Y68.855 E15.97398
G1 X200.147 Y68.44 E16.01811
G1 X200.622 Y68.041 E16.06386
G1 X201.111 Y67.685 E16.10848
G1 X201.626 Y67.365 E16.1532
G1 X202.15 Y67.085 E16.19702
G1 X202.718 Y66.833 E16.24285
G1 X203.276 Y66.63 E16.28665
G1 X203.865 Y66.461 E16.33184
G1 X204.451 Y66.336 E16.37604
G1 X205.049 Y66.253 E16.42057
G1 X205.664 Y66.209 E16.46604
G1 X206.26 Y66.209 E16.51
G1 X206.874 Y66.253 E16.55541
G1 X207.469 Y66.335 E16.59971
G1 X208.051 Y66.46 E16.64361
G1 X208.659 Y66.634 E16.69026
G1 X209.207 Y66.833 E16.73326
G1 X209.774 Y67.085 E16.77902
G1 X210.298 Y67.365 E16.82285
G1 X210.813 Y67.685 E16.86757
G1 X211.302 Y68.041 E16.91218
G1 X211.777 Y68.439 E16.95789
G1 X212.206 Y68.854 E17.00191
G1 X212.601 Y69.294 E17.04552
G1 X212.987 Y69.788 E17.09176
G1 X213.321 Y70.282 E17.13575
G1 X213.624 Y70.807 E17.18046
G1 X213.897 Y71.366 E17.22634
G1 X214.118 Y71.915 E17.26999
G1 X214.299 Y72.469 E17.31298
G1 X214.454 Y73.094 E17.36047
G1 X214.557 Y73.674 E17.40392
G1 X214.62 Y74.274 E17.44842
G1 X214.641 Y74.883 E17.49337
G1 X214.62 Y75.491 E17.53824
G1 X214.557 Y76.092 E17.58281
G1 X214.45 Y76.693 E17.62783
G1 X214.307 Y77.27 E17.67168
G1 X214.12 Y77.846 E17.71635
G1 X213.889 Y78.415 E17.76164
G1 X213.626 Y78.956 E17.80601
G1 X213.322 Y79.482 E17.85082
G1 X212.981 Y79.987 E17.89576
G1 X212.608 Y80.465 E17.94048
G1 X212.207 Y80.909 E17.98461
G1 X211.775 Y81.327 E18.02895
G1 X211.302 Y81.725 E18.07454
G1 X210.819 Y82.076 E18.11858
G1 X210.307 Y82.395 E18.16308
G1 X209.754 Y82.689 E18.20927
G1 X209.212 Y82.931 E18.25305
G1 X208.98 Y83.015 E18.27125
G1 X208.98 Y77.888 E18.64941
G1 X209.135 Y77.643 E18.67079
G1 X209.236 Y77.335 E18.6947
G1 X209.26 Y77.082 E18.71344
G1 X209.26 Y76.126 E18.78395
G1 X209.22 Y75.804 E18.80789
G1 X209.103 Y75.502 E18.83177
G1 X208.873 Y75.193 E18.86019
G1 X208.486 Y74.806 E18.90055
G1 X208.231 Y74.606 E18.92446
G1 X207.934 Y74.475 E18.9484
G1 X207.553 Y74.419 E18.9768
G1 X197.299 Y74.419 E19.73311
G1 X197.304 Y74.274 E19.74381
G1 X197.366 Y73.678 E19.78801
G1 X197.47 Y73.088 E19.8322
G1 X197.621 Y72.481 E19.87833
G1 X197.808 Y71.908 E19.92279
G1 X198.033 Y71.348 E19.9673
G1 X198.291 Y70.82 E20.01065
G1 X198.601 Y70.284 E20.05632
G0 F6000 X198.156 Y70
G1 F1200 X198.512 Y69.473 E20.10323
G1 X198.911 Y68.961 E20.1511
G1 X199.338 Y68.487 E20.19816
G1 X199.798 Y68.043 E20.24531
G1 X200.299 Y67.623 E20.29353
G1 X200.81 Y67.251 E20.34015
G1 X201.359 Y66.91 E20.38782
G1 X201.929 Y66.605 E20.4355
G1 X202.516 Y66.345 E20.48286
G1 X203.12 Y66.124 E20.5303
G1 X203.723 Y65.952 E20.57655
G1 X204.366 Y65.814 E20.62505
G1 X204.997 Y65.727 E20.67203
G1 X205.641 Y65.681 E20.71965
G1 X206.283 Y65.681 E20.76701
G1 X206.926 Y65.727 E20.81455
G1 X207.557 Y65.814 E20.86153
G1 X208.19 Y65.95 E20.90929
G1 X208.814 Y66.128 E20.95715
G1 X209.408 Y66.345 E21.00379
G1 X209.995 Y66.605 E21.05115
G1 X210.565 Y66.91 E21.09883
G1 X211.114 Y67.251 E21.1465
G1 X211.625 Y67.623 E21.19312
G1 X212.125 Y68.043 E21.24128
G1 X212.585 Y68.487 E21.28843
G1 X213.009 Y68.959 E21.33523
G1 X213.416 Y69.479 E21.38394
G1 X213.77 Y70.005 E21.4307
G1 X214.09 Y70.557 E21.47776
G1 X214.374 Y71.139 E21.52553
G1 X214.614 Y71.734 E21.57285
G1 X214.812 Y72.34 E21.61987
G1 X214.966 Y72.966 E21.66742
G1 X215.081 Y73.608 E21.71553
G1 X215.146 Y74.23 E21.76165
G1 X215.169 Y74.883 E21.80985
G1 X215.146 Y75.535 E21.85797
G1 X215.081 Y76.158 E21.90417
G1 X214.965 Y76.807 E21.9528
G1 X214.814 Y77.419 E21.99929
G1 X214.617 Y78.024 E22.04622
G1 X214.368 Y78.638 E22.09509
G1 X214.095 Y79.199 E22.1411
G1 X213.767 Y79.766 E22.18942
G1 X213.414 Y80.291 E22.23608
G1 X213.015 Y80.801 E22.28384
G1 X212.587 Y81.276 E22.331
G1 X212.116 Y81.731 E22.3793
G1 X211.64 Y82.132 E22.42521
G1 X211.113 Y82.514 E22.47322
G1 X210.559 Y82.86 E22.52139
G1 X209.999 Y83.158 E22.56818
G1 X209.399 Y83.426 E22.61665
G1 X208.823 Y83.635 E22.66185
G1 X208.452 Y83.741 E22.6903
G1 X208.452 Y77.685 E23.13698
G1 X208.457 Y77.682 E23.13741
G1 X208.619 Y77.49 E23.15594
G1 X208.712 Y77.258 E23.17438
G1 X208.732 Y77.082 E23.18744
G1 X208.732 Y76.126 E23.25795
G1 X208.692 Y75.878 E23.27648
G1 X208.5 Y75.566 E23.3035
G1 X208.113 Y75.179 E23.34387
G1 X207.91 Y75.032 E23.36236
G1 X207.553 Y74.947 E23.38942
G1 X196.756 Y74.947 E24.18579
G1 X196.754 Y74.883 E24.19051
G1 X196.777 Y74.246 E24.23752
G1 X196.844 Y73.6 E24.28543
G1 X196.955 Y72.969 E24.33268
G1 X197.11 Y72.348 E24.37989
G1 X197.31 Y71.731 E24.42773
G1 X197.55 Y71.137 E24.47498
G1 X197.829 Y70.566 E24.52186
G1 X198.156 Y70 E24.57007
G0 F6000 X197.711 Y69.715
G1 F1200 X198.091 Y69.153 E24.62011
G1 X198.5 Y68.628 E24.66919
G1 X198.961 Y68.116 E24.72001
G1 X199.443 Y67.651 E24.76941
G1 X199.975 Y67.205 E24.82061
G1 X200.519 Y66.809 E24.87024
G1 X201.091 Y66.454 E24.9199
G1 X201.696 Y66.131 E24.97048
G1 X202.314 Y65.856 E25.02037
G1 X202.948 Y65.625 E25.07014
G1 X203.613 Y65.435 E25.12115
G1 X204.267 Y65.295 E25.17048
G1 X204.945 Y65.201 E25.22097
G1 X205.618 Y65.153 E25.27074
G1 X206.306 Y65.153 E25.32148
G1 X206.978 Y65.201 E25.37117
G1 X207.656 Y65.295 E25.42166
