;FLAVOR:Marlin
;TIME:16851
;Filament used: 11.8369m
;Layer height: 0.16
;MINX:155.485
;MINY:57.901
;MINZ:0.28
;MAXX:254.716
;MAXY:192.326
;MAXZ:20.08
;Generated with Cura_SteamEngine 4.12.1
M140 S90
M105
M190 S90
M104 S220
M105
M109 S220
M82 ;absolute extrusion mode
G28 ; home all axes
 M117 Purge extruder
 G92 E0 ; reset extruder
 G1 Z1.0 F3000 ; move z up little to prevent scratching of surface
 G1 X2 Y20 Z0.3 F5000.0 ; move to start-line position
 G1 X2 Y200.0 Z0.3 F1500.0 E15 ; draw 1st line
 G1 X2 Y200.0 Z0.4 F5000.0 ; move to side a little
 G1 X2 Y20 Z0.4 F1500.0 E30 ; draw 2nd line
 G92 E0 ; reset extruder
 G1 Z1.0 F3000 ; move z up little to prevent scratching of surface
G92 E0
G92 E0
G1 F1500 E-5
;LAYER_COUNT:103
;LAYER:0
M107
G1 F300 Z0.48
G0 F6000 X160.251 Y65.223 Z0.48
;TYPE:SKIRT
G1 F300 Z0.28
G1 F1500 E0
G1 F1200 X160.434 Y64.847 E0.03084
G1 X160.653 Y64.469 E0.06306
G1 X160.885 Y64.124 E0.09373
G1 X161.142 Y63.796 E0.12446
G1 X161.419 Y63.489 E0.15496
G1 X161.734 Y63.184 E0.1873
G1 X162.045 Y62.922 E0.2173
G1 X162.397 Y62.667 E0.24936
G1 X162.76 Y62.44 E0.28093
G1 X163.115 Y62.252 E0.31056
G1 X163.504 Y62.078 E0.34199
G1 X163.894 Y61.936 E0.37261
G1 X164.31 Y61.817 E0.40452
G1 X164.718 Y61.73 E0.43529
G1 X165.148 Y61.67 E0.46731
G1 X165.558 Y61.641 E0.49763
G1 X165.978 Y61.641 E0.52861
G1 X166.389 Y61.67 E0.559
G1 X166.823 Y61.731 E0.59132
G1 X167.239 Y61.819 E0.62269
G1 X167.619 Y61.928 E0.65184
G1 X168.034 Y62.079 E0.68442
G1 X168.409 Y62.246 E0.71469
G1 X168.789 Y62.449 E0.74647
G1 X169.143 Y62.67 E0.77725
G1 X169.489 Y62.921 E0.80878
G1 X169.806 Y63.187 E0.8393
G1 X170.118 Y63.489 E0.87133
G1 X170.325 Y63.718 E0.8941
G1 X165.302 Y63.718 E1.26458
G1 X164.741 Y63.758 E1.30606
G1 X164.191 Y63.877 E1.34757
G1 X163.664 Y64.073 E1.38904
G1 X163.17 Y64.341 E1.43049
G1 X162.718 Y64.677 E1.47204
G1 X162.502 Y64.878 E1.4938
G1 X162.373 Y65.007 E1.50725
G1 X162.004 Y65.432 E1.54877
G1 X161.7 Y65.905 E1.59024
G1 X161.465 Y66.416 E1.63172
G1 X161.306 Y66.955 E1.67317
G1 X161.224 Y67.512 E1.7147
G1 X161.213 Y67.807 E1.73647
G1 X161.213 Y71.633 E2.01867
G1 X161.143 Y71.555 E2.0264
G1 X160.883 Y71.223 E2.0575
G1 X160.653 Y70.88 E2.08796
G1 X160.434 Y70.503 E2.12012
G1 X160.249 Y70.122 E2.15136
G1 X160.095 Y69.743 E2.18153
G1 X159.966 Y69.344 E2.21246
G1 X159.864 Y68.935 E2.24355
G1 X159.788 Y68.504 E2.27583
G1 X159.748 Y68.118 E2.30446
G1 X159.732 Y67.666 E2.33782
G1 X159.748 Y67.231 E2.36992
G1 X159.79 Y66.827 E2.39988
G1 X159.863 Y66.419 E2.43045
G1 X159.966 Y66.006 E2.46185
G1 X160.095 Y65.606 E2.49285
G1 X160.251 Y65.223 E2.52335
G0 F6000 X159.768 Y65.01
G1 F1200 X159.968 Y64.597 E2.55719
G1 X160.203 Y64.192 E2.59173
G1 X160.456 Y63.816 E2.62516
G1 X160.74 Y63.453 E2.65915
G1 X161.04 Y63.121 E2.69216
G1 X161.378 Y62.794 E2.72684
G1 X161.731 Y62.497 E2.76087
G1 X162.087 Y62.238 E2.79334
G1 X162.497 Y61.982 E2.82899
G1 X162.881 Y61.778 E2.86106
G1 X163.321 Y61.582 E2.89659
G1 X163.726 Y61.435 E2.92837
G1 X164.182 Y61.304 E2.96336
G1 X164.619 Y61.211 E2.99632
G1 X165.096 Y61.144 E3.03185
G1 X165.535 Y61.113 E3.06431
G1 X166.002 Y61.113 E3.09875
G1 X166.44 Y61.144 E3.13114
G1 X166.907 Y61.209 E3.16591
G1 X167.367 Y61.307 E3.2006
G1 X167.801 Y61.432 E3.23392
G1 X168.217 Y61.583 E3.26656
G1 X168.654 Y61.778 E3.30185
G1 X169.047 Y61.987 E3.33468
G1 X169.441 Y62.233 E3.36894
G1 X169.811 Y62.502 E3.40269
G1 X170.161 Y62.795 E3.43635
G1 X170.497 Y63.121 E3.47088
G1 X170.797 Y63.453 E3.50389
G1 X171.081 Y63.816 E3.53788
G1 X171.33 Y64.187 E3.57084
G1 X171.365 Y64.246 E3.5759
G1 X165.302 Y64.246 E4.02309
G1 X164.78 Y64.286 E4.0617
G1 X164.27 Y64.405 E4.10033
G1 X163.784 Y64.6 E4.13895
G1 X163.334 Y64.867 E4.17755
G1 X162.875 Y65.251 E4.22169
G1 X162.746 Y65.38 E4.23514
G1 X162.405 Y65.778 E4.2738
G1 X162.129 Y66.222 E4.31236
G1 X161.923 Y66.704 E4.35102
G1 X161.793 Y67.211 E4.38963
G1 X161.741 Y67.807 E4.43375
G1 X161.741 Y72.859 E4.80638
G1 X161.367 Y72.548 E4.84225
G1 X161.047 Y72.239 E4.87506
G1 X160.741 Y71.898 E4.90886
G1 X160.454 Y71.531 E4.94322
G1 X160.203 Y71.158 E4.97638
G1 X159.968 Y70.753 E5.01092
G1 X159.768 Y70.34 E5.04476
G1 X159.601 Y69.93 E5.07742
G1 X159.458 Y69.488 E5.11168
G1 X159.346 Y69.037 E5.14596
G1 X159.265 Y68.58 E5.18019
G1 X159.22 Y68.148 E5.21223
G1 X159.203 Y67.674 E5.24721
G1 X159.22 Y67.201 E5.28212
G1 X159.266 Y66.758 E5.31497
G1 X159.343 Y66.325 E5.34741
G1 X159.458 Y65.862 E5.38259
G1 X159.601 Y65.42 E5.41686
G1 X159.768 Y65.01 E5.44951
G0 F6000 X159.289 Y64.786
G1 F1200 X159.499 Y64.354 E5.48494
G1 X159.758 Y63.908 E5.52298
G1 X160.027 Y63.508 E5.55854
G1 X160.338 Y63.11 E5.59579
G1 X160.66 Y62.753 E5.63125
G1 X161.014 Y62.41 E5.66761
G1 X161.409 Y62.078 E5.70566
G1 X161.799 Y61.795 E5.74121
G1 X162.222 Y61.531 E5.77798
G1 X162.672 Y61.292 E5.81556
G1 X163.104 Y61.099 E5.85046
G1 X163.562 Y60.933 E5.88639
G1 X164.051 Y60.792 E5.92393
G1 X164.538 Y60.689 E5.96065
G1 X165.03 Y60.62 E5.99729
G1 X165.525 Y60.585 E6.03389
G1 X166.011 Y60.585 E6.06974
G1 X166.507 Y60.62 E6.10641
G1 X167.003 Y60.69 E6.14336
G1 X167.484 Y60.791 E6.17961
G1 X167.965 Y60.93 E6.21654
G1 X168.422 Y61.096 E6.2524
G1 X168.882 Y61.301 E6.28955
G1 X169.317 Y61.533 E6.32591
G1 X169.729 Y61.79 E6.36172
G1 X170.14 Y62.089 E6.39921
G1 X170.518 Y62.405 E6.43555
G1 X170.877 Y62.753 E6.47243
G1 X171.199 Y63.11 E6.50789
G1 X171.51 Y63.508 E6.54514
G1 X171.78 Y63.909 E6.5808
G1 X172.038 Y64.355 E6.6188
G1 X172.243 Y64.774 E6.65321
G1 X165.302 Y64.774 E7.16516
G1 X164.822 Y64.814 E7.20069
G1 X164.355 Y64.933 E7.23623
G1 X163.915 Y65.127 E7.2717
G1 X163.512 Y65.391 E7.30724
G1 X163.249 Y65.625 E7.3332
G1 X163.12 Y65.754 E7.34666
G1 X162.808 Y66.121 E7.38218
G1 X162.562 Y66.535 E7.4177
G1 X162.388 Y66.984 E7.45322
G1 X162.29 Y67.456 E7.48878
G1 X162.269 Y67.807 E7.51471
G1 X162.269 Y73.844 E7.95999
G1 X162.227 Y73.822 E7.96349
G1 X161.802 Y73.557 E8.00043
G1 X161.402 Y73.266 E8.03691
G1 X161.012 Y72.94 E8.0744
G1 X160.666 Y72.606 E8.10987
G1 X160.339 Y72.242 E8.14596
G1 X160.03 Y71.845 E8.18307
G1 X159.753 Y71.435 E8.21957
G1 X159.499 Y70.996 E8.25697
G1 X159.286 Y70.557 E8.29296
G1 X159.104 Y70.108 E8.3287
G1 X158.946 Y69.621 E8.36646
G1 X158.831 Y69.156 E8.40179
G1 X158.743 Y68.657 E8.43916
G1 X158.693 Y68.178 E8.47469
G1 X158.675 Y67.675 E8.51181
G1 X158.693 Y67.171 E8.54901
G1 X158.742 Y66.695 E8.5843
G1 X158.831 Y66.192 E8.62198
G1 X158.948 Y65.722 E8.6577
G1 X159.104 Y65.242 E8.69493
G1 X159.289 Y64.786 E8.73123
G0 F6000 X158.797 Y64.592
G1 F1200 X159.039 Y64.094 E8.77206
G1 X159.304 Y63.638 E8.81096
G1 X159.608 Y63.186 E8.85114
G1 X159.925 Y62.781 E8.88908
G1 X160.281 Y62.386 E8.9283
G1 X160.673 Y62.006 E8.96856
G1 X161.071 Y61.672 E9.00689
G1 X161.505 Y61.356 E9.04648
G1 X161.96 Y61.073 E9.08601
G1 X162.438 Y60.818 E9.12597
G1 X162.905 Y60.61 E9.16367
G1 X163.412 Y60.426 E9.20345
G1 X163.92 Y60.28 E9.24244
G1 X164.444 Y60.169 E9.28195
G1 X164.976 Y60.094 E9.32157
G1 X165.502 Y60.057 E9.36047
G1 X166.034 Y60.057 E9.39971
G1 X166.561 Y60.094 E9.43867
G1 X167.082 Y60.167 E9.47747
G1 X167.628 Y60.283 E9.51864
G1 X168.115 Y60.423 E9.55602
G1 X168.627 Y60.609 E9.5962
G1 X169.11 Y60.825 E9.63522
G1 X169.579 Y61.074 E9.67439
G1 X170.022 Y61.351 E9.71293
G1 X170.471 Y61.677 E9.75385
G1 X170.865 Y62.008 E9.79181
G1 X171.256 Y62.386 E9.83192
G1 X171.612 Y62.781 E9.87114
G1 X171.929 Y63.186 E9.90907
G1 X172.23 Y63.632 E9.94876
G1 X172.504 Y64.106 E9.98914
G1 X172.73 Y64.568 E10.02708
G1 X172.934 Y65.076 E10.06745
G1 X173.008 Y65.302 E10.08499
G1 X165.302 Y65.302 E10.65337
G1 X164.868 Y65.342 E10.68552
G1 X164.449 Y65.46 E10.71762
G1 X164.059 Y65.653 E10.74972
G1 X163.622 Y65.998 E10.79078
G1 X163.493 Y66.127 E10.80424
G1 X163.214 Y66.462 E10.8364
G1 X163.002 Y66.842 E10.86849
G1 X162.862 Y67.254 E10.90059
G1 X162.797 Y67.807 E10.94165
G1 X162.797 Y74.691 E11.4494
G1 X162.42 Y74.522 E11.47987
G1 X161.958 Y74.277 E11.51845
G1 X161.507 Y73.996 E11.55764
G1 X161.069 Y73.677 E11.5976
G1 X160.673 Y73.346 E11.63567
G1 X160.279 Y72.965 E11.6761
G1 X159.938 Y72.585 E11.71376
G1 X159.601 Y72.154 E11.75411
G1 X159.304 Y71.712 E11.79339
G1 X159.039 Y71.256 E11.83229
G1 X158.797 Y70.758 E11.87313
G1 X158.607 Y70.29 E11.91038
G1 X158.443 Y69.783 E11.94968
G1 X158.313 Y69.26 E11.98943
G1 X158.22 Y68.731 E12.02905
G1 X158.166 Y68.223 E12.06673
G1 X158.147 Y67.675 E12.10717
G1 X158.166 Y67.126 E12.14769
G1 X158.22 Y66.619 E12.1853
G1 X158.313 Y66.09 E12.22491
G1 X158.443 Y65.567 E12.26466
G1 X158.608 Y65.058 E12.30413
G1 X158.797 Y64.592 E12.34122
G0 F6000 X158.316 Y64.374
G1 F1200 X158.57 Y63.851 E12.3841
G1 X158.858 Y63.354 E12.42647
G1 X159.179 Y62.877 E12.46888
G1 X159.523 Y62.438 E12.51001
G1 X159.902 Y62.018 E12.55174
G1 X160.317 Y61.616 E12.59436
G1 X160.748 Y61.254 E12.63587
G1 X161.21 Y60.918 E12.67801
G1 X161.69 Y60.618 E12.71975
G1 X162.205 Y60.344 E12.76278
G1 X162.717 Y60.116 E12.80412
G1 X163.234 Y59.928 E12.8447
G1 X163.793 Y59.768 E12.88758
G1 X164.359 Y59.647 E12.93027
G1 X164.924 Y59.568 E12.97235
G1 X165.479 Y59.529 E13.01339
G1 X166.057 Y59.529 E13.05602
G1 X166.613 Y59.568 E13.09713
G1 X167.178 Y59.647 E13.13921
G1 X167.745 Y59.768 E13.18197
G1 X168.292 Y59.925 E13.22394
G1 X168.815 Y60.115 E13.26499
G1 X169.343 Y60.351 E13.30764
G1 X169.849 Y60.62 E13.34991
G1 X170.32 Y60.914 E13.39086
G1 X170.784 Y61.251 E13.43316
G1 X171.228 Y61.624 E13.47593
G1 X171.635 Y62.018 E13.51771
G1 X172.014 Y62.438 E13.55944
G1 X172.358 Y62.877 E13.60058
G1 X172.676 Y63.349 E13.64255
G1 X172.976 Y63.869 E13.68683
G1 X173.212 Y64.352 E13.72648
G1 X173.427 Y64.885 E13.76887
G1 X173.603 Y65.426 E13.81084
G1 X173.703 Y65.83 E13.84153
G1 X165.302 Y65.83 E14.46117
G1 X164.92 Y65.87 E14.4895
G1 X164.555 Y65.988 E14.51779
G1 X164.222 Y66.179 E14.54611
G1 X163.995 Y66.371 E14.56804
G1 X163.866 Y66.5 E14.58149
G1 X163.624 Y66.799 E14.60987
G1 X163.449 Y67.14 E14.63814
G1 X163.349 Y67.511 E14.66648
G1 X163.325 Y67.807 E14.68838
G1 X163.325 Y75.447 E15.25189
G1 X163.233 Y75.421 E15.25894
G1 X162.719 Y75.235 E15.29926
G1 X162.192 Y74.999 E15.34185
G1 X161.696 Y74.735 E15.38329
G1 X161.213 Y74.434 E15.42527
G1 X160.746 Y74.094 E15.46787
G1 X160.312 Y73.732 E15.50956
G1 X159.906 Y73.339 E15.55123
G1 X159.53 Y72.921 E15.5927
G1 X159.172 Y72.462 E15.63564
G1 X158.858 Y71.996 E15.67708
G1 X158.57 Y71.499 E15.71945
G1 X158.316 Y70.976 E15.76234
G1 X158.112 Y70.473 E15.80237
G1 X157.936 Y69.932 E15.84433
G1 X157.795 Y69.362 E15.88764
G1 X157.697 Y68.807 E15.92921
G1 X157.639 Y68.253 E15.97029
G1 X157.618 Y67.675 E16.01295
G1 X157.639 Y67.096 E16.05569
G1 X157.697 Y66.542 E16.09677
G1 X157.795 Y65.988 E16.13827
G1 X157.936 Y65.418 E16.18158
G1 X158.112 Y64.877 E16.22354
G1 X158.316 Y64.374 E16.26358
G0 F6000 X157.837 Y64.15
G1 F1200 X158.104 Y63.602 E16.30854
G1 X158.408 Y63.076 E16.35335
G1 X158.749 Y62.571 E16.39829
G1 X159.122 Y62.093 E16.44301
G1 X159.523 Y61.649 E16.48714
G1 X159.954 Y61.232 E16.53137
G1 X160.426 Y60.835 E16.57686
G1 X160.916 Y60.479 E16.62154
G1 X161.439 Y60.153 E16.66699
G1 X161.965 Y59.873 E16.71094
G1 X162.512 Y59.629 E16.75512
G1 X163.071 Y59.426 E16.79898
G1 X163.675 Y59.252 E16.84535
G1 X164.264 Y59.128 E16.88974
G1 X164.859 Y59.044 E16.93406
G1 X165.47 Y59.001 E16.97924
G1 X166.066 Y59.001 E17.0232
G1 X166.678 Y59.044 E17.06845
G1 X167.277 Y59.128 E17.11306
G1 X167.873 Y59.254 E17.15799
G1 X168.443 Y59.418 E17.20174
G1 X169.02 Y59.628 E17.24703
G1 X169.565 Y59.871 E17.29104
G1 X170.113 Y60.163 E17.33684
G1 X170.625 Y60.482 E17.38134
G1 X171.115 Y60.839 E17.42605
G1 X171.577 Y61.226 E17.47051
G1 X172.014 Y61.649 E17.51536
G1 X172.415 Y62.093 E17.55949
G1 X172.788 Y62.571 E17.60421
G1 X173.121 Y63.065 E17.64815
G1 X173.44 Y63.617 E17.69518
G1 X173.697 Y64.142 E17.73829
G1 X173.924 Y64.705 E17.78306
G1 X174.113 Y65.285 E17.82806
G1 X174.256 Y65.864 E17.87205
G1 X174.344 Y66.358 E17.90906
G1 X165.302 Y66.358 E18.57597
G1 X164.98 Y66.398 E18.59991
G1 X164.678 Y66.515 E18.62379
G1 X164.369 Y66.745 E18.65221
G1 X164.24 Y66.874 E18.66566
G1 X164.04 Y67.129 E18.68956
G1 X163.909 Y67.426 E18.71351
G1 X163.853 Y67.807 E18.74191
G1 X163.853 Y76.136 E19.35624
G1 X163.679 Y76.098 E19.36937
G1 X163.074 Y75.925 E19.41579
G1 X162.524 Y75.725 E19.45895
G1 X161.959 Y75.473 E19.50458
G1 X161.426 Y75.19 E19.54909
G1 X160.918 Y74.873 E19.59326
G1 X160.422 Y74.512 E19.63851
G1 X159.957 Y74.123 E19.68322
G1 X159.526 Y73.706 E19.72746
G1 X159.128 Y73.264 E19.77133
G1 X158.743 Y72.77 E19.81752
G1 X158.408 Y72.274 E19.86167
G1 X158.104 Y71.748 E19.90648
G1 X157.837 Y71.2 E19.95144
G1 X157.616 Y70.655 E19.99482
G1 X157.424 Y70.063 E20.04072
G1 X157.279 Y69.477 E20.08524
G1 X157.174 Y68.883 E20.12974
G1 X157.111 Y68.284 E20.17416
G1 X157.09 Y67.675 E20.21911
G1 X157.111 Y67.065 E20.26412
G1 X157.174 Y66.466 E20.30855
G1 X157.279 Y65.873 E20.35297
G1 X157.424 Y65.287 E20.39749
G1 X157.616 Y64.695 E20.4434
G1 X157.837 Y64.15 E20.48677
G0 F6000 X157.356 Y63.932
G1 F1200 X157.635 Y63.359 E20.53378
G1 X157.963 Y62.792 E20.58209
G1 X158.32 Y62.262 E20.62923
G1 X158.715 Y61.757 E20.67652
G1 X159.143 Y61.282 E20.72367
G1 X159.613 Y60.828 E20.77187
G1 X160.088 Y60.429 E20.81763
G1 X160.629 Y60.036 E20.86695
G1 X161.169 Y59.699 E20.9139
G1 X161.732 Y59.399 E20.96095
G1 X162.313 Y59.14 E21.00787
G1 X162.92 Y58.919 E21.05551
G1 X163.534 Y58.743 E21.10263
G1 X164.179 Y58.606 E21.15126
G1 X164.807 Y58.518 E21.19803
G1 X165.447 Y58.473 E21.24535
G1 X166.089 Y58.473 E21.29271
G1 X166.73 Y58.518 E21.3401
G1 X167.358 Y58.606 E21.38687
G1 X168.004 Y58.743 E21.43558
G1 X168.607 Y58.916 E21.48185
G1 X169.225 Y59.141 E21.53036
G1 X169.805 Y59.4 E21.57721
G1 X170.365 Y59.698 E21.624
G1 X170.919 Y60.044 E21.67218
G1 X171.437 Y60.42 E21.71939
G1 X171.932 Y60.836 E21.76708
G1 X172.394 Y61.282 E21.81444
G1 X172.822 Y61.757 E21.8616
G1 X173.217 Y62.262 E21.90889
G1 X173.571 Y62.788 E21.95565
G1 X173.902 Y63.36 E22.0044
G1 X174.178 Y63.926 E22.05084
G1 X174.423 Y64.533 E22.09912
G1 X174.619 Y65.136 E22.14589
G1 X174.774 Y65.762 E22.19346
G1 X174.886 Y66.392 E22.24065
G1 X174.938 Y66.886 E22.27729
G1 X165.302 Y66.886 E22.98802
G1 X165.054 Y66.926 E23.00655
G1 X164.742 Y67.118 E23.03357
G1 X164.613 Y67.247 E23.04702
G1 X164.466 Y67.45 E23.06551
G1 X164.381 Y67.807 E23.09258
G1 X164.381 Y76.773 E23.75389
G1 X164.173 Y76.744 E23.76938
G1 X163.54 Y76.608 E23.81713
G1 X162.911 Y76.428 E23.86539
G1 X162.331 Y76.218 E23.91089
G1 X161.725 Y75.947 E23.95985
G1 X161.169 Y75.651 E24.00631
G1 X160.617 Y75.307 E24.05428
G1 X160.106 Y74.935 E24.1009
G1 X159.604 Y74.516 E24.14913
G1 X159.139 Y74.066 E24.19686
G1 X158.727 Y73.607 E24.24235
G1 X158.314 Y73.079 E24.29179
G1 X157.963 Y72.558 E24.33813
G1 X157.635 Y71.991 E24.38644
G1 X157.356 Y71.418 E24.43345
G1 X157.115 Y70.825 E24.48066
G1 X156.921 Y70.226 E24.5271
G1 X156.761 Y69.579 E24.57626
G1 X156.651 Y68.96 E24.62263
G1 X156.585 Y68.328 E24.6695
G1 X156.562 Y67.675 E24.71769
G1 X156.585 Y67.021 E24.76596
G1 X156.651 Y66.389 E24.81283
G1 X156.761 Y65.771 E24.85913
G1 X156.921 Y65.124 E24.90829
G1 X157.115 Y64.525 E24.95473
G1 X157.356 Y63.932 E25.00194
G0 F6000 X156.874 Y63.716
G1 F1200 X157.17 Y63.108 E25.05182
G1 X157.511 Y62.518 E25.10208
G1 X157.889 Y61.956 E25.15203
G1 X158.313 Y61.414 E25.20279
G1 X158.755 Y60.924 E25.25146
G1 X159.259 Y60.436 E25.30321
G1 X159.772 Y60.005 E25.35263
G1 X160.328 Y59.602 E25.40327
G1 X160.907 Y59.24 E25.45364
G1 X161.499 Y58.925 E25.5031
G1 X162.125 Y58.646 E25.55365
G1 X162.741 Y58.422 E25.602
G1 X163.417 Y58.228 E25.65387
G1 X164.083 Y58.086 E25.7041
G1 X164.755 Y57.992 E25.75414
G1 X165.424 Y57.945 E25.80361
G1 X166.112 Y57.945 E25.85436
G1 X166.782 Y57.992 E25.90389
G1 X167.454 Y58.086 E25.95394
G1 X168.122 Y58.228 E26.00431
G1 X168.786 Y58.419 E26.05527
G1 X169.413 Y58.646 E26.10446
G1 X170.038 Y58.926 E26.15497
G1 X170.634 Y59.243 E26.20476
G1 X171.201 Y59.597 E26.25406
G1 X171.768 Y60.008 E26.30572
G1 X172.278 Y60.436 E26.35482
G1 X172.782 Y60.924 E26.40657
G1 X173.224 Y61.414 E26.45524
G1 X173.648 Y61.956 E26.506
G1 X174.016 Y62.503 E26.55462
G1 X174.375 Y63.124 E26.60753
