;FLAVOR:Marlin
;TIME:16802
;Filament used: 11.8633m
;Layer height: 0.16
;MINX:58.513
;MINY:130.17
;MINZ:0.28
;MAXX:192.557
;MAXY:229.666
;MAXZ:20.08
;Generated with Cura_SteamEngine 4.13.1
M140 S90
M105
M190 S90
M104 S220
M105
M109 S220
M82 ;absolute extrusion mode
G28 ; home all axes
 M117 Purge extruder
 G92 E0 ; reset extruder
 G1 Z1.0 F3000 ; move z up little to prevent scratching of surface
 G1 X2 Y20 Z0.3 F5000.0 ; move to start-line position
 G1 X2 Y200.0 Z0.3 F1500.0 E15 ; draw 1st line
 G1 X2 Y200.0 Z0.4 F5000.0 ; move to side a little
 G1 X2 Y20 Z0.4 F1500.0 E30 ; draw 2nd line
 G92 E0 ; reset extruder
 G1 Z1.0 F3000 ; move z up little to prevent scratching of surface
G92 E0
G92 E0
G1 F1500 E-5
;LAYER_COUNT:103
;LAYER:0
M107
G1 F300 Z0.48
G0 F6000 X177.974 Y135.778 Z0.48
;TYPE:SKIRT
G1 F300 Z0.28
G1 F1500 E0
G1 F1200 X178.005 Y135.744 E0.00339
G1 X178.289 Y135.469 E0.03255
G1 X178.624 Y135.189 E0.06475
G1 X178.975 Y134.934 E0.09675
G1 X179.328 Y134.713 E0.12747
G1 X179.694 Y134.519 E0.15803
G1 X180.09 Y134.341 E0.19005
G1 X180.456 Y134.209 E0.21875
G1 X180.892 Y134.084 E0.2522
G1 X181.292 Y133.998 E0.28238
G1 X181.714 Y133.94 E0.3138
G1 X182.132 Y133.91 E0.34471
G1 X182.552 Y133.91 E0.37568
G1 X182.971 Y133.94 E0.40667
G1 X183.39 Y133.998 E0.43787
G1 X183.813 Y134.088 E0.46976
G1 X184.207 Y134.201 E0.5
G1 X184.602 Y134.345 E0.53101
G1 X184.973 Y134.51 E0.56095
G1 X185.362 Y134.717 E0.59346
G1 X185.725 Y134.944 E0.62503
G1 X186.063 Y135.189 E0.65582
G1 X186.386 Y135.46 E0.68692
G1 X186.68 Y135.744 E0.71707
G1 X186.968 Y136.063 E0.74877
G1 X187.228 Y136.396 E0.77993
G1 X187.457 Y136.737 E0.81023
G1 X187.68 Y137.122 E0.84305
G1 X187.857 Y137.484 E0.87277
G1 X188.009 Y137.861 E0.90275
G1 X188.147 Y138.282 E0.93543
G1 X188.247 Y138.686 E0.96612
G1 X188.321 Y139.1 E0.99714
G1 X188.365 Y139.528 E1.02888
G1 X188.38 Y139.944 E1.05958
G1 X188.365 Y140.36 E1.09028
G1 X188.321 Y140.788 E1.12202
G1 X188.248 Y141.195 E1.15252
G1 X188.147 Y141.606 E1.18373
G1 X188.012 Y142.019 E1.21578
G1 X187.857 Y142.404 E1.24639
G1 X187.68 Y142.766 E1.27611
G1 X187.459 Y143.149 E1.30873
G1 X187.228 Y143.492 E1.33923
G1 X187.037 Y143.736 E1.36209
G1 X187.037 Y139.987 E1.6386
G1 X186.997 Y139.426 E1.68009
G1 X186.878 Y138.876 E1.72159
G1 X186.682 Y138.349 E1.76306
G1 X186.414 Y137.855 E1.80452
G1 X186.078 Y137.403 E1.84606
G1 X185.877 Y137.187 E1.86782
G1 X185.628 Y136.938 E1.89379
G1 X185.203 Y136.569 E1.93531
G1 X184.73 Y136.265 E1.97678
G1 X184.219 Y136.03 E2.01826
G1 X183.68 Y135.871 E2.05971
G1 X183.123 Y135.789 E2.10124
G1 X182.828 Y135.778 E2.12301
G1 X177.974 Y135.778 E2.48103
G0 F6000 X177.63 Y135.371
G1 F1200 X177.934 Y135.078 E2.51217
G1 X178.3 Y134.771 E2.54741
G1 X178.674 Y134.499 E2.58152
G1 X179.066 Y134.255 E2.61557
G1 X179.46 Y134.045 E2.6485
G1 X179.891 Y133.853 E2.6833
G1 X180.305 Y133.702 E2.71581
G1 X180.764 Y133.571 E2.75101
G1 X181.193 Y133.479 E2.78338
G1 X181.662 Y133.414 E2.8183
G1 X182.109 Y133.382 E2.85135
G1 X182.576 Y133.382 E2.8858
G1 X183.022 Y133.414 E2.91878
G1 X183.491 Y133.479 E2.9537
G1 X183.919 Y133.57 E2.98597
G1 X184.366 Y133.698 E3.02027
G1 X184.809 Y133.86 E3.05506
G1 X185.216 Y134.041 E3.08791
G1 X185.626 Y134.259 E3.12216
G1 X186.013 Y134.501 E3.15583
G1 X186.385 Y134.771 E3.18973
G1 X186.749 Y135.076 E3.22476
G1 X187.055 Y135.371 E3.25611
G1 X187.369 Y135.72 E3.29074
G1 X187.657 Y136.088 E3.3252
G1 X187.904 Y136.456 E3.35789
G1 X188.146 Y136.873 E3.39345
G1 X188.341 Y137.273 E3.42628
G1 X188.507 Y137.684 E3.45897
G1 X188.657 Y138.146 E3.4948
G1 X188.765 Y138.58 E3.52778
G1 X188.843 Y139.02 E3.56074
G1 X188.891 Y139.48 E3.59486
G1 X188.908 Y139.944 E3.6291
G1 X188.891 Y140.403 E3.66298
G1 X188.843 Y140.868 E3.69746
G1 X188.765 Y141.308 E3.73042
G1 X188.657 Y141.742 E3.76341
G1 X188.509 Y142.199 E3.79884
G1 X188.342 Y142.613 E3.83176
G1 X188.146 Y143.014 E3.86468
G1 X187.904 Y143.432 E3.90031
G1 X187.657 Y143.8 E3.933
G1 X187.369 Y144.168 E3.96747
G1 X187.06 Y144.511 E4.00152
G1 X186.749 Y144.812 E4.03344
G1 X186.509 Y145.013 E4.05653
G1 X186.509 Y139.987 E4.42724
G1 X186.469 Y139.465 E4.46585
G1 X186.35 Y138.955 E4.50448
G1 X186.155 Y138.469 E4.5431
G1 X185.888 Y138.019 E4.5817
G1 X185.504 Y137.56 E4.62584
G1 X185.255 Y137.311 E4.65181
G1 X184.857 Y136.97 E4.69046
G1 X184.413 Y136.694 E4.72902
G1 X183.931 Y136.488 E4.76769
G1 X183.424 Y136.358 E4.80629
G1 X182.828 Y136.306 E4.85042
G1 X176.881 Y136.306 E5.28906
G1 X177.028 Y136.088 E5.30845
G1 X177.316 Y135.72 E5.34292
G1 X177.63 Y135.371 E5.37754
G0 F6000 X177.232 Y135.024
G1 F1200 X177.594 Y134.673 E5.41473
G1 X177.976 Y134.354 E5.45144
G1 X178.379 Y134.061 E5.48819
G1 X178.802 Y133.797 E5.52497
G1 X179.227 Y133.571 E5.56047
G1 X179.686 Y133.366 E5.59755
G1 X180.138 Y133.201 E5.63304
G1 X180.643 Y133.057 E5.67177
G1 X181.105 Y132.958 E5.70662
G1 X181.597 Y132.89 E5.74325
G1 X182.099 Y132.854 E5.78038
G1 X182.585 Y132.854 E5.81622
G1 X183.088 Y132.89 E5.85342
G1 X183.576 Y132.958 E5.88976
G1 X184.053 Y133.059 E5.92572
G1 X184.529 Y133.195 E5.96224
G1 X185.012 Y133.371 E6.00015
G1 X185.443 Y133.563 E6.03495
G1 X185.896 Y133.805 E6.07283
G1 X186.3 Y134.057 E6.10795
G1 X186.715 Y134.358 E6.14577
G1 X187.089 Y134.671 E6.18174
G1 X187.453 Y135.024 E6.21914
G1 X187.767 Y135.372 E6.25371
G1 X188.081 Y135.774 E6.29133
G1 X188.358 Y136.185 E6.32789
G1 X188.612 Y136.624 E6.3653
G1 X188.819 Y137.047 E6.40003
G1 X189.008 Y137.516 E6.43733
G1 X189.162 Y137.99 E6.47409
G1 X189.283 Y138.478 E6.51117
G1 X189.368 Y138.957 E6.54705
G1 X189.418 Y139.441 E6.58294
G1 X189.436 Y139.944 E6.62007
G1 X189.418 Y140.447 E6.65719
G1 X189.368 Y140.931 E6.69308
G1 X189.283 Y141.41 E6.72896
G1 X189.163 Y141.895 E6.76581
G1 X189.008 Y142.372 E6.80281
G1 X188.819 Y142.841 E6.8401
G1 X188.612 Y143.264 E6.87484
G1 X188.358 Y143.703 E6.91224
G1 X188.081 Y144.114 E6.9488
G1 X187.771 Y144.511 E6.98595
G1 X187.453 Y144.864 E7.021
G1 X187.089 Y145.217 E7.0584
G1 X186.715 Y145.53 E7.09437
G1 X186.3 Y145.831 E7.13218
G1 X185.981 Y146.03 E7.15991
G1 X185.981 Y139.987 E7.60563
G1 X185.941 Y139.507 E7.64115
G1 X185.822 Y139.04 E7.6767
G1 X185.628 Y138.6 E7.71217
G1 X185.364 Y138.197 E7.7477
G1 X185.13 Y137.934 E7.77367
G1 X184.881 Y137.685 E7.79964
G1 X184.514 Y137.373 E7.83517
G1 X184.1 Y137.127 E7.87069
G1 X183.651 Y136.953 E7.90621
G1 X183.179 Y136.855 E7.94176
G1 X182.828 Y136.834 E7.9677
G1 X175.971 Y136.834 E8.47345
G1 X176.073 Y136.623 E8.49074
G1 X176.327 Y136.184 E8.52815
G1 X176.604 Y135.774 E8.56464
G1 X176.918 Y135.372 E8.60227
G1 X177.232 Y135.024 E8.63684
G0 F6000 X176.852 Y134.656
G1 F1200 X177.24 Y134.281 E8.67664
G1 X177.652 Y133.936 E8.71627
G1 X178.08 Y133.625 E8.7553
G1 X178.539 Y133.339 E8.79519
G1 X178.994 Y133.097 E8.8332
G1 X179.498 Y132.871 E8.87394
G1 X179.974 Y132.699 E8.91127
G1 X180.501 Y132.548 E8.9517
G1 X181.018 Y132.437 E8.9907
G1 X181.547 Y132.364 E9.03009
G1 X182.076 Y132.326 E9.06921
G1 X182.608 Y132.326 E9.10845
G1 X183.138 Y132.364 E9.14764
G1 X183.663 Y132.437 E9.18674
G1 X184.191 Y132.549 E9.22655
G1 X184.693 Y132.692 E9.26505
G1 X185.202 Y132.879 E9.30504
G1 X185.676 Y133.09 E9.34331
G1 X186.159 Y133.347 E9.38366
G1 X186.604 Y133.625 E9.42237
G1 X187.037 Y133.939 E9.46182
G1 X187.444 Y134.28 E9.50098
G1 X187.833 Y134.656 E9.54088
G1 X188.173 Y135.033 E9.57833
G1 X188.51 Y135.465 E9.61874
G1 X188.804 Y135.902 E9.65759
G1 X189.078 Y136.375 E9.69791
G1 X189.304 Y136.837 E9.73584
G1 X189.508 Y137.345 E9.77622
G1 X189.67 Y137.844 E9.81491
G1 X189.799 Y138.362 E9.85429
G1 X189.891 Y138.88 E9.89309
G1 X189.946 Y139.411 E9.93247
G1 X189.965 Y139.944 E9.9718
G1 X189.946 Y140.477 E10.01114
G1 X189.891 Y141.008 E10.05052
G1 X189.799 Y141.526 E10.08932
G1 X189.67 Y142.044 E10.12869
G1 X189.508 Y142.543 E10.16739
G1 X189.304 Y143.051 E10.20777
G1 X189.078 Y143.513 E10.2457
G1 X188.804 Y143.986 E10.28602
G1 X188.51 Y144.423 E10.32487
G1 X188.173 Y144.855 E10.36528
G1 X187.833 Y145.232 E10.40272
G1 X187.444 Y145.608 E10.44263
G1 X187.037 Y145.949 E10.48179
G1 X186.604 Y146.263 E10.52124
G1 X186.159 Y146.541 E10.55994
G1 X185.676 Y146.798 E10.6003
G1 X185.453 Y146.898 E10.61832
G1 X185.453 Y139.987 E11.12806
G1 X185.413 Y139.553 E11.16021
G1 X185.295 Y139.134 E11.19232
G1 X185.102 Y138.744 E11.22441
G1 X184.757 Y138.307 E11.26548
G1 X184.508 Y138.058 E11.29145
G1 X184.173 Y137.779 E11.32361
G1 X183.793 Y137.567 E11.3557
G1 X183.381 Y137.427 E11.38779
G1 X182.828 Y137.362 E11.42886
G1 X175.17 Y137.362 E11.9937
G1 X175.181 Y137.329 E11.99627
G1 X175.371 Y136.861 E12.03352
G1 X175.613 Y136.363 E12.07436
G1 X175.878 Y135.907 E12.11326
G1 X176.175 Y135.465 E12.15254
G1 X176.512 Y135.033 E12.19295
G1 X176.852 Y134.656 E12.23039
G0 F6000 X176.479 Y134.281
G1 F1200 X176.885 Y133.89 E12.27197
G1 X177.321 Y133.524 E12.31395
G1 X177.789 Y133.184 E12.35662
G1 X178.27 Y132.884 E12.39843
G1 X178.766 Y132.62 E12.43988
G1 X179.293 Y132.384 E12.48247
G1 X179.807 Y132.198 E12.52278
G1 X180.391 Y132.031 E12.56758
G1 X180.92 Y131.918 E12.60748
G1 X181.495 Y131.838 E12.6503
G1 X182.053 Y131.798 E12.69156
G1 X182.631 Y131.798 E12.7342
G1 X183.19 Y131.838 E12.77553
G1 X183.765 Y131.918 E12.81835
G1 X184.311 Y132.034 E12.85952
G1 X184.852 Y132.189 E12.90103
G1 X185.41 Y132.392 E12.94483
G1 X185.904 Y132.612 E12.98471
G1 X186.423 Y132.889 E13.0281
G1 X186.892 Y133.181 E13.06885
G1 X187.367 Y133.527 E13.1122
G1 X187.799 Y133.888 E13.15372
G1 X188.206 Y134.281 E13.19545
G1 X188.581 Y134.698 E13.23681
G1 X188.939 Y135.157 E13.27975
G1 X189.25 Y135.618 E13.32077
G1 X189.55 Y136.138 E13.36504
G1 X189.786 Y136.621 E13.4047
G1 X190.001 Y137.154 E13.44709
G1 X190.177 Y137.695 E13.48905
G1 X190.312 Y138.239 E13.53039
G1 X190.414 Y138.814 E13.57346
G1 X190.472 Y139.367 E13.61447
G1 X190.493 Y139.944 E13.65706
G1 X190.472 Y140.521 E13.69965
G1 X190.414 Y141.074 E13.74066
G1 X190.314 Y141.639 E13.78298
G1 X190.177 Y142.193 E13.82507
G1 X190.001 Y142.734 E13.86703
G1 X189.786 Y143.267 E13.90942
G1 X189.55 Y143.75 E13.94907
G1 X189.25 Y144.27 E13.99335
G1 X188.939 Y144.731 E14.03437
G1 X188.581 Y145.19 E14.0773
G1 X188.206 Y145.607 E14.11867
G1 X187.799 Y146 E14.1604
G1 X187.367 Y146.361 E14.20192
G1 X186.892 Y146.707 E14.24527
G1 X186.425 Y146.998 E14.28585
G1 X185.904 Y147.276 E14.32941
G1 X185.41 Y147.496 E14.36929
G1 X184.925 Y147.673 E14.40737
G1 X184.925 Y139.987 E14.97427
G1 X184.885 Y139.605 E15.0026
G1 X184.767 Y139.24 E15.0309
G1 X184.576 Y138.907 E15.05921
G1 X184.384 Y138.68 E15.08114
G1 X184.135 Y138.431 E15.10711
G1 X183.836 Y138.189 E15.13549
G1 X183.495 Y138.014 E15.16376
G1 X183.124 Y137.914 E15.1921
G1 X182.828 Y137.89 E15.214
G1 X174.46 Y137.89 E15.8312
G1 X174.51 Y137.687 E15.84663
G1 X174.686 Y137.146 E15.88859
G1 X174.89 Y136.643 E15.92862
G1 X175.144 Y136.12 E15.97151
G1 X175.432 Y135.623 E16.01387
G1 X175.746 Y135.157 E16.05532
G1 X176.104 Y134.698 E16.09825
G1 X176.479 Y134.281 E16.13962
G0 F6000 X176.099 Y133.914
G1 F1200 X176.53 Y133.498 E16.1838
G1 X176.997 Y133.107 E16.22872
G1 X177.488 Y132.749 E16.27354
G1 X178.007 Y132.426 E16.31863
G1 X178.533 Y132.146 E16.36258
G1 X179.098 Y131.894 E16.40821
G1 X179.648 Y131.694 E16.45138
G1 X180.253 Y131.521 E16.49779
G1 X180.835 Y131.396 E16.5417
G1 X181.43 Y131.314 E16.586
G1 X182.044 Y131.27 E16.6314
G1 X182.64 Y131.27 E16.67536
G1 X183.255 Y131.314 E16.72084
G1 X183.85 Y131.396 E16.76514
G1 X184.445 Y131.523 E16.81001
G1 X185.015 Y131.686 E16.85374
G1 X185.6 Y131.899 E16.89966
G1 X186.142 Y132.141 E16.94344
G1 X186.681 Y132.428 E16.98848
G1 X187.199 Y132.752 E17.03354
G1 X187.68 Y133.101 E17.07737
G1 X188.161 Y133.504 E17.12366
G1 X188.586 Y133.914 E17.16721
G1 X188.982 Y134.355 E17.21093
G1 X189.368 Y134.849 E17.25717
G1 X189.695 Y135.334 E17.30032
G1 X190.014 Y135.886 E17.34734
G1 X190.271 Y136.411 E17.39045
G1 X190.498 Y136.974 E17.43523
G1 X190.687 Y137.554 E17.48022
G1 X190.83 Y138.133 E17.52421
G1 X190.937 Y138.737 E17.56945
G1 X191 Y139.337 E17.61395
G1 X191.021 Y139.944 E17.65875
G1 X191 Y140.551 E17.70355
G1 X190.937 Y141.151 E17.74804
G1 X190.83 Y141.755 E17.79329
G1 X190.687 Y142.334 E17.83728
G1 X190.498 Y142.914 E17.88227
G1 X190.271 Y143.477 E17.92704
G1 X190.016 Y143.999 E17.96989
G1 X189.695 Y144.554 E18.01718
G1 X189.368 Y145.039 E18.06033
G1 X188.982 Y145.533 E18.10657
G1 X188.586 Y145.974 E18.15028
G1 X188.166 Y146.38 E18.19337
G1 X187.68 Y146.787 E18.24012
G1 X187.199 Y147.136 E18.28396
G1 X186.681 Y147.46 E18.32902
G1 X186.142 Y147.747 E18.37406
G1 X185.6 Y147.989 E18.41784
G1 X185.015 Y148.202 E18.46376
G1 X184.445 Y148.365 E18.50749
G1 X184.397 Y148.375 E18.5111
G1 X184.397 Y139.987 E19.12978
G1 X184.357 Y139.665 E19.15372
G1 X184.24 Y139.363 E19.1776
G1 X184.01 Y139.054 E19.20602
G1 X183.761 Y138.805 E19.23199
G1 X183.506 Y138.605 E19.25589
G1 X183.209 Y138.474 E19.27983
G1 X182.828 Y138.418 E19.30824
G1 X173.804 Y138.418 E19.97383
G1 X173.853 Y138.142 E19.9945
G1 X173.998 Y137.556 E20.03903
G1 X174.19 Y136.964 E20.08493
G1 X174.411 Y136.419 E20.12831
G1 X174.678 Y135.871 E20.17327
G1 X174.982 Y135.345 E20.21808
G1 X175.317 Y134.849 E20.26223
G1 X175.703 Y134.355 E20.30847
G1 X176.099 Y133.914 E20.35218
G0 F6000 X175.72 Y133.547
G1 F1200 X176.183 Y133.1 E20.39965
G1 X176.673 Y132.69 E20.44678
G1 X177.193 Y132.311 E20.49424
G1 X177.743 Y131.968 E20.54204
G1 X178.299 Y131.672 E20.5885
G1 X178.905 Y131.401 E20.63747
G1 X179.485 Y131.191 E20.68296
G1 X180.114 Y131.011 E20.73122
G1 X180.747 Y130.875 E20.77897
G1 X181.378 Y130.788 E20.82595
G1 X182.021 Y130.742 E20.8735
G1 X182.663 Y130.742 E20.92085
G1 X183.307 Y130.788 E20.96848
G1 X183.935 Y130.875 E21.01524
G1 X184.569 Y131.01 E21.06305
G1 X185.187 Y131.187 E21.11046
G1 X185.795 Y131.409 E21.1582
G1 X186.375 Y131.667 E21.20503
G1 X186.944 Y131.97 E21.25257
G1 X187.493 Y132.313 E21.30032
G1 X188.01 Y132.688 E21.34743
G1 X188.509 Y133.106 E21.39544
G1 X188.965 Y133.547 E21.44223
G1 X189.39 Y134.02 E21.48913
G1 X189.797 Y134.54 E21.53783
G1 X190.145 Y135.057 E21.5838
G1 X190.476 Y135.629 E21.63255
G1 X190.752 Y136.195 E21.67899
G1 X190.997 Y136.802 E21.72727
G1 X191.193 Y137.405 E21.77404
G1 X191.348 Y138.031 E21.8216
G1 X191.46 Y138.661 E21.8688
G1 X191.527 Y139.307 E21.9167
G1 X191.55 Y139.944 E21.96372
G1 X191.527 Y140.581 E22.01073
G1 X191.46 Y141.227 E22.05863
G1 X191.348 Y141.857 E22.10583
G1 X191.193 Y142.483 E22.1534
G1 X190.997 Y143.086 E22.20016
G1 X190.752 Y143.693 E22.24844
G1 X190.476 Y144.259 E22.29489
G1 X190.145 Y144.831 E22.34363
G1 X189.797 Y145.348 E22.3896
G1 X189.39 Y145.868 E22.43831
G1 X188.965 Y146.341 E22.48521
G1 X188.509 Y146.782 E22.532
G1 X188.01 Y147.2 E22.58001
G1 X187.493 Y147.575 E22.62712
G1 X186.944 Y147.918 E22.67486
G1 X186.375 Y148.221 E22.72241
G1 X185.795 Y148.479 E22.76923
G1 X185.187 Y148.701 E22.81697
G1 X184.569 Y148.878 E22.86439
G1 X183.935 Y149.013 E22.9122
G1 X183.869 Y149.022 E22.91711
G1 X183.869 Y139.987 E23.58351
G1 X183.829 Y139.739 E23.60204
G1 X183.637 Y139.427 E23.62906
G1 X183.388 Y139.178 E23.65503
G1 X183.185 Y139.031 E23.67352
G1 X182.828 Y138.946 E23.70059
G1 X173.195 Y138.946 E24.41109
G1 X173.225 Y138.659 E24.43238
G1 X173.335 Y138.04 E24.47875
G1 X173.495 Y137.393 E24.52791
G1 X173.689 Y136.794 E24.57435
G1 X173.93 Y136.201 E24.62156
G1 X174.209 Y135.628 E24.66857
G1 X174.537 Y135.061 E24.71688
G1 X174.888 Y134.54 E24.76322
G1 X175.295 Y134.02 E24.81192
G1 X175.72 Y133.547 E24.85882
G0 F6000 X175.343 Y133.176
G1 F1200 X175.83 Y132.706 E24.90874
G1 X176.354 Y132.268 E24.95912
G1 X176.893 Y131.876 E25.00827
G1 X177.481 Y131.509 E25.0594
G1 X178.066 Y131.198 E25.10826
G1 X178.705 Y130.912 E25.1599
G1 X179.315 Y130.691 E25.20775
G1 X180.004 Y130.494 E25.26061
G1 X180.648 Y130.356 E25.30919
G1 X181.326 Y130.262 E25.35967
G1 X181.998 Y130.214 E25.40937
G1 X182.686 Y130.214 E25.46011
G1 X183.359 Y130.262 E25.50988
G1 X184.037 Y130.356 E25.56036
G1 X184.689 Y130.495 E25.60953
G1 X185.346 Y130.683 E25.65994
G1 X186.004 Y130.923 E25.7116
G1 X186.603 Y131.19 E25.75997
G1 X187.208 Y131.512 E25.81052
G1 X187.78 Y131.87 E25.86029
G1 X188.341 Y132.276 E25.91137
