;FLAVOR:Marlin
;TIME:26119
;Filament used: 15.5473m
;Layer height: 0.16
;MINX:136.67
;MINY:84.896
;MINZ:0.28
;MAXX:246.999
;MAXY:172.639
;MAXZ:59.24
;Generated with Cura_SteamEngine 4.12.1
M140 S95
M105
M190 S95
M104 S220
M105
M109 S220
M82 ;absolute extrusion mode
G28 ; home all axes
 M117 Purge extruder
 G92 E0 ; reset extruder
 G1 Z1.0 F3000 ; move z up little to prevent scratching of surface
 G1 X2 Y20 Z0.3 F5000.0 ; move to start-line position
 G1 X2 Y200.0 Z0.3 F1500.0 E15 ; draw 1st line
 G1 X2 Y200.0 Z0.4 F5000.0 ; move to side a little
 G1 X2 Y20 Z0.4 F1500.0 E30 ; draw 2nd line
 G92 E0 ; reset extruder
 G1 Z1.0 F3000 ; move z up little to prevent scratching of surface
G92 E0
G92 E0
G1 F1500 E-5
;LAYER_COUNT:376
;LAYER:0
M107
G0 F6000 X143.654 Y92.138 Z0.28
;TYPE:SKIRT
G1 F1500 E0
G1 F1200 X143.879 Y91.803 E0.03225
G1 X144.142 Y91.467 E0.06634
G1 X144.426 Y91.15 E0.10035
G1 X144.735 Y90.852 E0.13465
G1 X145.043 Y90.594 E0.16675
G1 X145.384 Y90.346 E0.20044
G1 X145.752 Y90.118 E0.23504
G1 X146.124 Y89.919 E0.26875
G1 X146.515 Y89.745 E0.30294
G1 X146.881 Y89.612 E0.33406
G1 X147.317 Y89.487 E0.3703
G1 X147.717 Y89.401 E0.40299
G1 X148.139 Y89.343 E0.43703
G1 X148.558 Y89.313 E0.47059
G1 X148.978 Y89.313 E0.50415
G1 X149.396 Y89.343 E0.53764
G1 X149.818 Y89.401 E0.57168
G1 X150.218 Y89.487 E0.60437
G1 X150.654 Y89.612 E0.64061
G1 X151.014 Y89.742 E0.67119
G1 X151.409 Y89.919 E0.70578
G1 X151.796 Y90.124 E0.74077
G1 X152.143 Y90.341 E0.77347
G1 X152.495 Y90.596 E0.80821
G1 X152.8 Y90.852 E0.84002
G1 X153.109 Y91.15 E0.87432
G1 X153.393 Y91.467 E0.90833
G1 X153.656 Y91.803 E0.94243
G1 X153.881 Y92.138 E0.97467
G1 X153.92 Y92.205 E0.98087
G1 X146.77 Y92.205 E1.55218
G1 X146.209 Y92.245 E1.59712
G1 X145.659 Y92.364 E1.64209
G1 X145.132 Y92.56 E1.68701
G1 X144.638 Y92.828 E1.73192
G1 X144.186 Y93.164 E1.77692
G1 X143.787 Y93.56 E1.82184
G1 X143.448 Y94.009 E1.8668
G1 X143.176 Y94.502 E1.91179
G1 X142.977 Y95.028 E1.95672
G1 X142.854 Y95.577 E2.00168
G1 X142.81 Y96.165 E2.04879
G1 X142.81 Y96.307 E2.06014
G1 X142.789 Y96.191 E2.06956
G1 X142.745 Y95.762 E2.10402
G1 X142.73 Y95.346 E2.13728
G1 X142.745 Y94.927 E2.17078
G1 X142.789 Y94.502 E2.20492
G1 X142.861 Y94.094 E2.23803
G1 X142.963 Y93.684 E2.27179
G1 X143.096 Y93.277 E2.306
G1 X143.253 Y92.887 E2.33959
G1 X143.431 Y92.522 E2.37204
G1 X143.654 Y92.138 E2.40752
G0 F6000 X143.204 Y91.86
G1 F1200 X143.45 Y91.495 E2.44269
G1 X143.74 Y91.124 E2.48032
G1 X144.046 Y90.783 E2.51693
G1 X144.372 Y90.468 E2.55315
G1 X144.722 Y90.175 E2.58962
G1 X145.1 Y89.9 E2.62697
G1 X145.478 Y89.665 E2.66254
G1 X145.896 Y89.443 E2.70036
G1 X146.31 Y89.258 E2.73659
G1 X146.73 Y89.105 E2.77231
G1 X147.189 Y88.974 E2.81045
G1 X147.618 Y88.882 E2.84551
G1 X148.088 Y88.817 E2.88342
G1 X148.534 Y88.785 E2.91915
G1 X149.001 Y88.785 E2.95646
G1 X149.448 Y88.817 E2.99227
G1 X149.917 Y88.882 E3.0301
G1 X150.346 Y88.974 E3.06516
G1 X150.805 Y89.105 E3.1033
G1 X151.219 Y89.255 E3.13849
G1 X151.649 Y89.448 E3.17615
G1 X152.047 Y89.659 E3.21214
G1 X152.437 Y89.902 E3.24886
G1 X152.816 Y90.178 E3.28632
G1 X153.163 Y90.468 E3.32246
G1 X153.489 Y90.783 E3.35868
G1 X153.795 Y91.124 E3.39529
G1 X154.085 Y91.495 E3.43292
G1 X154.331 Y91.86 E3.46809
G1 X154.566 Y92.267 E3.50564
G1 X154.769 Y92.682 E3.54255
G1 X154.79 Y92.733 E3.54696
G1 X146.77 Y92.733 E4.18779
G1 X146.248 Y92.773 E4.22962
G1 X145.738 Y92.892 E4.27147
G1 X145.252 Y93.087 E4.31331
G1 X144.802 Y93.354 E4.35512
G1 X144.397 Y93.686 E4.39697
G1 X144.047 Y94.076 E4.43884
G1 X143.761 Y94.514 E4.48064
G1 X143.545 Y94.991 E4.52248
G1 X143.404 Y95.495 E4.5643
G1 X143.338 Y96.165 E4.61809
G1 X143.338 Y97.525 E4.72676
G1 X143.378 Y98.047 E4.76859
G1 X143.497 Y98.557 E4.81044
G1 X143.692 Y99.043 E4.85228
G1 X143.778 Y99.188 E4.86575
G1 X143.778 Y99.612 E4.89963
G1 X143.739 Y99.569 E4.90427
G1 X143.455 Y99.206 E4.9411
G1 X143.206 Y98.835 E4.9768
G1 X142.964 Y98.417 E5.01539
G1 X142.768 Y98.016 E5.05106
G1 X142.603 Y97.607 E5.0863
G1 X142.453 Y97.145 E5.12511
G1 X142.345 Y96.711 E5.16085
G1 X142.267 Y96.27 E5.19663
G1 X142.219 Y95.807 E5.23382
G1 X142.202 Y95.346 E5.27069
G1 X142.219 Y94.884 E5.30763
G1 X142.266 Y94.43 E5.3441
G1 X142.344 Y93.988 E5.37996
G1 X142.456 Y93.538 E5.41701
G1 X142.603 Y93.086 E5.45499
G1 X142.766 Y92.682 E5.4898
G1 X142.969 Y92.267 E5.52672
G1 X143.204 Y91.86 E5.56427
G0 F6000 X142.758 Y91.576
G1 F1200 X143.021 Y91.186 E5.60186
G1 X143.338 Y90.78 E5.64301
G1 X143.665 Y90.416 E5.68211
G1 X144.017 Y90.076 E5.72122
G1 X144.391 Y89.763 E5.76019
G1 X144.8 Y89.466 E5.80057
G1 X145.229 Y89.2 E5.84091
G1 X145.656 Y88.972 E5.87959
G1 X146.111 Y88.769 E5.9194
G1 X146.563 Y88.604 E5.95784
G1 X147.068 Y88.46 E5.9998
G1 X147.53 Y88.361 E6.03756
G1 X148.022 Y88.293 E6.07724
G1 X148.525 Y88.257 E6.11754
G1 X149.011 Y88.257 E6.15637
G1 X149.513 Y88.293 E6.19659
G1 X150.005 Y88.361 E6.23627
G1 X150.467 Y88.46 E6.27403
G1 X150.972 Y88.604 E6.31599
G1 X151.418 Y88.767 E6.35393
G1 X151.876 Y88.971 E6.39399
G1 X152.315 Y89.204 E6.4337
G1 X152.731 Y89.464 E6.4729
G1 X153.147 Y89.766 E6.51398
G1 X153.518 Y90.076 E6.55261
G1 X153.87 Y90.416 E6.59171
G1 X154.197 Y90.78 E6.63081
G1 X154.514 Y91.186 E6.67197
G1 X154.777 Y91.576 E6.70956
G1 X155.038 Y92.029 E6.75133
G1 X155.249 Y92.461 E6.78975
G1 X155.429 Y92.906 E6.8281
G1 X155.544 Y93.261 E6.85792
G1 X146.77 Y93.261 E7.559
G1 X146.29 Y93.301 E7.59749
G1 X145.823 Y93.42 E7.63599
G1 X145.383 Y93.614 E7.67442
G1 X144.98 Y93.878 E7.71291
G1 X144.627 Y94.205 E7.75136
G1 X144.332 Y94.587 E7.78993
G1 X144.105 Y95.011 E7.82836
G1 X143.951 Y95.467 E7.86682
G1 X143.866 Y96.165 E7.923
G1 X143.866 Y97.525 E8.03167
G1 X143.906 Y98.005 E8.07016
G1 X144.025 Y98.472 E8.10866
G1 X144.219 Y98.912 E8.14709
G1 X144.306 Y99.045 E8.15979
G1 X144.306 Y100.858 E8.30465
G1 X144.018 Y100.617 E8.33466
G1 X143.659 Y100.269 E8.37461
G1 X143.337 Y99.912 E8.41303
G1 X143.026 Y99.514 E8.45339
G1 X142.756 Y99.113 E8.49201
G1 X142.498 Y98.667 E8.53318
G1 X142.291 Y98.244 E8.57081
G1 X142.102 Y97.775 E8.61122
G1 X141.947 Y97.298 E8.65129
G1 X141.827 Y96.813 E8.69121
G1 X141.742 Y96.334 E8.73009
G1 X141.692 Y95.85 E8.76897
G1 X141.674 Y95.346 E8.80926
G1 X141.691 Y94.854 E8.8486
G1 X141.743 Y94.356 E8.88861
G1 X141.827 Y93.877 E8.92747
G1 X141.95 Y93.387 E8.96783
G1 X142.106 Y92.906 E9.00824
G1 X142.286 Y92.461 E9.04659
G1 X142.497 Y92.029 E9.08501
G1 X142.758 Y91.576 E9.12679
G0 F6000 X142.307 Y91.303
G1 F1200 X142.6 Y90.868 E9.16869
G1 X142.937 Y90.437 E9.21241
G1 X143.278 Y90.056 E9.25327
G1 X143.67 Y89.678 E9.29678
G1 X144.067 Y89.346 E9.33813
G1 X144.509 Y89.024 E9.38183
G1 X144.955 Y88.747 E9.42378
G1 X145.428 Y88.495 E9.4666
G1 X145.918 Y88.276 E9.50949
G1 X146.399 Y88.102 E9.55036
G1 X146.926 Y87.951 E9.59416
G1 X147.443 Y87.84 E9.63641
G1 X147.972 Y87.767 E9.67908
G1 X148.502 Y87.729 E9.72154
G1 X149.034 Y87.729 E9.76405
G1 X149.563 Y87.767 E9.80643
G1 X150.092 Y87.84 E9.8491
G1 X150.609 Y87.951 E9.89135
G1 X151.136 Y88.102 E9.93516
G1 X151.612 Y88.274 E9.9756
G1 X152.104 Y88.495 E10.01869
G1 X152.584 Y88.75 E10.06212
G1 X153.035 Y89.031 E10.10458
G1 X153.462 Y89.341 E10.14675
G1 X153.865 Y89.678 E10.18872
G1 X154.257 Y90.056 E10.23223
G1 X154.598 Y90.437 E10.27309
G1 X154.935 Y90.868 E10.31681
G1 X155.228 Y91.303 E10.35872
G1 X155.504 Y91.78 E10.40275
G1 X155.731 Y92.244 E10.44402
G1 X155.926 Y92.729 E10.48579
G1 X156.097 Y93.254 E10.52991
G1 X156.224 Y93.761 E10.57167
G1 X156.228 Y93.789 E10.57393
G1 X146.77 Y93.789 E11.32967
G1 X146.336 Y93.829 E11.36449
G1 X145.917 Y93.947 E11.39928
G1 X145.527 Y94.14 E11.43405
G1 X145.178 Y94.401 E11.46887
G1 X144.883 Y94.721 E11.50364
G1 X144.651 Y95.09 E11.53847
G1 X144.49 Y95.495 E11.5733
G1 X144.406 Y95.922 E11.60807
G1 X144.394 Y96.165 E11.62751
G1 X144.394 Y97.525 E11.73618
G1 X144.434 Y97.959 E11.77101
G1 X144.552 Y98.378 E11.80579
G1 X144.745 Y98.768 E11.84056
G1 X144.834 Y98.887 E11.85243
G1 X144.834 Y101.871 E12.09086
G1 X144.514 Y101.671 E12.12102
G1 X144.065 Y101.345 E12.16535
G1 X143.671 Y101.014 E12.20647
G1 X143.28 Y100.636 E12.24993
G1 X142.922 Y100.239 E12.29264
G1 X142.607 Y99.836 E12.33351
G1 X142.306 Y99.39 E12.37651
G1 X142.032 Y98.916 E12.42025
G1 X141.806 Y98.454 E12.46135
G1 X141.602 Y97.946 E12.50509
G1 X141.44 Y97.447 E12.54701
G1 X141.311 Y96.929 E12.58967
G1 X141.219 Y96.411 E12.6317
G1 X141.164 Y95.88 E12.67436
G1 X141.145 Y95.346 E12.71706
G1 X141.164 Y94.812 E12.75975
G1 X141.218 Y94.292 E12.80153
G1 X141.311 Y93.761 E12.8446
G1 X141.438 Y93.254 E12.88636
G1 X141.609 Y92.729 E12.93048
G1 X141.804 Y92.244 E12.97225
G1 X142.031 Y91.78 E13.01353
G1 X142.307 Y91.303 E13.05756
G0 F6000 X141.857 Y91.025
G1 F1200 X142.171 Y90.56 E13.10239
G1 X142.529 Y90.101 E13.14891
G1 X142.905 Y89.683 E13.19383
G1 X143.315 Y89.287 E13.23938
G1 X143.736 Y88.934 E13.28328
G1 X144.216 Y88.585 E13.3307
G1 X144.693 Y88.289 E13.37555
G1 X145.194 Y88.022 E13.42092
G1 X145.718 Y87.787 E13.4668
G1 X146.232 Y87.601 E13.51048
G1 X146.816 Y87.434 E13.55902
G1 X147.345 Y87.321 E13.60224
G1 X147.92 Y87.241 E13.64863
G1 X148.479 Y87.201 E13.69341
G1 X149.057 Y87.201 E13.73959
G1 X149.615 Y87.241 E13.78429
G1 X150.19 Y87.321 E13.83068
G1 X150.719 Y87.434 E13.8739
G1 X151.303 Y87.601 E13.92244
G1 X151.816 Y87.787 E13.96604
G1 X152.337 Y88.02 E14.01164
G1 X152.842 Y88.288 E14.05732
G1 X153.329 Y88.592 E14.1032
G1 X153.792 Y88.929 E14.14895
G1 X154.22 Y89.287 E14.19354
G1 X154.63 Y89.683 E14.23909
G1 X155.006 Y90.101 E14.28401
G1 X155.364 Y90.56 E14.33052
G1 X155.678 Y91.025 E14.37536
G1 X155.973 Y91.536 E14.4225
G1 X156.211 Y92.022 E14.46574
G1 X156.421 Y92.544 E14.5107
G1 X156.603 Y93.105 E14.55783
G1 X156.741 Y93.657 E14.60329
G1 X156.84 Y94.218 E14.64881
G1 X156.85 Y94.317 E14.65676
G1 X146.77 Y94.317 E15.4622
G1 X146.388 Y94.357 E15.49289
G1 X146.023 Y94.475 E15.52354
G1 X145.69 Y94.666 E15.55421
G1 X145.403 Y94.921 E15.58489
G1 X145.176 Y95.231 E15.61559
G1 X145.017 Y95.58 E15.64623
G1 X144.934 Y95.955 E15.67692
G1 X144.922 Y96.165 E15.69373
G1 X144.922 Y97.525 E15.8024
G1 X144.962 Y97.907 E15.83309
G1 X145.08 Y98.272 E15.86374
G1 X145.271 Y98.605 E15.89442
G1 X145.362 Y98.707 E15.90534
G1 X145.362 Y102.748 E16.22823
G1 X145.2 Y102.675 E16.24243
G1 X144.693 Y102.406 E16.28829
G1 X144.216 Y102.108 E16.33323
G1 X143.752 Y101.771 E16.37905
G1 X143.308 Y101.398 E16.42539
G1 X142.901 Y101.004 E16.47065
G1 X142.522 Y100.584 E16.51585
G1 X142.178 Y100.145 E16.56042
G1 X141.86 Y99.673 E16.60589
G1 X141.56 Y99.153 E16.65386
G1 X141.324 Y98.67 E16.69682
G1 X141.109 Y98.137 E16.74274
G1 X140.933 Y97.596 E16.7882
G1 X140.796 Y97.042 E16.8338
G1 X140.695 Y96.476 E16.87974
G1 X140.638 Y95.924 E16.92408
G1 X140.617 Y95.346 E16.9703
G1 X140.638 Y94.768 E17.01651
G1 X140.695 Y94.218 E17.06069
G1 X140.794 Y93.657 E17.10621
G1 X140.932 Y93.105 E17.15168
G1 X141.114 Y92.544 E17.1988
G1 X141.324 Y92.022 E17.24376
G1 X141.562 Y91.536 E17.287
G1 X141.857 Y91.025 E17.33415
G0 F6000 X141.412 Y90.742
G1 F1200 X141.743 Y90.25 E17.38153
G1 X142.127 Y89.758 E17.4314
G1 X142.525 Y89.316 E17.47893
G1 X142.96 Y88.895 E17.5273
G1 X143.412 Y88.516 E17.57443
G1 X143.919 Y88.148 E17.62449
G1 X144.426 Y87.833 E17.67218
G1 X144.961 Y87.548 E17.72062
G1 X145.523 Y87.297 E17.7698
G1 X146.073 Y87.097 E17.81656
G1 X146.678 Y86.924 E17.86684
G1 X147.26 Y86.799 E17.91441
G1 X147.855 Y86.717 E17.9624
G1 X148.47 Y86.673 E18.01166
G1 X149.066 Y86.673 E18.05929
G1 X149.68 Y86.717 E18.10847
G1 X150.275 Y86.799 E18.15647
G1 X150.857 Y86.924 E18.20403
G1 X151.462 Y87.097 E18.25431
G1 X152.012 Y87.297 E18.30107
G1 X152.57 Y87.546 E18.3499
G1 X153.111 Y87.833 E18.39883
G1 X153.617 Y88.149 E18.4465
G1 X154.123 Y88.516 E18.49645
G1 X154.575 Y88.895 E18.54358
G1 X155.01 Y89.316 E18.59195
G1 X155.408 Y89.758 E18.63948
G1 X155.792 Y90.25 E18.68935
G1 X156.123 Y90.742 E18.73673
G1 X156.436 Y91.282 E18.7866
G1 X156.698 Y91.818 E18.83427
G1 X156.921 Y92.372 E18.88199
G1 X157.108 Y92.945 E18.93015
G1 X157.259 Y93.552 E18.98013
G1 X157.363 Y94.142 E19.028
G1 X157.425 Y94.737 E19.0758
G1 X157.429 Y94.845 E19.08444
G1 X146.77 Y94.845 E19.93614
G1 X146.448 Y94.885 E19.96206
G1 X146.146 Y95.002 E19.98794
G1 X145.881 Y95.189 E20.01386
G1 X145.67 Y95.436 E20.03981
G1 X145.525 Y95.726 E20.06572
G1 X145.45 Y96.165 E20.10131
G1 X145.45 Y97.525 E20.20998
G1 X145.49 Y97.847 E20.2359
G1 X145.607 Y98.149 E20.26178
G1 X145.794 Y98.414 E20.2877
G1 X145.89 Y98.496 E20.29779
G1 X145.89 Y103.53 E20.70003
G1 X145.517 Y103.395 E20.73172
G1 X144.966 Y103.149 E20.77994
G1 X144.434 Y102.866 E20.82809
G1 X143.911 Y102.54 E20.87733
G1 X143.421 Y102.183 E20.92577
G1 X142.959 Y101.796 E20.97393
G1 X142.522 Y101.373 E21.02253
G1 X142.121 Y100.929 E21.07033
G1 X141.748 Y100.451 E21.11878
G1 X141.415 Y99.957 E21.16638
G1 X141.094 Y99.402 E21.21761
G1 X140.839 Y98.88 E21.26403
G1 X140.612 Y98.317 E21.31254
G1 X140.423 Y97.737 E21.36128
G1 X140.28 Y97.158 E21.40893
G1 X140.173 Y96.554 E21.45795
G1 X140.11 Y95.953 E21.50623
G1 X140.089 Y95.346 E21.55476
G1 X140.11 Y94.738 E21.60337
G1 X140.172 Y94.142 E21.65125
G1 X140.276 Y93.552 E21.69912
G1 X140.427 Y92.945 E21.7491
G1 X140.614 Y92.372 E21.79727
G1 X140.837 Y91.818 E21.84499
G1 X141.099 Y91.282 E21.89266
G1 X141.412 Y90.742 E21.94253
G0 F6000 X140.966 Y90.458
G1 F1200 X141.313 Y89.943 E21.99215
G1 X141.726 Y89.415 E22.04571
G1 X142.138 Y88.956 E22.095
G1 X142.613 Y88.497 E22.14778
G1 X143.082 Y88.104 E22.19667
G1 X143.625 Y87.709 E22.25032
G1 X144.17 Y87.37 E22.30161
G1 X144.727 Y87.074 E22.35201
G1 X145.33 Y86.804 E22.4048
G1 X145.91 Y86.594 E22.45409
G1 X146.539 Y86.414 E22.50636
G1 X147.172 Y86.278 E22.5581
G1 X147.803 Y86.191 E22.60899
G1 X148.447 Y86.145 E22.66058
G1 X149.089 Y86.145 E22.71188
G1 X149.732 Y86.191 E22.76339
G1 X150.363 Y86.278 E22.81429
G1 X150.996 Y86.414 E22.86602
G1 X151.625 Y86.594 E22.9183
G1 X152.205 Y86.804 E22.96759
G1 X152.798 Y87.07 E23.01952
G1 X153.373 Y87.375 E23.07153
G1 X153.918 Y87.714 E23.12281
G1 X154.447 Y88.099 E23.17509
G1 X154.922 Y88.497 E23.22461
G1 X155.397 Y88.956 E23.27739
G1 X155.809 Y89.415 E23.32667
G1 X156.222 Y89.943 E23.38023
G1 X156.569 Y90.458 E23.42985
G1 X156.902 Y91.033 E23.48295
G1 X157.179 Y91.601 E23.53344
G1 X157.419 Y92.195 E23.58463
G1 X157.617 Y92.804 E23.6358
G1 X157.774 Y93.433 E23.6876
G1 X157.885 Y94.064 E23.7388
G1 X157.951 Y94.694 E23.78941
G1 X157.974 Y95.346 E23.84154
G1 X157.973 Y95.373 E23.8437
G1 X146.77 Y95.373 E24.73887
G1 X146.522 Y95.413 E24.75894
G1 X146.299 Y95.528 E24.77899
G1 X146.124 Y95.707 E24.79899
G1 X146.013 Y95.932 E24.81904
G1 X145.978 Y96.165 E24.83786
G1 X145.978 Y97.525 E24.94653
G1 X146.018 Y97.773 E24.96661
G1 X146.133 Y97.996 E24.98666
G1 X146.312 Y98.171 E25.00666
G1 X146.418 Y98.223 E25.01609
G1 X146.418 Y104.246 E25.49735
G1 X145.917 Y104.102 E25.53901
G1 X145.312 Y103.882 E25.59045
G1 X144.738 Y103.626 E25.64067
G1 X144.171 Y103.324 E25.692
G1 X143.617 Y102.978 E25.74419
G1 X143.099 Y102.602 E25.79533
G1 X142.604 Y102.186 E25.847
G1 X142.142 Y101.74 E25.89831
G1 X141.714 Y101.265 E25.9494
G1 X141.319 Y100.76 E26.00063
G1 X140.965 Y100.234 E26.05129
G1 X140.634 Y99.662 E26.1041
G1 X140.358 Y99.096 E26.15441
G1 X140.113 Y98.489 E26.20672
G1 X139.917 Y97.886 E26.25738
G1 X139.762 Y97.26 E26.30891
G1 X139.65 Y96.63 E26.36004
G1 X139.583 Y95.983 E26.41201
G1 X139.56 Y95.346 E26.46294
G1 X139.583 Y94.71 E26.5138
G1 X139.65 Y94.064 E26.56569
G1 X139.761 Y93.433 E26.61689
G1 X139.918 Y92.804 E26.66869
G1 X140.116 Y92.195 E26.71986
G1 X140.356 Y91.601 E26.77105
G1 X140.633 Y91.033 E26.82154
G1 X140.966 Y90.458 E26.87464
G0 F6000 X140.517 Y90.179
G1 F1200 X140.882 Y89.637 E26.92685
G1 X141.322 Y89.074 E26.98394
G1 X141.754 Y88.592 E27.03566
G1 X142.26 Y88.103 E27.09189
G1 X142.76 Y87.685 E27.14396
G1 X143.335 Y87.267 E27.20076
G1 X143.897 Y86.918 E27.25363
G1 X144.493 Y86.6 E27.3076
G1 X145.13 Y86.315 E27.36336
G1 X145.74 Y86.094 E27.41521
G1 X146.429 Y85.897 E27.47247
G1 X147.073 Y85.759 E27.52509
G1 X147.751 Y85.665 E27.57979
G1 X148.424 Y85.617 E27.6337
G1 X149.112 Y85.617 E27.68867
G1 X149.784 Y85.665 E27.7425
