;FLAVOR:Marlin
;TIME:2441
;Filament used: 1.8913m
;Layer height: 0.16
;MINX:108.407
;MINY:117.069
;MINZ:0.28
;MAXX:187.253
;MAXY:200.123
;MAXZ:8.72
;Generated with Cura_SteamEngine 4.12.1
M140 S100
M105
M190 S100
M104 S220
M105
M109 S220
M82 ;absolute extrusion mode
G28 ; home all axes
 M117 Purge extruder
 G92 E0 ; reset extruder
 G1 Z1.0 F3000 ; move z up little to prevent scratching of surface
 G1 X2 Y20 Z0.3 F5000.0 ; move to start-line position
 G1 X2 Y200.0 Z0.3 F1500.0 E15 ; draw 1st line
 G1 X2 Y200.0 Z0.4 F5000.0 ; move to side a little
 G1 X2 Y20 Z0.4 F1500.0 E30 ; draw 2nd line
 G92 E0 ; reset extruder
 G1 Z1.0 F3000 ; move z up little to prevent scratching of surface
G92 E0
G92 E0
G1 F1500 E-5
;LAYER_COUNT:45
;LAYER:0
M107
G0 F6000 X115.514 Y121.807 Z0.28
;TYPE:SKIRT
G1 F1500 E0
G1 F1200 X116.114 Y121.264 E0.05969
G1 X116.606 Y120.891 E0.10523
G1 X118.035 Y119.89 E0.23391
G1 X118.719 Y119.459 E0.29354
G1 X119.269 Y119.177 E0.33913
G1 X120.848 Y118.44 E0.46766
G1 X121.597 Y118.135 E0.5273
G1 X122.197 Y117.949 E0.57364
G1 X123.882 Y117.499 E0.70227
G1 X124.673 Y117.329 E0.76195
G1 X125.275 Y117.254 E0.80669
G1 X127.011 Y117.101 E0.93523
G1 X127.82 Y117.069 E0.99495
G1 X128.448 Y117.101 E1.04133
G1 X130.185 Y117.254 E1.16994
G1 X130.986 Y117.364 E1.22958
G1 X131.578 Y117.499 E1.27436
G1 X133.26 Y117.948 E1.40277
G1 X134.03 Y118.195 E1.46241
G1 X134.609 Y118.439 E1.50875
G1 X136.195 Y119.179 E1.63784
G1 X136.911 Y119.556 E1.69752
G1 X137.431 Y119.892 E1.74319
G1 X138.854 Y120.889 E1.87134
G1 X139.493 Y121.386 E1.93105
G1 X139.945 Y121.805 E1.97651
G1 X141.179 Y123.039 E2.10523
G1 X141.722 Y123.639 E2.16492
G1 X142.094 Y124.129 E2.21029
G1 X143.092 Y125.553 E2.33855
G1 X143.523 Y126.238 E2.39824
G1 X143.809 Y126.796 E2.44449
G1 X144.546 Y128.379 E2.57328
G1 X144.851 Y129.128 E2.63293
G1 X144.89 Y129.253 E2.64259
G1 X153.024 Y129.253 E3.24253
G1 X153.053 Y129.199 E3.24706
G1 X153.387 Y128.683 E3.29239
G1 X154.385 Y127.258 E3.42071
G1 X154.881 Y126.619 E3.48037
G1 X155.301 Y126.166 E3.52594
G1 X156.534 Y124.933 E3.65455
G1 X157.134 Y124.39 E3.71424
G1 X157.626 Y124.017 E3.75978
G1 X159.051 Y123.019 E3.88809
G1 X159.736 Y122.588 E3.94779
G1 X160.28 Y122.308 E3.99291
G1 X161.861 Y121.569 E4.12163
G1 X162.61 Y121.263 E4.18131
G1 X163.217 Y121.076 E4.22816
G1 X164.903 Y120.626 E4.35687
G1 X165.693 Y120.456 E4.41647
G1 X166.294 Y120.381 E4.46114
G1 X168.03 Y120.228 E4.58968
G1 X168.839 Y120.196 E4.6494
G1 X169.467 Y120.228 E4.69578
G1 X171.204 Y120.381 E4.82439
G1 X172.005 Y120.491 E4.88403
G1 X172.596 Y120.626 E4.92874
G1 X174.279 Y121.075 E5.05721
G1 X175.049 Y121.321 E5.11684
G1 X175.641 Y121.571 E5.16423
G1 X177.225 Y122.313 E5.29325
G1 X177.939 Y122.692 E5.35287
G1 X178.446 Y123.019 E5.39737
G1 X179.869 Y124.015 E5.52548
G1 X180.508 Y124.511 E5.58515
G1 X180.958 Y124.928 E5.6304
G1 X182.194 Y126.162 E5.75922
G1 X182.738 Y126.761 E5.8189
G1 X183.116 Y127.26 E5.86507
G1 X184.113 Y128.684 E5.99329
G1 X184.544 Y129.369 E6.05298
G1 X184.826 Y129.918 E6.0985
G1 X185.563 Y131.498 E6.2271
G1 X185.868 Y132.247 E6.28674
G1 X186.052 Y132.844 E6.33282
G1 X186.503 Y134.531 E6.46162
G1 X186.673 Y135.322 E6.5213
G1 X186.749 Y135.926 E6.5662
G1 X186.902 Y137.66 E6.69459
G1 X186.934 Y138.468 E6.75423
G1 X186.903 Y139.096 E6.80061
G1 X186.75 Y140.835 E6.92937
G1 X186.639 Y141.637 E6.98909
G1 X186.504 Y142.23 E7.03394
G1 X186.055 Y143.911 E7.16228
G1 X185.808 Y144.681 E7.22192
G1 X185.565 Y145.258 E7.2681
G1 X184.825 Y146.845 E7.39725
G1 X184.448 Y147.56 E7.45687
G1 X184.111 Y148.082 E7.5027
G1 X183.114 Y149.505 E7.63085
G1 X182.617 Y150.144 E7.69056
G1 X182.198 Y150.596 E7.73602
G1 X180.964 Y151.83 E7.86474
G1 X180.364 Y152.373 E7.92443
G1 X179.873 Y152.746 E7.96991
G1 X178.45 Y153.743 E8.09806
G1 X177.765 Y154.173 E8.15771
G1 X177.206 Y154.46 E8.20406
G1 X177.002 Y155.025 E8.24837
G1 X176.654 Y155.755 E8.30802
G1 X176.235 Y156.448 E8.36775
G1 X175.751 Y157.095 E8.42734
G1 X175.204 Y157.691 E8.48701
G1 X174.726 Y158.12 E8.53438
G1 X175.269 Y158.618 E8.58873
G1 X175.809 Y159.22 E8.64837
G1 X176.287 Y159.873 E8.70806
G1 X176.697 Y160.57 E8.76771
G1 X177.037 Y161.304 E8.82737
G1 X177.193 Y161.752 E8.86236
G1 X177.535 Y161.912 E8.89021
G1 X178.25 Y162.29 E8.94986
G1 X178.763 Y162.622 E8.99493
G1 X180.192 Y163.623 E9.12362
G1 X180.831 Y164.119 E9.18328
G1 X181.279 Y164.534 E9.22833
G1 X182.513 Y165.766 E9.35694
G1 X183.057 Y166.365 E9.41662
G1 X183.434 Y166.862 E9.46263
G1 X184.431 Y168.285 E9.59079
G1 X184.861 Y168.97 E9.65044
G1 X185.147 Y169.526 E9.69656
G1 X185.882 Y171.104 E9.82495
G1 X186.187 Y171.853 E9.8846
G1 X186.367 Y172.436 E9.9296
G1 X186.822 Y174.13 E10.05898
G1 X186.993 Y174.921 E10.11867
G1 X187.071 Y175.537 E10.16447
G1 X187.223 Y177.267 E10.29256
G1 X187.253 Y178.075 E10.3522
G1 X187.223 Y178.698 E10.3982
G1 X187.071 Y180.432 E10.52659
G1 X186.96 Y181.233 E10.58623
G1 X186.822 Y181.839 E10.63207
G1 X186.368 Y183.53 E10.76121
G1 X186.12 Y184.3 E10.82088
G1 X185.883 Y184.862 E10.86587
G1 X185.147 Y186.443 E10.99449
G1 X184.77 Y187.159 E11.05418
G1 X184.431 Y187.685 E11.10033
G1 X183.434 Y189.108 E11.22849
G1 X182.937 Y189.747 E11.2882
G1 X182.513 Y190.204 E11.33418
G1 X181.279 Y191.436 E11.46279
G1 X180.679 Y191.978 E11.52243
G1 X180.192 Y192.347 E11.56749
G1 X178.763 Y193.348 E11.69618
G1 X178.079 Y193.779 E11.75581
G1 X177.535 Y194.058 E11.8009
G1 X175.957 Y194.796 E11.92939
G1 X175.208 Y195.102 E11.98907
G1 X174.602 Y195.29 E12.03587
G1 X172.917 Y195.74 E12.16451
G1 X172.126 Y195.91 E12.22418
G1 X171.524 Y195.985 E12.26893
G1 X169.788 Y196.138 E12.39747
G1 X168.979 Y196.17 E12.45718
G1 X168.351 Y196.138 E12.50356
G1 X166.614 Y195.985 E12.63218
G1 X165.813 Y195.875 E12.69181
G1 X165.222 Y195.74 E12.73652
G1 X163.539 Y195.291 E12.865
G1 X162.769 Y195.045 E12.92462
G1 X162.177 Y194.795 E12.97202
G1 X160.593 Y194.053 E13.10104
G1 X159.879 Y193.674 E13.16066
G1 X159.372 Y193.347 E13.20516
G1 X157.949 Y192.351 E13.33327
G1 X157.31 Y191.855 E13.39293
G1 X156.86 Y191.438 E13.43818
G1 X155.624 Y190.204 E13.567
G1 X155.08 Y189.605 E13.62669
G1 X154.703 Y189.108 E13.6727
G1 X153.706 Y187.685 E13.80085
G1 X153.276 Y187 E13.8605
G1 X153.246 Y186.941 E13.86539
G1 X144.039 Y186.941 E14.54447
G1 X143.897 Y187.472 E14.58502
G1 X143.649 Y188.242 E14.64468
G1 X143.404 Y188.824 E14.69126
G1 X142.667 Y190.401 E14.81965
G1 X142.289 Y191.116 E14.8793
G1 X141.957 Y191.63 E14.92443
G1 X140.955 Y193.061 E15.05328
G1 X140.459 Y193.7 E15.11295
G1 X140.043 Y194.149 E15.15809
G1 X138.811 Y195.383 E15.28671
G1 X138.212 Y195.927 E15.34639
G1 X137.715 Y196.304 E15.3924
G1 X136.292 Y197.301 E15.52055
G1 X135.607 Y197.731 E15.58021
G1 X135.052 Y198.017 E15.62626
G1 X133.472 Y198.753 E15.75482
G1 X132.723 Y199.058 E15.81447
G1 X132.137 Y199.238 E15.85968
G1 X130.445 Y199.692 E15.9889
G1 X129.654 Y199.863 E16.04859
G1 X129.039 Y199.941 E16.09431
G1 X127.307 Y200.093 E16.22255
G1 X126.499 Y200.123 E16.28219
G1 X125.874 Y200.092 E16.32834
G1 X124.136 Y199.939 E16.45703
G1 X123.335 Y199.829 E16.51666
G1 X122.733 Y199.691 E16.56222
G1 X121.052 Y199.24 E16.69059
G1 X120.282 Y198.992 E16.75025
G1 X119.719 Y198.755 E16.79531
G1 X118.134 Y198.017 E16.92427
G1 X117.418 Y197.64 E16.98395
G1 X116.891 Y197.3 E17.03021
G1 X115.467 Y196.302 E17.15847
G1 X114.828 Y195.806 E17.21813
G1 X114.377 Y195.387 E17.26353
G1 X113.145 Y194.155 E17.39204
G1 X112.602 Y193.555 E17.45173
G1 X112.229 Y193.063 E17.49727
G1 X111.228 Y191.634 E17.62595
G1 X110.797 Y190.95 E17.68558
G1 X110.514 Y190.399 E17.73127
G1 X109.777 Y188.819 E17.85986
G1 X109.472 Y188.07 E17.91951
G1 X109.287 Y187.472 E17.96568
G1 X108.837 Y185.788 E18.09425
G1 X108.667 Y184.997 E18.15392
G1 X108.592 Y184.394 E18.19874
G1 X108.439 Y182.66 E18.32713
G1 X108.407 Y181.852 E18.38678
G1 X108.438 Y181.224 E18.43315
G1 X108.591 Y179.485 E18.56191
G1 X108.702 Y178.683 E18.62163
G1 X108.837 Y178.09 E18.66649
G1 X109.286 Y176.409 E18.79482
G1 X109.533 Y175.639 E18.85447
G1 X109.776 Y175.062 E18.90064
G1 X110.516 Y173.475 E19.0298
G1 X110.893 Y172.76 E19.08942
G1 X111.23 Y172.238 E19.13524
G1 X112.227 Y170.815 E19.2634
G1 X112.724 Y170.176 E19.32311
G1 X113.143 Y169.724 E19.36857
G1 X114.377 Y168.49 E19.49728
G1 X114.977 Y167.947 E19.55697
G1 X115.467 Y167.575 E19.60235
G1 X116.891 Y166.577 E19.7306
G1 X117.576 Y166.146 E19.7903
G1 X118.134 Y165.86 E19.83655
G1 X119.719 Y165.122 E19.9655
G1 X120.468 Y164.817 E20.02515
G1 X121.052 Y164.637 E20.07023
G1 X122.366 Y164.284 E20.17058
G1 X122.366 Y152.604 E21.03207
G1 X122.197 Y152.559 E21.04497
G1 X121.427 Y152.312 E21.10461
G1 X120.842 Y152.065 E21.15145
G1 X119.264 Y151.327 E21.27994
G1 X118.549 Y150.949 E21.33959
G1 X118.036 Y150.617 E21.38466
G1 X116.607 Y149.616 E21.51335
G1 X115.968 Y149.12 E21.57301
G1 X115.52 Y148.705 E21.61805
G1 X114.286 Y147.473 E21.74667
G1 X113.742 Y146.874 E21.80635
G1 X113.364 Y146.375 E21.85252
G1 X112.367 Y144.951 E21.98074
G1 X111.936 Y144.266 E22.04043
G1 X111.656 Y143.721 E22.08562
G1 X110.917 Y142.139 E22.21441
G1 X110.611 Y141.39 E22.27409
G1 X110.425 Y140.787 E22.32063
G1 X109.975 Y139.102 E22.44927
G1 X109.805 Y138.311 E22.50894
G1 X109.73 Y137.709 E22.55369
G1 X109.577 Y135.975 E22.68208
G1 X109.545 Y135.167 E22.74172
G1 X109.576 Y134.539 E22.7881
G1 X109.729 Y132.8 E22.91686
G1 X109.84 Y131.998 E22.97658
G1 X109.975 Y131.404 E23.02151
G1 X110.425 Y129.72 E23.15007
G1 X110.673 Y128.95 E23.20974
G1 X110.917 Y128.369 E23.25622
G1 X111.656 Y126.787 E23.38501
G1 X112.034 Y126.072 E23.44466
G1 X112.368 Y125.556 E23.49
G1 X113.366 Y124.131 E23.61831
G1 X113.862 Y123.492 E23.67798
G1 X114.282 Y123.039 E23.72354
G1 X115.514 Y121.807 E23.85205
G0 F6000 X115.887 Y122.18
G1 F1200 X116.468 Y121.656 E23.90976
G1 X116.909 Y121.323 E23.95052
G1 X118.338 Y120.322 E24.0792
G1 X119 Y119.907 E24.13683
G1 X119.492 Y119.655 E24.1776
G1 X121.071 Y118.918 E24.30613
G1 X121.796 Y118.624 E24.36383
G1 X122.334 Y118.459 E24.40534
G1 X124.019 Y118.009 E24.53397
G1 X124.784 Y117.846 E24.59167
G1 X125.322 Y117.78 E24.63164
G1 X127.058 Y117.627 E24.76018
G1 X127.84 Y117.598 E24.8179
G1 X128.402 Y117.627 E24.85941
G1 X130.139 Y117.78 E24.98802
G1 X130.914 Y117.888 E25.04574
G1 X131.442 Y118.009 E25.08569
G1 X133.124 Y118.458 E25.2141
G1 X133.868 Y118.698 E25.27176
G1 X134.386 Y118.917 E25.31324
G1 X135.972 Y119.657 E25.44232
G1 X136.663 Y120.024 E25.50003
G1 X137.128 Y120.325 E25.54089
G1 X138.551 Y121.322 E25.66904
G1 X139.168 Y121.803 E25.72675
G1 X139.572 Y122.178 E25.7674
G1 X140.806 Y123.412 E25.89612
G1 X141.33 Y123.993 E25.95383
G1 X141.662 Y124.432 E25.99442
G1 X142.66 Y125.856 E26.12268
G1 X143.075 Y126.519 E26.18037
G1 X143.331 Y127.019 E26.2218
G1 X144.068 Y128.602 E26.3506
G1 X144.361 Y129.327 E26.40827
G1 X144.501 Y129.781 E26.44331
G1 X153.343 Y129.781 E27.09548
G1 X153.52 Y129.447 E27.12336
G1 X153.819 Y128.986 E27.16389
G1 X154.817 Y127.561 E27.29221
G1 X155.298 Y126.944 E27.34991
G1 X155.674 Y126.539 E27.39067
G1 X156.907 Y125.306 E27.51928
G1 X157.488 Y124.782 E27.57699
G1 X157.929 Y124.449 E27.61775
G1 X159.354 Y123.451 E27.74607
G1 X160.017 Y123.036 E27.80376
G1 X160.504 Y122.786 E27.84413
G1 X162.085 Y122.047 E27.97286
G1 X162.81 Y121.753 E28.03056
G1 X163.353 Y121.586 E28.07246
G1 X165.039 Y121.136 E28.20117
G1 X165.804 Y120.973 E28.25886
G1 X166.341 Y120.907 E28.29877
G1 X168.077 Y120.754 E28.42731
G1 X168.859 Y120.725 E28.48502
G1 X169.421 Y120.754 E28.52653
G1 X171.158 Y120.907 E28.65514
G1 X171.933 Y121.015 E28.71286
G1 X172.459 Y121.136 E28.75267
G1 X174.142 Y121.585 E28.88114
G1 X174.887 Y121.825 E28.93888
G1 X175.417 Y122.049 E28.98131
G1 X177.001 Y122.791 E29.11033
G1 X177.691 Y123.159 E29.16801
G1 X178.143 Y123.452 E29.20774
G1 X179.566 Y124.448 E29.33585
G1 X180.183 Y124.929 E29.39355
G1 X180.585 Y125.302 E29.434
G1 X181.821 Y126.536 E29.56282
G1 X182.346 Y127.116 E29.62053
G1 X182.684 Y127.563 E29.66186
G1 X183.681 Y128.987 E29.79008
G1 X184.096 Y129.65 E29.84777
G1 X184.347 Y130.142 E29.88851
G1 X185.084 Y131.722 E30.0171
G1 X185.378 Y132.447 E30.0748
G1 X185.542 Y132.981 E30.116
G1 X185.993 Y134.668 E30.2448
G1 X186.156 Y135.433 E30.30249
G1 X186.223 Y135.972 E30.34255
G1 X186.376 Y137.706 E30.47095
G1 X186.405 Y138.488 E30.52867
G1 X186.377 Y139.05 E30.57017
G1 X186.224 Y140.789 E30.69893
G1 X186.115 Y141.564 E30.75665
G1 X185.994 Y142.094 E30.79675
G1 X185.545 Y143.775 E30.92508
G1 X185.304 Y144.519 E30.98277
G1 X185.087 Y145.034 E31.02399
G1 X184.347 Y146.621 E31.15314
G1 X183.98 Y147.313 E31.21091
G1 X183.678 Y147.779 E31.25187
G1 X182.681 Y149.202 E31.38003
G1 X182.2 Y149.819 E31.43773
G1 X181.825 Y150.223 E31.47839
G1 X180.591 Y151.457 E31.6071
G1 X180.01 Y151.981 E31.66481
G1 X179.57 Y152.313 E31.70547
G1 X178.147 Y153.31 E31.83362
G1 X177.484 Y153.726 E31.89135
G1 X176.991 Y153.978 E31.93219
G1 X176.776 Y154.078 E31.94968
G1 X176.749 Y154.183 E31.95767
G1 X176.475 Y154.916 E32.01539
G1 X176.127 Y155.617 E32.07312
G1 X175.71 Y156.279 E32.13083
G1 X175.228 Y156.895 E32.18852
G1 X174.685 Y157.458 E32.24621
G1 X174.088 Y157.964 E32.30393
G1 X173.864 Y158.117 E32.32394
G1 X174.473 Y158.594 E32.38099
G1 X175.036 Y159.137 E32.43869
G1 X175.542 Y159.734 E32.49641
G1 X175.983 Y160.38 E32.5541
G1 X176.356 Y161.068 E32.61182
G1 X176.657 Y161.79 E32.66952
G1 X176.76 Y162.132 E32.69586
G1 X177.311 Y162.39 E32.74074
G1 X178.002 Y162.757 E32.79845
G1 X178.46 Y163.054 E32.83871
G1 X179.889 Y164.055 E32.9674
G1 X180.507 Y164.536 E33.02516
G1 X180.906 Y164.908 E33.06539
G1 X182.14 Y166.14 E33.19401
G1 X182.665 Y166.72 E33.25171
G1 X183.001 Y167.165 E33.29284
G1 X183.998 Y168.588 E33.42099
G1 X184.414 Y169.251 E33.47872
G1 X184.668 Y169.748 E33.51989
G1 X185.403 Y171.326 E33.64828
G1 X185.697 Y172.052 E33.70606
G1 X185.857 Y172.573 E33.74626
G1 X186.312 Y174.267 E33.87563
G1 X186.476 Y175.032 E33.93334
G1 X186.545 Y175.583 E33.97429
G1 X186.697 Y177.313 E34.10239
G1 X186.725 Y178.095 E34.1601
G1 X186.697 Y178.652 E34.20124
G1 X186.545 Y180.386 E34.32962
G1 X186.437 Y181.16 E34.38726
G1 X186.312 Y181.702 E34.42829
G1 X185.858 Y183.393 E34.55743
G1 X185.617 Y184.137 E34.61511
G1 X185.405 Y184.639 E34.65531
G1 X184.669 Y186.22 E34.78393
G1 X184.303 Y186.912 E34.84167
G1 X183.998 Y187.382 E34.883
G1 X183.001 Y188.805 E35.01115
G1 X182.52 Y189.422 E35.06886
G1 X182.14 Y189.83 E35.10998
G1 X180.906 Y191.062 E35.23859
G1 X180.325 Y191.586 E35.2963
G1 X179.889 Y191.915 E35.33659
G1 X178.46 Y192.916 E35.46527
G1 X177.798 Y193.331 E35.5229
G1 X177.311 Y193.58 E35.56325
G1 X175.733 Y194.318 E35.69174
G1 X175.009 Y194.613 E35.7494
G1 X174.465 Y194.78 E35.79137
G1 X172.78 Y195.23 E35.92001
G1 X172.015 Y195.393 E35.9777
G1 X171.477 Y195.459 E36.01768
G1 X169.741 Y195.612 E36.14622
G1 X168.959 Y195.641 E36.20394
G1 X168.397 Y195.612 E36.24544
G1 X166.66 Y195.459 E36.37406
G1 X165.885 Y195.351 E36.43177
G1 X165.359 Y195.23 E36.47158
G1 X163.676 Y194.781 E36.60006
G1 X162.931 Y194.541 E36.65779
G1 X162.401 Y194.317 E36.70023
G1 X160.817 Y193.575 E36.82924
G1 X160.127 Y193.207 E36.88692
G1 X159.675 Y192.914 E36.92665
G1 X158.252 Y191.918 E37.05476
G1 X157.635 Y191.437 E37.11247
G1 X157.233 Y191.064 E37.15291
G1 X155.997 Y189.83 E37.28174
G1 X155.472 Y189.25 E37.33944
G1 X155.136 Y188.805 E37.38057
G1 X154.139 Y187.382 E37.50872
G1 X153.723 Y186.719 E37.56645
G1 X153.567 Y186.413 E37.59178
G1 X143.632 Y186.413 E38.32457
G1 X143.386 Y187.335 E38.39495
G1 X143.146 Y188.08 E38.45268
G1 X142.926 Y188.6 E38.49433
G1 X142.189 Y190.177 E38.62272
G1 X141.822 Y190.868 E38.68043
G1 X141.524 Y191.327 E38.72079
G1 X140.522 Y192.758 E38.84964
G1 X140.042 Y193.375 E38.9073
G1 X139.669 Y193.776 E38.94769
G1 X138.437 Y195.01 E39.07631
G1 X137.857 Y195.535 E39.13401
G1 X137.412 Y195.871 E39.17514
G1 X135.989 Y196.868 E39.30329
G1 X135.326 Y197.284 E39.36102
G1 X134.829 Y197.538 E39.40219
G1 X133.249 Y198.274 E39.53075
G1 X132.524 Y198.568 E39.58845
G1 X132 Y198.728 E39.62886
G1 X130.308 Y199.182 E39.75808
G1 X129.543 Y199.346 E39.81578
G1 X128.993 Y199.415 E39.85667
G1 X127.261 Y199.567 E39.98491
G1 X126.479 Y199.595 E40.04262
