;FLAVOR:Marlin
;TIME:2444
;Filament used: 1.71874m
;Layer height: 0.16
;MINX:115.95
;MINY:111.643
;MINZ:0.28
;MAXX:184.73
;MAXY:182.028
;MAXZ:9.52
;Generated with Cura_SteamEngine 4.12.1
M140 S100
M105
M190 S100
M104 S220
M105
M109 S220
M82 ;absolute extrusion mode
G28 ; home all axes
 M117 Purge extruder
 G92 E0 ; reset extruder
 G1 Z1.0 F3000 ; move z up little to prevent scratching of surface
 G1 X2 Y20 Z0.3 F5000.0 ; move to start-line position
 G1 X2 Y200.0 Z0.3 F1500.0 E15 ; draw 1st line
 G1 X2 Y200.0 Z0.4 F5000.0 ; move to side a little
 G1 X2 Y20 Z0.4 F1500.0 E30 ; draw 2nd line
 G92 E0 ; reset extruder
 G1 Z1.0 F3000 ; move z up little to prevent scratching of surface
G92 E0
G92 E0
G1 F1500 E-5
;LAYER_COUNT:49
;LAYER:0
M107
G1 F300 Z0.48
G0 F6000 X119.51 Y118.093 Z0.48
;TYPE:SKIRT
G1 F300 Z0.28
G1 F1500 E0
G1 F1200 X120.131 Y117.471 E0.06483
G1 X120.73 Y116.927 E0.12451
G1 X121.227 Y116.55 E0.17052
G1 X121.935 Y116.054 E0.23428
G1 X122.62 Y115.623 E0.29397
G1 X123.17 Y115.341 E0.33956
G1 X123.965 Y114.97 E0.40427
G1 X124.714 Y114.664 E0.46395
G1 X125.304 Y114.482 E0.50949
G1 X126.142 Y114.257 E0.57349
G1 X126.932 Y114.086 E0.6331
G1 X127.543 Y114.009 E0.67853
G1 X128.414 Y113.932 E0.74302
G1 X129.223 Y113.9 E0.80274
G1 X129.851 Y113.931 E0.84911
G1 X130.716 Y114.007 E0.91316
G1 X131.518 Y114.118 E0.97288
G1 X132.123 Y114.256 E1.01865
G1 X132.972 Y114.484 E1.08348
G1 X133.742 Y114.732 E1.14315
G1 X134.312 Y114.973 E1.1888
G1 X135.102 Y115.342 E1.25311
G1 X135.818 Y115.72 E1.31283
G1 X136.335 Y116.054 E1.35822
G1 X137.043 Y116.55 E1.42198
G1 X137.682 Y117.046 E1.48165
G1 X138.139 Y117.471 E1.52768
G1 X138.757 Y118.09 E1.59219
G1 X138.901 Y118.249 E1.60802
G1 X159.915 Y118.249 E3.15796
G1 X159.97 Y118.146 E3.16657
G1 X160.3 Y117.635 E3.21144
G1 X160.796 Y116.926 E3.27526
G1 X161.292 Y116.287 E3.33492
G1 X161.724 Y115.821 E3.38179
G1 X162.346 Y115.201 E3.44657
G1 X162.947 Y114.659 E3.50626
G1 X163.427 Y114.295 E3.55069
G1 X164.139 Y113.796 E3.61482
G1 X164.824 Y113.365 E3.67451
G1 X165.376 Y113.081 E3.7203
G1 X166.167 Y112.712 E3.78468
G1 X166.916 Y112.407 E3.84433
G1 X167.505 Y112.225 E3.8898
G1 X168.343 Y112 E3.95379
G1 X169.133 Y111.829 E4.01341
G1 X169.744 Y111.752 E4.05883
G1 X170.615 Y111.675 E4.12333
G1 X171.424 Y111.643 E4.18304
G1 X172.052 Y111.674 E4.22942
G1 X172.917 Y111.75 E4.29347
G1 X173.719 Y111.861 E4.35318
G1 X174.324 Y111.999 E4.39895
G1 X175.173 Y112.227 E4.46379
G1 X175.943 Y112.475 E4.52346
G1 X176.506 Y112.712 E4.56851
G1 X177.296 Y113.08 E4.6328
G1 X178.011 Y113.458 E4.69245
G1 X178.54 Y113.799 E4.73887
G1 X179.25 Y114.297 E4.80284
G1 X179.888 Y114.794 E4.86249
G1 X180.337 Y115.21 E4.90763
G1 X180.954 Y115.827 E4.97199
G1 X181.497 Y116.427 E5.03168
G1 X181.867 Y116.914 E5.07679
G1 X182.365 Y117.624 E5.14075
G1 X182.796 Y118.309 E5.20045
G1 X183.084 Y118.869 E5.24689
G1 X183.451 Y119.657 E5.31101
G1 X183.756 Y120.406 E5.37066
G1 X183.935 Y120.985 E5.41536
G1 X184.164 Y121.836 E5.48036
G1 X184.335 Y122.627 E5.54005
G1 X184.413 Y123.245 E5.58599
G1 X184.489 Y124.108 E5.64989
G1 X184.521 Y124.916 E5.70954
G1 X184.49 Y125.541 E5.75569
G1 X184.414 Y126.408 E5.81988
G1 X184.303 Y127.209 E5.87953
G1 X184.164 Y127.818 E5.9256
G1 X183.936 Y128.666 E5.99037
G1 X183.688 Y129.436 E6.05004
G1 X183.453 Y129.993 E6.09463
G1 X183.085 Y130.784 E6.15897
G1 X182.708 Y131.5 E6.21866
G1 X182.365 Y132.032 E6.26534
G1 X181.867 Y132.742 E6.32931
G1 X181.37 Y133.38 E6.38896
G1 X180.954 Y133.829 E6.43411
G1 X180.338 Y134.445 E6.49836
G1 X179.738 Y134.988 E6.55805
G1 X179.694 Y135.021 E6.5621
G1 X179.82 Y135.377 E6.58996
G1 X180.013 Y136.162 E6.64958
G1 X180.128 Y136.963 E6.70927
G1 X180.164 Y137.725 E6.76553
G1 X180.164 Y151.415 E7.77528
G1 X180.124 Y152.223 E7.83495
G1 X180.004 Y153.023 E7.89461
G1 X179.807 Y153.807 E7.95424
G1 X179.532 Y154.568 E8.01392
G1 X179.184 Y155.298 E8.07357
G1 X179.129 Y155.389 E8.08141
G1 X179.129 Y157.779 E8.25769
G1 X179.453 Y158.006 E8.28687
G1 X180.092 Y158.502 E8.34653
G1 X180.549 Y158.927 E8.39256
G1 X181.167 Y159.546 E8.45708
G1 X181.709 Y160.146 E8.51672
G1 X182.073 Y160.625 E8.56109
G1 X182.573 Y161.337 E8.62526
G1 X183.004 Y162.021 E8.68489
G1 X183.292 Y162.582 E8.7314
G1 X183.658 Y163.367 E8.79529
G1 X183.964 Y164.116 E8.85496
G1 X184.144 Y164.698 E8.8999
G1 X184.373 Y165.549 E8.9649
G1 X184.544 Y166.34 E9.02459
G1 X184.622 Y166.958 E9.07053
G1 X184.698 Y167.821 E9.13443
G1 X184.73 Y168.629 E9.19407
G1 X184.699 Y169.253 E9.24015
G1 X184.623 Y170.121 E9.30442
G1 X184.513 Y170.922 E9.36406
G1 X184.373 Y171.532 E9.41022
G1 X184.145 Y172.38 E9.47499
G1 X183.897 Y173.15 E9.53465
G1 X183.657 Y173.717 E9.58006
G1 X183.29 Y174.503 E9.64405
G1 X182.912 Y175.219 E9.70376
G1 X182.577 Y175.737 E9.74926
G1 X182.076 Y176.452 E9.81366
G1 X181.58 Y177.091 E9.87332
G1 X181.166 Y177.538 E9.91826
G1 X180.549 Y178.156 E9.98267
G1 X179.95 Y178.7 E10.04235
G1 X179.459 Y179.072 E10.08779
G1 X178.751 Y179.569 E10.15159
G1 X178.067 Y180.001 E10.21126
G1 X177.506 Y180.289 E10.25777
G1 X176.712 Y180.659 E10.32238
G1 X175.963 Y180.964 E10.38203
G1 X175.361 Y181.149 E10.42848
G1 X174.52 Y181.373 E10.49268
G1 X173.729 Y181.543 E10.55235
G1 X173.136 Y181.617 E10.59643
G1 X172.267 Y181.694 E10.66077
G1 X171.459 Y181.726 E10.72042
G1 X170.823 Y181.694 E10.76739
G1 X169.954 Y181.617 E10.83173
G1 X169.152 Y181.506 E10.89145
G1 X168.57 Y181.373 E10.93548
G1 X167.729 Y181.149 E10.99968
G1 X166.958 Y180.903 E11.05937
G1 X166.378 Y180.659 E11.10578
G1 X165.584 Y180.289 E11.17039
G1 X164.869 Y179.912 E11.23001
G1 X164.339 Y179.569 E11.27657
G1 X163.631 Y179.072 E11.34037
G1 X162.993 Y178.575 E11.40003
G1 X162.541 Y178.156 E11.44548
G1 X161.924 Y177.538 E11.5099
G1 X161.382 Y176.938 E11.56953
G1 X161.013 Y176.452 E11.61454
G1 X160.51 Y175.734 E11.6792
G1 X160.079 Y175.049 E11.73889
G1 X160.001 Y174.897 E11.75149
G1 X141.171 Y174.897 E13.14035
G1 X140.837 Y175.527 E13.19295
G1 X140.507 Y176.038 E13.23781
G1 X140.007 Y176.752 E13.3021
G1 X139.511 Y177.391 E13.36177
G1 X139.09 Y177.845 E13.40743
G1 X138.475 Y178.46 E13.47158
G1 X137.875 Y179.003 E13.53127
G1 X137.382 Y179.377 E13.57691
G1 X136.668 Y179.877 E13.64121
G1 X135.984 Y180.307 E13.7008
G1 X135.446 Y180.584 E13.74543
G1 X134.654 Y180.955 E13.80994
G1 X133.905 Y181.262 E13.86964
G1 X133.284 Y181.453 E13.91756
G1 X132.445 Y181.676 E13.98159
G1 X131.654 Y181.845 E14.04125
G1 X131.065 Y181.919 E14.08504
G1 X130.195 Y181.996 E14.14946
G1 X129.386 Y182.028 E14.20917
G1 X128.751 Y181.996 E14.25607
G1 X127.881 Y181.919 E14.32049
G1 X127.08 Y181.808 E14.38013
G1 X126.501 Y181.676 E14.42394
G1 X125.662 Y181.453 E14.48797
G1 X124.891 Y181.207 E14.54766
G1 X124.292 Y180.955 E14.59559
G1 X123.5 Y180.584 E14.6601
G1 X122.786 Y180.205 E14.71972
G1 X122.278 Y179.877 E14.76432
G1 X121.564 Y179.377 E14.82861
G1 X120.925 Y178.881 E14.88828
G1 X120.471 Y178.46 E14.93394
G1 X119.855 Y177.844 E14.9982
G1 X119.312 Y177.244 E15.05788
G1 X118.942 Y176.757 E15.103
G1 X118.444 Y176.047 E15.16696
G1 X118.013 Y175.362 E15.22665
G1 X117.724 Y174.799 E15.27333
G1 X117.356 Y174.008 E15.33768
G1 X117.051 Y173.259 E15.39733
G1 X116.873 Y172.681 E15.44194
G1 X116.645 Y171.833 E15.5067
G1 X116.474 Y171.042 E15.56639
G1 X116.396 Y170.426 E15.61219
G1 X116.32 Y169.563 E15.67609
G1 X116.288 Y168.755 E15.73573
G1 X116.319 Y168.13 E15.78189
G1 X116.395 Y167.263 E15.84608
G1 X116.506 Y166.462 E15.90573
G1 X116.645 Y165.853 E15.9518
G1 X116.873 Y165.005 E16.01657
G1 X117.121 Y164.235 E16.07623
G1 X117.356 Y163.678 E16.12082
G1 X117.724 Y162.887 E16.18517
G1 X118.101 Y162.171 E16.24485
G1 X118.444 Y161.639 E16.29154
G1 X118.942 Y160.929 E16.35551
G1 X119.439 Y160.291 E16.41516
G1 X119.855 Y159.842 E16.4603
G1 X120.472 Y159.225 E16.52466
G1 X120.871 Y158.864 E16.56435
G1 X120.871 Y137.343 E18.15169
G1 X120.583 Y137.119 E18.1786
G1 X120.131 Y136.7 E18.22406
G1 X119.514 Y136.082 E18.28847
G1 X118.972 Y135.482 E18.34811
G1 X118.605 Y134.998 E18.39291
G1 X118.103 Y134.282 E18.45741
G1 X117.672 Y133.598 E18.51704
G1 X117.393 Y133.055 E18.56206
G1 X117.023 Y132.265 E18.62641
G1 X116.716 Y131.517 E18.68604
G1 X116.525 Y130.899 E18.73375
G1 X116.302 Y130.061 E18.79771
G1 X116.133 Y129.27 E18.85737
G1 X116.059 Y128.678 E18.90138
G1 X115.982 Y127.809 E18.96572
G1 X115.95 Y127.001 E19.02537
G1 X115.982 Y126.367 E19.07219
G1 X116.059 Y125.495 E19.13676
G1 X116.17 Y124.694 E19.1964
G1 X116.301 Y124.115 E19.24018
G1 X116.523 Y123.279 E19.30398
G1 X116.769 Y122.508 E19.36367
G1 X117.023 Y121.905 E19.41194
G1 X117.398 Y121.105 E19.4771
G1 X117.777 Y120.391 E19.53672
G1 X118.109 Y119.878 E19.5818
G1 X118.603 Y119.174 E19.64523
G1 X119.1 Y118.536 E19.70488
G1 X119.51 Y118.093 E19.7494
G0 F6000 X119.884 Y118.466
G1 F1200 X120.505 Y117.844 E19.81423
G1 X121.085 Y117.319 E19.87193
G1 X121.53 Y116.983 E19.91306
G1 X122.238 Y116.487 E19.97682
G1 X122.901 Y116.071 E20.03455
G1 X123.393 Y115.819 E20.07532
G1 X124.188 Y115.448 E20.14003
G1 X124.913 Y115.154 E20.19773
G1 X125.441 Y114.992 E20.23847
G1 X126.279 Y114.767 E20.30247
G1 X127.044 Y114.603 E20.36017
G1 X127.59 Y114.535 E20.40076
G1 X128.461 Y114.458 E20.46525
G1 X129.243 Y114.429 E20.52297
G1 X129.805 Y114.457 E20.56447
G1 X130.67 Y114.533 E20.62852
G1 X131.445 Y114.642 E20.68624
G1 X131.986 Y114.766 E20.72718
G1 X132.835 Y114.994 E20.79202
G1 X133.579 Y115.235 E20.8497
G1 X134.089 Y115.451 E20.89055
G1 X134.879 Y115.82 E20.95486
G1 X135.57 Y116.187 E21.01257
G1 X136.032 Y116.487 E21.0532
G1 X136.74 Y116.983 E21.11696
G1 X137.357 Y117.464 E21.17467
G1 X137.765 Y117.844 E21.21579
G1 X138.383 Y118.463 E21.28031
G1 X138.666 Y118.777 E21.31148
G1 X160.234 Y118.777 E22.90229
G1 X160.437 Y118.394 E22.93426
G1 X160.733 Y117.937 E22.97442
G1 X161.229 Y117.228 E23.03824
G1 X161.709 Y116.611 E23.0959
G1 X162.097 Y116.195 E23.13786
G1 X162.719 Y115.575 E23.20263
G1 X163.301 Y115.051 E23.2604
G1 X163.73 Y114.727 E23.30005
G1 X164.442 Y114.228 E23.36418
G1 X165.105 Y113.813 E23.42187
G1 X165.599 Y113.56 E23.4628
G1 X166.39 Y113.191 E23.52718
G1 X167.115 Y112.897 E23.58489
G1 X167.642 Y112.735 E23.62555
G1 X168.48 Y112.51 E23.68955
G1 X169.245 Y112.346 E23.74726
G1 X169.791 Y112.278 E23.78784
G1 X170.662 Y112.201 E23.85233
G1 X171.444 Y112.172 E23.91005
G1 X172.006 Y112.2 E23.95155
G1 X172.871 Y112.276 E24.0156
G1 X173.646 Y112.385 E24.07333
G1 X174.187 Y112.509 E24.11426
G1 X175.036 Y112.737 E24.1791
G1 X175.78 Y112.978 E24.23678
G1 X176.283 Y113.191 E24.27707
G1 X177.073 Y113.559 E24.34135
G1 X177.764 Y113.925 E24.39903
G1 X178.236 Y114.231 E24.44052
G1 X178.946 Y114.729 E24.50448
G1 X179.563 Y115.211 E24.56223
G1 X179.964 Y115.583 E24.60258
G1 X180.581 Y116.2 E24.66694
G1 X181.105 Y116.781 E24.72464
G1 X181.435 Y117.218 E24.76503
G1 X181.933 Y117.928 E24.829
G1 X182.349 Y118.59 E24.88667
G1 X182.605 Y119.092 E24.92823
G1 X182.972 Y119.88 E24.99234
G1 X183.266 Y120.605 E25.05005
G1 X183.425 Y121.123 E25.09001
G1 X183.654 Y121.974 E25.15501
G1 X183.818 Y122.738 E25.21265
G1 X183.887 Y123.291 E25.25375
G1 X183.963 Y124.154 E25.31765
G1 X183.992 Y124.936 E25.37537
G1 X183.964 Y125.495 E25.41665
G1 X183.888 Y126.362 E25.48085
G1 X183.78 Y127.136 E25.53849
G1 X183.654 Y127.681 E25.57975
G1 X183.426 Y128.529 E25.64451
G1 X183.185 Y129.273 E25.7022
G1 X182.975 Y129.77 E25.74199
G1 X182.607 Y130.561 E25.80634
G1 X182.241 Y131.253 E25.86408
G1 X181.933 Y131.728 E25.90583
G1 X181.435 Y132.438 E25.9698
G1 X180.953 Y133.055 E26.02755
G1 X180.581 Y133.456 E26.06789
G1 X179.965 Y134.072 E26.13215
G1 X179.384 Y134.596 E26.18985
G1 X179.066 Y134.836 E26.21924
G1 X179.1 Y134.91 E26.22525
G1 X179.35 Y135.652 E26.283
G1 X179.523 Y136.415 E26.3407
G1 X179.617 Y137.191 E26.39836
G1 X179.636 Y137.725 E26.43777
G1 X179.636 Y151.415 E27.44751
G1 X179.596 Y152.196 E27.50519
G1 X179.477 Y152.97 E27.56295
G1 X179.279 Y153.726 E27.62059
G1 X179.005 Y154.459 E27.67831
G1 X178.657 Y155.16 E27.73604
G1 X178.601 Y155.249 E27.74379
G1 X178.601 Y158.054 E27.95068
G1 X179.15 Y158.439 E28.00014
G1 X179.767 Y158.92 E28.05784
G1 X180.175 Y159.3 E28.09897
G1 X180.793 Y159.919 E28.16348
G1 X181.317 Y160.5 E28.22119
G1 X181.64 Y160.928 E28.26074
G1 X182.14 Y161.64 E28.32491
G1 X182.557 Y162.303 E28.38268
G1 X182.814 Y162.805 E28.42427
G1 X183.18 Y163.59 E28.48816
G1 X183.474 Y164.315 E28.54586
G1 X183.634 Y164.836 E28.58606
G1 X183.863 Y165.687 E28.65106
G1 X184.027 Y166.451 E28.7087
G1 X184.096 Y167.004 E28.7498
G1 X184.172 Y167.867 E28.8137
G1 X184.201 Y168.649 E28.87142
G1 X184.173 Y169.207 E28.91263
G1 X184.097 Y170.075 E28.97689
G1 X183.989 Y170.85 E29.03461
G1 X183.863 Y171.395 E29.07587
G1 X183.635 Y172.243 E29.14063
G1 X183.394 Y172.987 E29.19832
G1 X183.179 Y173.494 E29.23894
G1 X182.812 Y174.28 E29.30292
G1 X182.445 Y174.971 E29.36063
G1 X182.145 Y175.434 E29.40132
G1 X181.644 Y176.149 E29.46571
G1 X181.163 Y176.766 E29.52342
G1 X180.792 Y177.165 E29.5636
G1 X180.175 Y177.783 E29.62801
G1 X179.595 Y178.308 E29.68571
G1 X179.156 Y178.64 E29.72631
G1 X178.448 Y179.137 E29.79011
G1 X177.785 Y179.553 E29.84784
G1 X177.283 Y179.811 E29.88947
G1 X176.489 Y180.181 E29.95408
G1 X175.764 Y180.474 E30.01176
G1 X175.225 Y180.639 E30.05334
G1 X174.384 Y180.863 E30.11753
G1 X173.619 Y181.026 E30.17522
G1 X173.09 Y181.091 E30.21453
G1 X172.221 Y181.168 E30.27888
G1 X171.439 Y181.197 E30.3366
G1 X170.869 Y181.168 E30.37869
G1 X170 Y181.091 E30.44304
G1 X169.226 Y180.982 E30.50069
G1 X168.706 Y180.863 E30.54004
G1 X167.865 Y180.639 E30.60423
G1 X167.12 Y180.399 E30.66196
G1 X166.601 Y180.181 E30.70348
G1 X165.807 Y179.811 E30.76809
G1 X165.116 Y179.444 E30.8258
G1 X164.642 Y179.137 E30.86745
G1 X163.934 Y178.64 E30.93125
G1 X163.318 Y178.159 E30.9889
G1 X162.915 Y177.783 E31.02955
G1 X162.298 Y177.165 E31.09396
G1 X161.774 Y176.584 E31.15167
G1 X161.446 Y176.149 E31.19185
G1 X160.943 Y175.431 E31.25651
G1 X160.527 Y174.768 E31.31425
G1 X160.323 Y174.369 E31.3473
G1 X140.84 Y174.369 E32.78432
G1 X140.738 Y174.588 E32.80214
G1 X140.37 Y175.279 E32.85988
G1 X140.074 Y175.736 E32.90004
G1 X139.574 Y176.45 E32.96433
G1 X139.093 Y177.067 E33.02204
G1 X138.717 Y177.472 E33.0628
G1 X138.102 Y178.087 E33.12695
G1 X137.521 Y178.611 E33.18465
G1 X137.08 Y178.944 E33.22541
G1 X136.366 Y179.444 E33.28971
G1 X135.703 Y179.86 E33.34744
G1 X135.222 Y180.106 E33.38728
G1 X134.43 Y180.477 E33.45179
G1 X133.705 Y180.772 E33.50952
G1 X133.149 Y180.943 E33.55243
G1 X132.31 Y181.166 E33.61646
G1 X131.544 Y181.328 E33.67421
G1 X131.018 Y181.393 E33.7133
G1 X130.148 Y181.47 E33.77772
G1 X129.366 Y181.499 E33.83544
G1 X128.798 Y181.47 E33.87739
G1 X127.928 Y181.393 E33.94181
G1 X127.153 Y181.284 E33.99953
G1 X126.636 Y181.166 E34.03864
G1 X125.797 Y180.943 E34.10268
G1 X125.053 Y180.704 E34.16031
G1 X124.516 Y180.477 E34.20331
G1 X123.724 Y180.106 E34.26782
G1 X123.034 Y179.738 E34.3255
G1 X122.58 Y179.444 E34.36539
G1 X121.866 Y178.944 E34.42969
G1 X121.249 Y178.463 E34.48739
G1 X120.844 Y178.087 E34.52815
G1 X120.228 Y177.471 E34.5924
G1 X119.704 Y176.89 E34.65011
G1 X119.374 Y176.453 E34.6905
G1 X118.876 Y175.743 E34.75447
G1 X118.46 Y175.081 E34.81214
G1 X118.202 Y174.576 E34.85396
G1 X117.834 Y173.785 E34.91831
G1 X117.541 Y173.06 E34.97599
G1 X117.383 Y172.544 E35.01579
G1 X117.155 Y171.696 E35.08056
G1 X116.99 Y170.931 E35.13828
G1 X116.922 Y170.38 E35.17923
G1 X116.846 Y169.517 E35.24313
G1 X116.817 Y168.735 E35.30085
G1 X116.845 Y168.176 E35.34213
G1 X116.921 Y167.309 E35.40632
G1 X117.029 Y166.535 E35.46396
G1 X117.155 Y165.99 E35.50522
G1 X117.383 Y165.142 E35.56999
G1 X117.624 Y164.398 E35.62767
G1 X117.834 Y163.901 E35.66747
G1 X118.202 Y163.11 E35.73181
G1 X118.568 Y162.418 E35.78955
G1 X118.876 Y161.943 E35.83131
G1 X119.374 Y161.233 E35.89527
G1 X119.856 Y160.616 E35.95302
G1 X120.228 Y160.215 E35.99337
G1 X120.845 Y159.598 E36.05773
G1 X121.399 Y159.098 E36.11277
G1 X121.399 Y137.086 E37.73632
G1 X120.908 Y136.703 E37.78225
G1 X120.505 Y136.327 E37.82291
G1 X119.888 Y135.709 E37.88732
G1 X119.364 Y135.128 E37.94502
G1 X119.037 Y134.695 E37.98504
G1 X118.535 Y133.979 E38.04954
G1 X118.119 Y133.316 E38.10727
