;FLAVOR:Marlin
;TIME:802
;Filament used: 0.58968m
;Layer height: 0.16
;MINX:129.816
;MINY:133.866
;MINZ:0.28
;MAXX:170.184
;MAXY:166.134
;MAXZ:5.48
;Generated with Cura_SteamEngine 4.12.1
M140 S100
M105
M190 S100
M104 S220
M105
M109 S220
M82 ;absolute extrusion mode
G28 ; home all axes
 M117 Purge extruder
 G92 E0 ; reset extruder
 G1 Z1.0 F3000 ; move z up little to prevent scratching of surface
 G1 X2 Y20 Z0.3 F5000.0 ; move to start-line position
 G1 X2 Y200.0 Z0.3 F1500.0 E15 ; draw 1st line
 G1 X2 Y200.0 Z0.4 F5000.0 ; move to side a little
 G1 X2 Y20 Z0.4 F1500.0 E30 ; draw 2nd line
 G92 E0 ; reset extruder
 G1 Z1.0 F3000 ; move z up little to prevent scratching of surface
G92 E0
G92 E0
G1 F1500 E-5
;LAYER_COUNT:27
;LAYER:0
M107
G1 F300 Z0.48
G0 F6000 X132.368 Y138.263 Z0.48
;TYPE:SKIRT
G1 F300 Z0.28
G1 F1500 E0
G1 F1200 X132.968 Y137.72 E0.05969
G1 X133.618 Y137.239 E0.11933
G1 X134.312 Y136.824 E0.17897
G1 X135.044 Y136.48 E0.23863
G1 X135.807 Y136.21 E0.29832
G1 X136.592 Y136.017 E0.35795
G1 X137.393 Y135.902 E0.41763
G1 X138.155 Y135.866 E0.4739
G1 X152.807 Y135.866 E1.5546
G1 X152.968 Y135.72 E1.57063
G1 X153.618 Y135.239 E1.63027
G1 X154.312 Y134.824 E1.68991
G1 X155.044 Y134.48 E1.74956
G1 X155.807 Y134.21 E1.80926
G1 X156.592 Y134.017 E1.86889
G1 X157.393 Y133.902 E1.92857
G1 X158.155 Y133.866 E1.98484
G1 X161.845 Y133.866 E2.257
G1 X162.653 Y133.906 E2.31667
G1 X163.453 Y134.026 E2.37634
G1 X164.237 Y134.223 E2.43596
G1 X164.998 Y134.498 E2.49564
G1 X165.728 Y134.846 E2.55529
G1 X166.421 Y135.265 E2.61502
G1 X167.068 Y135.749 E2.67462
G1 X167.632 Y136.263 E2.7309
G1 X167.787 Y136.418 E2.74707
G1 X168.33 Y137.018 E2.80676
G1 X168.811 Y137.668 E2.8664
G1 X169.226 Y138.362 E2.92604
G1 X169.57 Y139.094 E2.9857
G1 X169.84 Y139.857 E3.04539
G1 X170.033 Y140.642 E3.10502
G1 X170.148 Y141.443 E3.1647
G1 X170.184 Y142.205 E3.22097
G1 X170.184 Y157.795 E4.37085
G1 X170.144 Y158.603 E4.43052
G1 X170.024 Y159.403 E4.49019
G1 X169.827 Y160.187 E4.54981
G1 X169.552 Y160.948 E4.60949
G1 X169.204 Y161.678 E4.66914
G1 X168.785 Y162.371 E4.72887
G1 X168.301 Y163.018 E4.78847
G1 X167.787 Y163.582 E4.84475
G1 X167.632 Y163.737 E4.86092
G1 X167.032 Y164.28 E4.9206
G1 X166.382 Y164.761 E4.98025
G1 X165.688 Y165.176 E5.03989
G1 X164.956 Y165.52 E5.09954
G1 X164.193 Y165.79 E5.15924
G1 X163.408 Y165.983 E5.21886
G1 X162.607 Y166.098 E5.27855
G1 X161.845 Y166.134 E5.33482
G1 X158.155 Y166.134 E5.60698
G1 X157.347 Y166.094 E5.66665
G1 X156.547 Y165.974 E5.72632
G1 X155.763 Y165.777 E5.78594
G1 X155.002 Y165.502 E5.84562
G1 X154.272 Y165.154 E5.90527
G1 X153.579 Y164.735 E5.965
G1 X152.932 Y164.251 E6.0246
G1 X152.804 Y164.134 E6.03739
G1 X138.155 Y164.134 E7.11786
G1 X137.347 Y164.094 E7.17753
G1 X136.547 Y163.974 E7.2372
G1 X135.763 Y163.777 E7.29682
G1 X135.002 Y163.502 E7.35651
G1 X134.272 Y163.154 E7.41615
G1 X133.579 Y162.735 E7.47588
G1 X132.932 Y162.251 E7.53548
G1 X132.368 Y161.737 E7.59176
G1 X132.213 Y161.582 E7.60793
G1 X131.67 Y160.982 E7.66762
G1 X131.189 Y160.332 E7.72726
G1 X130.774 Y159.638 E7.7869
G1 X130.43 Y158.906 E7.84656
G1 X130.16 Y158.143 E7.90625
G1 X129.967 Y157.358 E7.96588
G1 X129.852 Y156.557 E8.02556
G1 X129.816 Y155.795 E8.08183
G1 X129.816 Y144.205 E8.93668
G1 X129.856 Y143.397 E8.99635
G1 X129.976 Y142.597 E9.05602
G1 X130.173 Y141.813 E9.11564
G1 X130.448 Y141.052 E9.17532
G1 X130.796 Y140.322 E9.23497
G1 X131.215 Y139.629 E9.2947
G1 X131.699 Y138.982 E9.3543
G1 X132.213 Y138.418 E9.41058
G1 X132.368 Y138.263 E9.42675
G0 F6000 X132.741 Y138.636
G1 F1200 X133.322 Y138.112 E9.48445
G1 X133.953 Y137.65 E9.54214
G1 X134.628 Y137.255 E9.59982
G1 X135.34 Y136.93 E9.65755
G1 X136.082 Y136.68 E9.7153
G1 X136.845 Y136.507 E9.77301
G1 X137.621 Y136.413 E9.83066
G1 X138.155 Y136.394 E9.87007
G1 X153.009 Y136.394 E10.96567
G1 X153.322 Y136.112 E10.99674
G1 X153.953 Y135.65 E11.05442
G1 X154.628 Y135.255 E11.11211
G1 X155.34 Y134.93 E11.16984
G1 X156.082 Y134.68 E11.22759
G1 X156.845 Y134.507 E11.28529
G1 X157.621 Y134.413 E11.34295
G1 X158.155 Y134.394 E11.38236
G1 X161.845 Y134.394 E11.65453
G1 X162.626 Y134.434 E11.71221
G1 X163.4 Y134.553 E11.76996
G1 X164.156 Y134.751 E11.82761
G1 X164.889 Y135.025 E11.88532
G1 X165.59 Y135.373 E11.94305
G1 X166.252 Y135.79 E12.00076
G1 X166.868 Y136.272 E12.05845
G1 X167.259 Y136.636 E12.09785
G1 X167.414 Y136.791 E12.11402
G1 X167.938 Y137.372 E12.17172
G1 X168.4 Y138.003 E12.22941
G1 X168.795 Y138.678 E12.28709
G1 X169.12 Y139.39 E12.34482
G1 X169.37 Y140.132 E12.40257
G1 X169.543 Y140.895 E12.46028
G1 X169.637 Y141.671 E12.51793
G1 X169.656 Y142.205 E12.55734
G1 X169.656 Y157.795 E13.70722
G1 X169.616 Y158.576 E13.7649
G1 X169.497 Y159.35 E13.82266
G1 X169.299 Y160.106 E13.8803
G1 X169.025 Y160.839 E13.93802
G1 X168.677 Y161.54 E13.99575
G1 X168.26 Y162.202 E14.05345
G1 X167.778 Y162.818 E14.11115
G1 X167.414 Y163.209 E14.15055
G1 X167.259 Y163.364 E14.16671
G1 X166.678 Y163.888 E14.22442
G1 X166.047 Y164.35 E14.2821
G1 X165.372 Y164.745 E14.33979
G1 X164.66 Y165.07 E14.39752
G1 X163.918 Y165.32 E14.45527
G1 X163.155 Y165.493 E14.51297
G1 X162.379 Y165.587 E14.57063
G1 X161.845 Y165.606 E14.61004
G1 X158.155 Y165.606 E14.88221
G1 X157.374 Y165.566 E14.93989
G1 X156.6 Y165.447 E14.99764
G1 X155.844 Y165.249 E15.05529
G1 X155.111 Y164.975 E15.113
G1 X154.41 Y164.627 E15.17073
G1 X153.748 Y164.21 E15.22844
G1 X153.132 Y163.728 E15.28613
G1 X153.001 Y163.606 E15.29933
G1 X138.155 Y163.606 E16.39434
G1 X137.374 Y163.566 E16.45202
G1 X136.6 Y163.447 E16.50978
G1 X135.844 Y163.249 E16.56742
G1 X135.111 Y162.975 E16.62514
G1 X134.41 Y162.627 E16.68286
G1 X133.748 Y162.21 E16.74057
G1 X133.132 Y161.728 E16.79826
G1 X132.741 Y161.364 E16.83766
G1 X132.586 Y161.209 E16.85383
G1 X132.062 Y160.628 E16.91154
G1 X131.6 Y159.997 E16.96922
G1 X131.205 Y159.322 E17.0269
G1 X130.88 Y158.61 E17.08463
G1 X130.63 Y157.868 E17.14238
G1 X130.457 Y157.105 E17.20009
G1 X130.363 Y156.329 E17.25774
G1 X130.344 Y155.795 E17.29715
G1 X130.344 Y144.205 E18.152
G1 X130.384 Y143.424 E18.20968
G1 X130.503 Y142.65 E18.26744
G1 X130.701 Y141.894 E18.32509
G1 X130.975 Y141.161 E18.3828
G1 X131.323 Y140.46 E18.44053
G1 X131.74 Y139.798 E18.49824
G1 X132.222 Y139.182 E18.55593
G1 X132.586 Y138.791 E18.59533
G1 X132.741 Y138.636 E18.6115
G0 F6000 X133.115 Y139.01
G1 F1200 X133.676 Y138.505 E18.66717
G1 X134.288 Y138.062 E18.72289
G1 X134.942 Y137.687 E18.7785
G1 X135.633 Y137.383 E18.83418
G1 X136.353 Y137.154 E18.88991
G1 X137.092 Y137.002 E18.94555
G1 X138.155 Y136.922 E19.02418
G1 X153.213 Y136.922 E20.13482
G1 X153.676 Y136.505 E20.18078
G1 X154.288 Y136.062 E20.23651
G1 X154.942 Y135.687 E20.29211
G1 X155.633 Y135.383 E20.34779
G1 X156.353 Y135.154 E20.40352
G1 X157.092 Y135.002 E20.45917
G1 X158.155 Y134.922 E20.53779
G1 X161.845 Y134.922 E20.80996
G1 X162.599 Y134.962 E20.86565
G1 X163.344 Y135.081 E20.9213
G1 X164.073 Y135.279 E20.97701
G1 X164.776 Y135.553 E21.03266
G1 X165.447 Y135.899 E21.08835
G1 X166.077 Y136.314 E21.14399
G1 X166.885 Y137.01 E21.22265
G1 X167.04 Y137.165 E21.23882
G1 X167.545 Y137.726 E21.29449
G1 X167.988 Y138.338 E21.35021
G1 X168.363 Y138.992 E21.40582
G1 X168.667 Y139.683 E21.4615
G1 X168.896 Y140.403 E21.51723
G1 X169.048 Y141.142 E21.57288
G1 X169.128 Y142.205 E21.6515
G1 X169.128 Y157.795 E22.80138
G1 X169.088 Y158.549 E22.85707
G1 X168.969 Y159.294 E22.91272
G1 X168.771 Y160.023 E22.96844
G1 X168.497 Y160.726 E23.02409
G1 X168.151 Y161.397 E23.07977
G1 X167.736 Y162.027 E23.13542
G1 X167.04 Y162.835 E23.21407
G1 X166.885 Y162.99 E23.23024
G1 X166.324 Y163.495 E23.28591
G1 X165.712 Y163.938 E23.34164
G1 X165.058 Y164.313 E23.39724
G1 X164.367 Y164.617 E23.45292
G1 X163.647 Y164.846 E23.50865
G1 X162.908 Y164.998 E23.5643
G1 X161.845 Y165.078 E23.64293
G1 X158.155 Y165.078 E23.91509
G1 X157.401 Y165.038 E23.97078
G1 X156.656 Y164.919 E24.02643
G1 X155.927 Y164.721 E24.08215
G1 X155.224 Y164.447 E24.1378
G1 X154.553 Y164.101 E24.19348
G1 X153.923 Y163.686 E24.24912
G1 X153.217 Y163.078 E24.31785
G1 X138.155 Y163.078 E25.42878
G1 X137.401 Y163.038 E25.48448
G1 X136.656 Y162.919 E25.54012
G1 X135.927 Y162.721 E25.59584
G1 X135.224 Y162.447 E25.65149
G1 X134.553 Y162.101 E25.70717
G1 X133.923 Y161.686 E25.76282
G1 X133.115 Y160.99 E25.84147
G1 X132.96 Y160.835 E25.85764
G1 X132.455 Y160.274 E25.91332
G1 X132.012 Y159.662 E25.96904
G1 X131.637 Y159.008 E26.02464
G1 X131.333 Y158.317 E26.08033
G1 X131.104 Y157.597 E26.13605
G1 X130.952 Y156.858 E26.1917
G1 X130.872 Y155.795 E26.27033
G1 X130.872 Y144.205 E27.12518
G1 X130.912 Y143.451 E27.18087
G1 X131.031 Y142.706 E27.23652
G1 X131.229 Y141.977 E27.29223
G1 X131.503 Y141.274 E27.34788
G1 X131.849 Y140.603 E27.40357
G1 X132.264 Y139.973 E27.45921
G1 X132.96 Y139.165 E27.53787
G1 X133.115 Y139.01 E27.55404
G0 F6000 X133.488 Y139.383
G1 F1200 X134.029 Y138.899 E27.60758
G1 X134.62 Y138.476 E27.66118
G1 X135.254 Y138.122 E27.71474
G1 X135.923 Y137.839 E27.76832
G1 X136.619 Y137.631 E27.8219
G1 X137.334 Y137.501 E27.8755
G1 X138.155 Y137.45 E27.93617
G1 X153.421 Y137.45 E29.06215
G1 X153.488 Y137.383 E29.06914
G1 X154.029 Y136.899 E29.12268
G1 X154.62 Y136.476 E29.17629
G1 X155.254 Y136.122 E29.22985
G1 X155.923 Y135.839 E29.28342
G1 X156.619 Y135.631 E29.337
G1 X157.334 Y135.501 E29.39061
G1 X158.155 Y135.45 E29.45128
G1 X161.845 Y135.45 E29.72344
G1 X162.57 Y135.49 E29.777
G1 X163.287 Y135.609 E29.83061
G1 X163.986 Y135.807 E29.88419
G1 X164.659 Y136.08 E29.93776
G1 X165.298 Y136.425 E29.99132
G1 X165.895 Y136.839 E30.04491
G1 X166.512 Y137.383 E30.10558
G1 X166.667 Y137.538 E30.12174
G1 X167.151 Y138.079 E30.17529
G1 X167.574 Y138.67 E30.22889
G1 X167.928 Y139.304 E30.28245
G1 X168.211 Y139.973 E30.33603
G1 X168.419 Y140.669 E30.3896
G1 X168.549 Y141.384 E30.44321
G1 X168.6 Y142.205 E30.50388
G1 X168.6 Y157.795 E31.65376
G1 X168.56 Y158.52 E31.70732
G1 X168.441 Y159.237 E31.76092
G1 X168.243 Y159.936 E31.81451
G1 X167.97 Y160.609 E31.86808
G1 X167.625 Y161.248 E31.92164
G1 X167.211 Y161.845 E31.97522
G1 X166.667 Y162.462 E32.03589
G1 X166.512 Y162.617 E32.05206
G1 X165.971 Y163.101 E32.1056
G1 X165.38 Y163.524 E32.15921
G1 X164.746 Y163.878 E32.21277
G1 X164.077 Y164.161 E32.26634
G1 X163.381 Y164.369 E32.31992
G1 X162.666 Y164.499 E32.37352
G1 X161.845 Y164.55 E32.4342
G1 X158.155 Y164.55 E32.70636
G1 X157.43 Y164.51 E32.75992
G1 X156.713 Y164.391 E32.81352
G1 X156.014 Y164.193 E32.86711
G1 X155.341 Y163.92 E32.92068
G1 X154.702 Y163.575 E32.97424
G1 X154.105 Y163.161 E33.02782
G1 X153.488 Y162.617 E33.0885
G1 X153.421 Y162.55 E33.09548
G1 X138.155 Y162.55 E34.22147
G1 X137.43 Y162.51 E34.27502
G1 X136.713 Y162.391 E34.32863
G1 X136.014 Y162.193 E34.38222
G1 X135.341 Y161.92 E34.43578
G1 X134.702 Y161.575 E34.48935
G1 X134.105 Y161.161 E34.54293
G1 X133.488 Y160.617 E34.6036
G1 X133.333 Y160.462 E34.61977
G1 X132.849 Y159.921 E34.67331
G1 X132.426 Y159.33 E34.72692
G1 X132.072 Y158.696 E34.78047
G1 X131.789 Y158.027 E34.83405
G1 X131.581 Y157.331 E34.88763
G1 X131.451 Y156.616 E34.94123
G1 X131.4 Y155.795 E35.0019
G1 X131.4 Y144.205 E35.85676
G1 X131.44 Y143.48 E35.91031
G1 X131.559 Y142.763 E35.96392
G1 X131.757 Y142.064 E36.0175
G1 X132.03 Y141.391 E36.07107
G1 X132.375 Y140.752 E36.12463
G1 X132.789 Y140.155 E36.17822
G1 X133.333 Y139.538 E36.23889
G1 X133.488 Y139.383 E36.25506
G0 F6000 X133.861 Y139.756
G1 F1200 X134.382 Y139.293 E36.30647
G1 X134.951 Y138.892 E36.35781
G1 X135.563 Y138.559 E36.4092
G1 X136.209 Y138.298 E36.46059
G1 X136.881 Y138.113 E36.512
G1 X137.569 Y138.006 E36.56335
G1 X138.155 Y137.978 E36.60662
G1 X153.645 Y137.978 E37.74913
G1 X153.861 Y137.756 E37.77198
G1 X154.382 Y137.293 E37.82339
G1 X154.951 Y136.892 E37.87473
G1 X155.563 Y136.559 E37.92612
G1 X156.209 Y136.298 E37.97751
G1 X156.881 Y136.113 E38.02892
G1 X157.569 Y136.006 E38.08027
G1 X158.155 Y135.978 E38.12354
G1 X161.845 Y135.978 E38.39571
G1 X162.541 Y136.018 E38.44713
G1 X163.227 Y136.137 E38.49848
G1 X163.895 Y136.335 E38.54987
G1 X164.536 Y136.607 E38.60123
G1 X165.142 Y136.951 E38.65263
G1 X165.704 Y137.362 E38.70398
G1 X166.139 Y137.756 E38.74727
G1 X166.294 Y137.911 E38.76344
G1 X166.757 Y138.432 E38.81485
G1 X167.158 Y139.001 E38.86619
G1 X167.491 Y139.613 E38.91758
G1 X167.752 Y140.259 E38.96897
G1 X167.937 Y140.931 E39.02038
G1 X168.044 Y141.619 E39.07173
G1 X168.072 Y142.205 E39.115
G1 X168.072 Y157.795 E40.26489
G1 X168.032 Y158.491 E40.31631
G1 X167.913 Y159.177 E40.36766
G1 X167.715 Y159.845 E40.41905
G1 X167.443 Y160.486 E40.47041
G1 X167.099 Y161.092 E40.5218
G1 X166.688 Y161.654 E40.57316
G1 X166.294 Y162.089 E40.61645
G1 X166.139 Y162.244 E40.63261
G1 X165.618 Y162.707 E40.68402
G1 X165.049 Y163.108 E40.73537
G1 X164.437 Y163.441 E40.78676
G1 X163.791 Y163.702 E40.83815
G1 X163.119 Y163.887 E40.88955
G1 X162.431 Y163.994 E40.94091
G1 X161.845 Y164.022 E40.98418
G1 X158.155 Y164.022 E41.25635
G1 X157.459 Y163.982 E41.30777
G1 X156.773 Y163.863 E41.35912
G1 X156.105 Y163.665 E41.41051
G1 X155.464 Y163.393 E41.46187
G1 X154.858 Y163.049 E41.51327
G1 X154.296 Y162.638 E41.56462
G1 X153.861 Y162.244 E41.60791
G1 X153.646 Y162.022 E41.6307
G1 X138.155 Y162.022 E42.77328
G1 X137.459 Y161.982 E42.8247
G1 X136.773 Y161.863 E42.87606
G1 X136.105 Y161.665 E42.92744
G1 X135.464 Y161.393 E42.9788
G1 X134.858 Y161.049 E43.0302
G1 X134.296 Y160.638 E43.08155
G1 X133.861 Y160.244 E43.12484
G1 X133.706 Y160.089 E43.14101
G1 X133.243 Y159.568 E43.19242
G1 X132.842 Y158.999 E43.24376
G1 X132.509 Y158.387 E43.29515
G1 X132.248 Y157.741 E43.34654
G1 X132.063 Y157.069 E43.39795
G1 X131.956 Y156.381 E43.44931
G1 X131.928 Y155.795 E43.49258
G1 X131.928 Y144.205 E44.34743
G1 X131.968 Y143.509 E44.39885
G1 X132.087 Y142.823 E44.4502
G1 X132.285 Y142.155 E44.50159
G1 X132.557 Y141.514 E44.55295
G1 X132.901 Y140.908 E44.60435
G1 X133.312 Y140.346 E44.6557
G1 X133.706 Y139.911 E44.69899
G1 X133.861 Y139.756 E44.71516
G0 F6000 X134.235 Y140.13
G1 F1200 X134.733 Y139.688 E44.76427
G1 X135.28 Y139.309 E44.81335
G1 X135.869 Y138.999 E44.86245
G1 X136.491 Y138.762 E44.91154
G1 X137.137 Y138.6 E44.96066
G1 X137.797 Y138.518 E45.00972
G1 X138.155 Y138.506 E45.03614
G1 X153.873 Y138.506 E46.19546
G1 X154.08 Y138.285 E46.2178
G1 X154.235 Y138.13 E46.23396
G1 X154.733 Y137.688 E46.28308
G1 X155.28 Y137.309 E46.33216
G1 X155.869 Y136.999 E46.38125
G1 X156.491 Y136.762 E46.43035
G1 X157.137 Y136.6 E46.47947
G1 X157.797 Y136.518 E46.52852
G1 X158.155 Y136.506 E46.55494
G1 X161.845 Y136.506 E46.82711
G1 X162.509 Y136.546 E46.87617
G1 X163.164 Y136.665 E46.92528
G1 X163.8 Y136.862 E46.97439
G1 X164.408 Y137.134 E47.02351
G1 X164.979 Y137.477 E47.07264
G1 X165.504 Y137.885 E47.12168
G1 X165.765 Y138.13 E47.14809
G1 X165.92 Y138.285 E47.16426
G1 X166.362 Y138.783 E47.21337
G1 X166.741 Y139.33 E47.26245
G1 X167.051 Y139.919 E47.31154
G1 X167.288 Y140.541 E47.36064
G1 X167.45 Y141.187 E47.40976
G1 X167.532 Y141.847 E47.45882
G1 X167.544 Y142.205 E47.48524
G1 X167.544 Y157.795 E48.63512
G1 X167.504 Y158.459 E48.68418
G1 X167.385 Y159.114 E48.73328
G1 X167.188 Y159.75 E48.78239
G1 X166.916 Y160.358 E48.83152
G1 X166.573 Y160.929 E48.88065
G1 X166.165 Y161.454 E48.92969
G1 X165.92 Y161.715 E48.9561
G1 X165.765 Y161.87 E48.97226
G1 X165.267 Y162.312 E49.02138
G1 X164.72 Y162.691 E49.07046
G1 X164.131 Y163.001 E49.11955
G1 X163.509 Y163.238 E49.16865
G1 X162.863 Y163.4 E49.21777
G1 X162.203 Y163.482 E49.26682
G1 X161.845 Y163.494 E49.29324
G1 X158.155 Y163.494 E49.56541
G1 X157.491 Y163.454 E49.61447
G1 X156.836 Y163.335 E49.66358
G1 X156.2 Y163.138 E49.71268
G1 X155.592 Y162.866 E49.76181
G1 X155.021 Y162.523 E49.81094
G1 X154.496 Y162.115 E49.85998
G1 X154.235 Y161.87 E49.88639
G1 X154.08 Y161.715 E49.90256
G1 X153.884 Y161.494 E49.92434
G1 X138.155 Y161.494 E51.08448
G1 X137.491 Y161.454 E51.13354
G1 X136.836 Y161.335 E51.18264
G1 X136.2 Y161.138 E51.23175
G1 X135.592 Y160.866 E51.28088
G1 X135.021 Y160.523 E51.33001
G1 X134.496 Y160.115 E51.37905
G1 X134.235 Y159.87 E51.40545
G1 X134.08 Y159.715 E51.42162
G1 X133.638 Y159.217 E51.47073
