;FLAVOR:Marlin
;TIME:804
;Filament used: 0.573073m
;Layer height: 0.16
;MINX:129.816
;MINY:133.967
;MINZ:0.28
;MAXX:170.184
;MAXY:166.032
;MAXZ:5.4
;Generated with Cura_SteamEngine 4.12.1
M140 S100
M105
M190 S100
M104 S220
M105
M109 S220
M82 ;absolute extrusion mode
G28 ; home all axes
 M117 Purge extruder
 G92 E0 ; reset extruder
 G1 Z1.0 F3000 ; move z up little to prevent scratching of surface
 G1 X2 Y20 Z0.3 F5000.0 ; move to start-line position
 G1 X2 Y200.0 Z0.3 F1500.0 E15 ; draw 1st line
 G1 X2 Y200.0 Z0.4 F5000.0 ; move to side a little
 G1 X2 Y20 Z0.4 F1500.0 E30 ; draw 2nd line
 G92 E0 ; reset extruder
 G1 Z1.0 F3000 ; move z up little to prevent scratching of surface
G92 E0
G92 E0
G1 F1500 E-5
;LAYER_COUNT:28
;LAYER:0
M107
G1 F300 Z0.48
G0 F6000 X132.368 Y138.364 Z0.48
;TYPE:SKIRT
G1 F300 Z0.28
G1 F1500 E0
G1 F1200 X132.968 Y137.821 E0.05969
G1 X133.618 Y137.34 E0.11933
G1 X134.312 Y136.925 E0.17897
G1 X135.044 Y136.581 E0.23863
G1 X135.807 Y136.311 E0.29832
G1 X136.592 Y136.118 E0.35795
G1 X137.393 Y136.003 E0.41763
G1 X138.156 Y135.967 E0.47397
G1 X152.991 Y135.969 E1.56817
G1 X153.33 Y135.691 E1.6005
G1 X154.003 Y135.242 E1.66018
G1 X154.963 Y134.75 E1.73974
G1 X155.197 Y134.649 E1.75854
G1 X155.954 Y134.366 E1.81815
G1 X156.782 Y134.149 E1.88128
G1 X156.84 Y134.137 E1.88565
G1 X157.639 Y134.012 E1.9453
G1 X158.503 Y133.967 E2.00911
G1 X161.85 Y133.969 E2.25598
G1 X162.658 Y134.009 E2.31565
G1 X163.458 Y134.129 E2.37531
G1 X164.242 Y134.328 E2.43497
G1 X165.003 Y134.603 E2.49466
G1 X165.733 Y134.951 E2.5543
G1 X166.425 Y135.37 E2.61397
G1 X167.072 Y135.855 E2.67361
G1 X167.632 Y136.366 E2.72953
G1 X167.787 Y136.521 E2.7457
G1 X168.33 Y137.121 E2.80538
G1 X168.811 Y137.771 E2.86502
G1 X169.226 Y138.465 E2.92467
G1 X169.57 Y139.197 E2.98432
G1 X169.84 Y139.96 E3.04402
G1 X170.033 Y140.745 E3.10364
G1 X170.148 Y141.546 E3.16333
G1 X170.184 Y142.308 E3.21959
G1 X170.184 Y157.693 E4.35436
G1 X170.144 Y158.501 E4.41402
G1 X170.024 Y159.301 E4.47369
G1 X169.827 Y160.085 E4.53331
G1 X169.552 Y160.846 E4.593
G1 X169.204 Y161.576 E4.65264
G1 X168.785 Y162.269 E4.71238
G1 X168.301 Y162.916 E4.77197
G1 X167.787 Y163.48 E4.82825
G1 X167.632 Y163.635 E4.84442
G1 X167.032 Y164.178 E4.90411
G1 X166.382 Y164.659 E4.96375
G1 X165.688 Y165.074 E5.02339
G1 X164.956 Y165.418 E5.08305
G1 X164.193 Y165.688 E5.14274
G1 X163.408 Y165.881 E5.20237
G1 X162.607 Y165.996 E5.26205
G1 X161.845 Y166.032 E5.31832
G1 X158.502 Y166.032 E5.56489
G1 X157.694 Y165.992 E5.62456
G1 X157.1 Y165.911 E5.66878
G1 X157.054 Y165.903 E5.67222
G1 X156.265 Y165.725 E5.73188
G1 X155.824 Y165.589 E5.76592
G1 X155.615 Y165.518 E5.7822
G1 X154.862 Y165.22 E5.84193
G1 X154.143 Y164.85 E5.90157
G1 X153.464 Y164.41 E5.96125
G1 X152.996 Y164.032 E6.00562
G1 X138.156 Y164.033 E7.10018
G1 X137.348 Y163.993 E7.15985
G1 X136.548 Y163.874 E7.21951
G1 X135.764 Y163.676 E7.27915
G1 X135.003 Y163.401 E7.33883
G1 X134.272 Y163.053 E7.39855
G1 X133.58 Y162.635 E7.45818
G1 X132.933 Y162.15 E7.51782
G1 X132.368 Y161.636 E7.57416
G1 X132.213 Y161.481 E7.59032
G1 X131.67 Y160.881 E7.65001
G1 X131.189 Y160.231 E7.70965
G1 X130.774 Y159.537 E7.76929
G1 X130.43 Y158.805 E7.82895
G1 X130.16 Y158.042 E7.88865
G1 X129.967 Y157.257 E7.94827
G1 X129.852 Y156.456 E8.00796
G1 X129.816 Y155.694 E8.06422
G1 X129.816 Y144.306 E8.90417
G1 X129.856 Y143.498 E8.96384
G1 X129.976 Y142.698 E9.02351
G1 X130.173 Y141.914 E9.08313
G1 X130.448 Y141.153 E9.14281
G1 X130.796 Y140.423 E9.20246
G1 X131.215 Y139.73 E9.26219
G1 X131.699 Y139.083 E9.32179
G1 X132.213 Y138.519 E9.37807
G1 X132.368 Y138.364 E9.39424
G0 F6000 X132.741 Y138.737
G1 F1200 X133.322 Y138.213 E9.45195
G1 X133.953 Y137.751 E9.50963
G1 X134.628 Y137.356 E9.56731
G1 X135.34 Y137.031 E9.62504
G1 X136.082 Y136.781 E9.68279
G1 X136.845 Y136.608 E9.7405
G1 X137.621 Y136.514 E9.79815
G1 X138.156 Y136.495 E9.83764
G1 X153.178 Y136.497 E10.94563
G1 X153.686 Y136.085 E10.99387
G1 X154.34 Y135.656 E11.05156
G1 X155.172 Y135.235 E11.12033
G1 X155.406 Y135.134 E11.13913
G1 X156.139 Y134.861 E11.19682
G1 X156.889 Y134.666 E11.25398
G1 X156.947 Y134.654 E11.25835
G1 X157.72 Y134.535 E11.31604
G1 X158.503 Y134.495 E11.37386
G1 X161.85 Y134.497 E11.62073
G1 X162.631 Y134.537 E11.67841
G1 X163.404 Y134.657 E11.73611
G1 X164.161 Y134.856 E11.79384
G1 X164.893 Y135.13 E11.85149
G1 X165.594 Y135.478 E11.90922
G1 X166.256 Y135.895 E11.96692
G1 X166.872 Y136.378 E12.02466
G1 X167.259 Y136.739 E12.06369
G1 X167.414 Y136.894 E12.07986
G1 X167.938 Y137.475 E12.13757
G1 X168.4 Y138.106 E12.19525
G1 X168.795 Y138.781 E12.25294
G1 X169.12 Y139.493 E12.31066
G1 X169.37 Y140.235 E12.36841
G1 X169.543 Y140.998 E12.42612
G1 X169.637 Y141.774 E12.48377
G1 X169.656 Y142.308 E12.52319
G1 X169.656 Y157.693 E13.65795
G1 X169.616 Y158.474 E13.71563
G1 X169.497 Y159.248 E13.77339
G1 X169.299 Y160.004 E13.83103
G1 X169.025 Y160.737 E13.88875
G1 X168.677 Y161.438 E13.94647
G1 X168.26 Y162.1 E14.00418
G1 X167.778 Y162.716 E14.06187
G1 X167.414 Y163.107 E14.10127
G1 X167.259 Y163.262 E14.11744
G1 X166.678 Y163.786 E14.17515
G1 X166.047 Y164.248 E14.23283
G1 X165.372 Y164.643 E14.29051
G1 X164.66 Y164.968 E14.34824
G1 X163.918 Y165.218 E14.40599
G1 X163.155 Y165.391 E14.4637
G1 X162.379 Y165.485 E14.52135
G1 X161.845 Y165.504 E14.56076
G1 X158.502 Y165.504 E14.80734
G1 X157.721 Y165.464 E14.86502
G1 X157.19 Y165.391 E14.90455
G1 X157.144 Y165.383 E14.90799
G1 X156.381 Y165.21 E14.9657
G1 X155.993 Y165.089 E14.99568
G1 X155.784 Y165.018 E15.01196
G1 X155.057 Y164.729 E15.06966
G1 X154.364 Y164.367 E15.12733
G1 X153.711 Y163.936 E15.18504
G1 X153.181 Y163.503 E15.23552
G1 X138.156 Y163.505 E16.34372
G1 X137.374 Y163.465 E16.40148
G1 X136.601 Y163.346 E16.45916
G1 X135.844 Y163.148 E16.51688
G1 X135.111 Y162.874 E16.5746
G1 X134.41 Y162.527 E16.63229
G1 X133.748 Y162.11 E16.69
G1 X133.133 Y161.627 E16.74767
G1 X132.741 Y161.263 E16.78713
G1 X132.586 Y161.108 E16.8033
G1 X132.062 Y160.527 E16.861
G1 X131.6 Y159.896 E16.91869
G1 X131.205 Y159.221 E16.97637
G1 X130.88 Y158.509 E17.0341
G1 X130.63 Y157.767 E17.09185
G1 X130.457 Y157.004 E17.14956
G1 X130.363 Y156.228 E17.20721
G1 X130.344 Y155.694 E17.24662
G1 X130.344 Y144.306 E18.08657
G1 X130.384 Y143.525 E18.14425
G1 X130.503 Y142.751 E18.20201
G1 X130.701 Y141.995 E18.25965
G1 X130.975 Y141.262 E18.31737
G1 X131.323 Y140.561 E18.3751
G1 X131.74 Y139.899 E18.4328
G1 X132.222 Y139.283 E18.4905
G1 X132.586 Y138.892 E18.5299
G1 X132.741 Y138.737 E18.54607
G0 F6000 X133.115 Y139.111
G1 F1200 X133.676 Y138.606 E18.60174
G1 X134.288 Y138.163 E18.65746
G1 X134.942 Y137.788 E18.71307
G1 X135.633 Y137.484 E18.76875
G1 X136.353 Y137.255 E18.82448
G1 X137.092 Y137.103 E18.88012
G1 X138.156 Y137.023 E18.95882
G1 X153.379 Y137.025 E20.08164
G1 X153.452 Y136.953 E20.0892
G1 X154.041 Y136.48 E20.14492
G1 X154.676 Y136.072 E20.20059
G1 X155.381 Y135.72 E20.25871
G1 X155.615 Y135.619 E20.27751
G1 X156.323 Y135.357 E20.33319
G1 X156.996 Y135.183 E20.38446
G1 X157.054 Y135.171 E20.38883
G1 X157.8 Y135.057 E20.44449
G1 X158.502 Y135.023 E20.49633
G1 X161.849 Y135.025 E20.74319
G1 X162.603 Y135.065 E20.79889
G1 X163.348 Y135.185 E20.85454
G1 X164.077 Y135.383 E20.91026
G1 X164.78 Y135.657 E20.96591
G1 X165.451 Y136.004 E21.02163
G1 X166.081 Y136.42 E21.07731
G1 X166.885 Y137.113 E21.1556
G1 X167.04 Y137.268 E21.17177
G1 X167.545 Y137.829 E21.22744
G1 X167.988 Y138.441 E21.28317
G1 X168.363 Y139.095 E21.33877
G1 X168.667 Y139.786 E21.39445
G1 X168.896 Y140.506 E21.45018
G1 X169.048 Y141.245 E21.50583
G1 X169.128 Y142.308 E21.58446
G1 X169.128 Y157.693 E22.71922
G1 X169.088 Y158.447 E22.77491
G1 X168.969 Y159.192 E22.83055
G1 X168.771 Y159.921 E22.88627
G1 X168.497 Y160.624 E22.94192
G1 X168.151 Y161.295 E22.99761
G1 X167.736 Y161.925 E23.05325
G1 X167.04 Y162.733 E23.13191
G1 X166.885 Y162.888 E23.14808
G1 X166.324 Y163.393 E23.20375
G1 X165.712 Y163.836 E23.25947
G1 X165.058 Y164.211 E23.31508
G1 X164.367 Y164.515 E23.37076
G1 X163.647 Y164.744 E23.42649
G1 X162.908 Y164.896 E23.48213
G1 X161.845 Y164.976 E23.56076
G1 X158.502 Y164.976 E23.80733
G1 X157.748 Y164.936 E23.86302
G1 X157.281 Y164.871 E23.8978
G1 X157.235 Y164.863 E23.90124
G1 X156.163 Y164.589 E23.98285
G1 X155.954 Y164.518 E23.99913
G1 X155.253 Y164.238 E24.05481
G1 X154.586 Y163.885 E24.11047
G1 X153.96 Y163.464 E24.16611
G1 X153.468 Y163.058 E24.21316
G1 X153.378 Y162.975 E24.22219
G1 X138.156 Y162.977 E25.34493
G1 X137.402 Y162.937 E25.40062
G1 X136.657 Y162.818 E25.45627
G1 X135.928 Y162.62 E25.51199
G1 X135.224 Y162.347 E25.56768
G1 X134.554 Y162 E25.62333
G1 X133.923 Y161.585 E25.67904
G1 X133.115 Y160.889 E25.7577
G1 X132.96 Y160.734 E25.77386
G1 X132.455 Y160.173 E25.82954
G1 X132.012 Y159.561 E25.88526
G1 X131.637 Y158.907 E25.94087
G1 X131.333 Y158.216 E25.99655
G1 X131.104 Y157.496 E26.05227
G1 X130.952 Y156.757 E26.10792
G1 X130.872 Y155.694 E26.18655
G1 X130.872 Y144.306 E27.0265
G1 X130.912 Y143.552 E27.08219
G1 X131.031 Y142.807 E27.13784
G1 X131.229 Y142.078 E27.19355
G1 X131.503 Y141.375 E27.24921
G1 X131.849 Y140.704 E27.30489
G1 X132.264 Y140.074 E27.36053
G1 X132.96 Y139.266 E27.43919
G1 X133.115 Y139.111 E27.45536
G0 F6000 X133.488 Y139.484
G1 F1200 X134.029 Y139 E27.5089
G1 X134.62 Y138.577 E27.5625
G1 X135.254 Y138.223 E27.61606
G1 X135.923 Y137.94 E27.66964
G1 X136.619 Y137.732 E27.72322
G1 X137.334 Y137.602 E27.77682
G1 X138.156 Y137.551 E27.83757
G1 X153.597 Y137.553 E28.97646
G1 X153.825 Y137.328 E29.00008
G1 X154.394 Y136.876 E29.05368
G1 X155.009 Y136.49 E29.10724
G1 X155.591 Y136.204 E29.15507
G1 X155.825 Y136.103 E29.17387
G1 X156.506 Y135.853 E29.22737
G1 X157.103 Y135.7 E29.27283
G1 X157.161 Y135.688 E29.2772
G1 X157.879 Y135.58 E29.33075
G1 X158.502 Y135.551 E29.37675
G1 X161.849 Y135.553 E29.62362
G1 X162.574 Y135.593 E29.67717
G1 X163.291 Y135.713 E29.73079
G1 X163.989 Y135.911 E29.78431
G1 X164.662 Y136.185 E29.8379
G1 X165.301 Y136.53 E29.89147
G1 X165.898 Y136.944 E29.94505
G1 X166.512 Y137.486 E30.00546
G1 X166.667 Y137.641 E30.02163
G1 X167.151 Y138.182 E30.07517
G1 X167.574 Y138.773 E30.12877
G1 X167.928 Y139.407 E30.18233
G1 X168.211 Y140.076 E30.23591
G1 X168.419 Y140.772 E30.28949
G1 X168.549 Y141.487 E30.34309
G1 X168.6 Y142.308 E30.40376
G1 X168.6 Y157.693 E31.53852
G1 X168.56 Y158.418 E31.59208
G1 X168.441 Y159.135 E31.64569
G1 X168.243 Y159.834 E31.69927
G1 X167.97 Y160.507 E31.75284
G1 X167.625 Y161.146 E31.8064
G1 X167.211 Y161.743 E31.85998
G1 X166.667 Y162.36 E31.92066
G1 X166.512 Y162.515 E31.93682
G1 X165.971 Y162.999 E31.99036
G1 X165.38 Y163.422 E32.04397
G1 X164.746 Y163.776 E32.09753
G1 X164.077 Y164.059 E32.15111
G1 X163.381 Y164.267 E32.20468
G1 X162.666 Y164.397 E32.25829
G1 X161.845 Y164.448 E32.31896
G1 X158.502 Y164.448 E32.56553
G1 X157.777 Y164.408 E32.61908
G1 X157.325 Y164.342 E32.65278
G1 X156.333 Y164.089 E32.72829
G1 X156.124 Y164.018 E32.74457
G1 X155.45 Y163.747 E32.79815
G1 X154.81 Y163.404 E32.8517
G1 X154.212 Y162.992 E32.90527
G1 X153.822 Y162.666 E32.94276
G1 X153.597 Y162.447 E32.96592
G1 X138.156 Y162.449 E34.10481
G1 X137.43 Y162.409 E34.15844
G1 X136.714 Y162.29 E34.21197
G1 X136.015 Y162.092 E34.26556
G1 X135.342 Y161.819 E34.31913
G1 X134.703 Y161.474 E34.37269
G1 X134.106 Y161.061 E34.42623
G1 X133.488 Y160.516 E34.48701
G1 X133.333 Y160.361 E34.50317
G1 X132.849 Y159.82 E34.55671
G1 X132.426 Y159.229 E34.61032
G1 X132.072 Y158.595 E34.66388
G1 X131.789 Y157.926 E34.71746
G1 X131.581 Y157.23 E34.77103
G1 X131.451 Y156.515 E34.82464
G1 X131.4 Y155.694 E34.88531
G1 X131.4 Y144.306 E35.72526
G1 X131.44 Y143.581 E35.77882
G1 X131.559 Y142.864 E35.83242
G1 X131.757 Y142.165 E35.88601
G1 X132.03 Y141.492 E35.93958
G1 X132.375 Y140.853 E35.99314
G1 X132.789 Y140.256 E36.04672
G1 X133.333 Y139.639 E36.10739
G1 X133.488 Y139.484 E36.12356
G0 F6000 X133.861 Y139.857
G1 F1200 X134.382 Y139.394 E36.17497
G1 X134.951 Y138.993 E36.22631
G1 X135.563 Y138.66 E36.2777
G1 X136.209 Y138.399 E36.32909
G1 X136.881 Y138.214 E36.3805
G1 X137.569 Y138.107 E36.43186
G1 X138.156 Y138.079 E36.4752
G1 X153.814 Y138.081 E37.6301
G1 X154.197 Y137.704 E37.66974
G1 X154.746 Y137.275 E37.72113
G1 X155.34 Y136.911 E37.77251
G1 X155.8 Y136.689 E37.81018
G1 X156.034 Y136.588 E37.82898
G1 X156.688 Y136.349 E37.88034
G1 X157.21 Y136.217 E37.92005
G1 X157.268 Y136.205 E37.92442
G1 X157.957 Y136.103 E37.9758
G1 X158.502 Y136.079 E38.01603
G1 X161.849 Y136.081 E38.2629
G1 X162.544 Y136.121 E38.31425
G1 X163.23 Y136.241 E38.36561
G1 X163.899 Y136.439 E38.41707
G1 X164.54 Y136.712 E38.46846
G1 X165.145 Y137.056 E38.51979
G1 X165.707 Y137.468 E38.57119
G1 X166.139 Y137.859 E38.61417
G1 X166.294 Y138.014 E38.63033
G1 X166.757 Y138.535 E38.68174
G1 X167.158 Y139.104 E38.73309
G1 X167.491 Y139.716 E38.78448
G1 X167.752 Y140.362 E38.83586
G1 X167.937 Y141.034 E38.88727
G1 X168.044 Y141.722 E38.93863
G1 X168.072 Y142.308 E38.9819
G1 X168.072 Y157.693 E40.11666
G1 X168.032 Y158.389 E40.16808
G1 X167.913 Y159.075 E40.21944
G1 X167.715 Y159.743 E40.27082
G1 X167.443 Y160.384 E40.32218
G1 X167.099 Y160.99 E40.37358
G1 X166.688 Y161.552 E40.42493
G1 X166.294 Y161.987 E40.46822
G1 X166.139 Y162.142 E40.48439
G1 X165.618 Y162.605 E40.5358
G1 X165.049 Y163.006 E40.58714
G1 X164.437 Y163.339 E40.63853
G1 X163.791 Y163.6 E40.68992
G1 X163.119 Y163.785 E40.74133
G1 X162.431 Y163.892 E40.79269
G1 X161.845 Y163.92 E40.83596
G1 X158.502 Y163.92 E41.08253
G1 X157.462 Y163.83 E41.15952
G1 X157.416 Y163.822 E41.16297
G1 X156.503 Y163.589 E41.23247
G1 X156.294 Y163.518 E41.24875
G1 X155.648 Y163.257 E41.30014
G1 X155.037 Y162.923 E41.3515
G1 X154.467 Y162.521 E41.40294
G1 X154.176 Y162.274 E41.4311
G1 X154.093 Y162.199 E41.43935
G1 X153.817 Y161.919 E41.46835
G1 X138.156 Y161.921 E42.62346
G1 X137.46 Y161.881 E42.67488
G1 X136.774 Y161.762 E42.72624
G1 X136.105 Y161.565 E42.77768
G1 X135.464 Y161.292 E42.82906
G1 X134.858 Y160.948 E42.88046
G1 X134.296 Y160.537 E42.93181
G1 X133.861 Y160.143 E42.9751
G1 X133.706 Y159.988 E42.99127
G1 X133.243 Y159.467 E43.04268
G1 X132.842 Y158.898 E43.09402
G1 X132.509 Y158.286 E43.14541
G1 X132.248 Y157.64 E43.1968
G1 X132.063 Y156.968 E43.24821
G1 X131.956 Y156.28 E43.29957
G1 X131.928 Y155.694 E43.34284
G1 X131.928 Y144.306 E44.18279
G1 X131.968 Y143.61 E44.23421
G1 X132.087 Y142.924 E44.28556
G1 X132.285 Y142.256 E44.33695
G1 X132.557 Y141.615 E44.38831
G1 X132.901 Y141.009 E44.43971
G1 X133.312 Y140.447 E44.49106
G1 X133.706 Y140.012 E44.53435
G1 X133.861 Y139.857 E44.55052
G0 F6000 X134.235 Y140.231
G1 F1200 X134.733 Y139.789 E44.59963
G1 X135.28 Y139.41 E44.64872
G1 X135.869 Y139.1 E44.69781
G1 X136.491 Y138.863 E44.7469
G1 X137.137 Y138.701 E44.79603
G1 X137.797 Y138.619 E44.84508
G1 X138.156 Y138.607 E44.87157
G1 X154.037 Y138.609 E46.04292
G1 X154.093 Y138.547 E46.04908
G1 X154.568 Y138.081 E46.09816
G1 X155.095 Y137.675 E46.14723
G1 X155.668 Y137.335 E46.19637
G1 X156.009 Y137.174 E46.22419
G1 X156.243 Y137.073 E46.24298
G1 X156.869 Y136.846 E46.2921
G1 X157.317 Y136.734 E46.32616
G1 X157.375 Y136.722 E46.33053
G1 X158.034 Y136.626 E46.37965
G1 X158.501 Y136.607 E46.41412
G1 X161.848 Y136.609 E46.66099
G1 X162.513 Y136.649 E46.71012
G1 X163.168 Y136.769 E46.75924
G1 X163.803 Y136.966 E46.80828
G1 X164.411 Y137.238 E46.85741
G1 X164.981 Y137.581 E46.90647
G1 X165.507 Y137.99 E46.95562
G1 X165.765 Y138.233 E46.98176
G1 X165.92 Y138.388 E46.99793
G1 X166.362 Y138.886 E47.04704
G1 X166.741 Y139.433 E47.09612
G1 X167.051 Y140.022 E47.14522
G1 X167.288 Y140.644 E47.19431
G1 X167.45 Y141.29 E47.24343
G1 X167.532 Y141.95 E47.29249
G1 X167.544 Y142.308 E47.31891
G1 X167.544 Y157.693 E48.45367
G1 X167.504 Y158.357 E48.50273
G1 X167.385 Y159.012 E48.55184
G1 X167.188 Y159.648 E48.60094
G1 X166.916 Y160.256 E48.65007
G1 X166.573 Y160.827 E48.6992
G1 X166.165 Y161.352 E48.74824
G1 X165.92 Y161.613 E48.77465
G1 X165.765 Y161.768 E48.79081
G1 X165.267 Y162.21 E48.83993
G1 X164.72 Y162.589 E48.88901
G1 X164.131 Y162.899 E48.9381
G1 X163.509 Y163.136 E48.9872
G1 X162.863 Y163.298 E49.03632
