;FLAVOR:Marlin
;TIME:22564
;Filament used: 19.8994m
;Layer height: 0.16
;MINX:155.629
;MINY:48.638
;MINZ:0.28
;MAXX:256.643
;MAXY:219.583
;MAXZ:19.84
;Generated with Cura_SteamEngine 4.13.1
M140 S95
M105
M190 S95
M104 S220
M105
M109 S220
M82 ;absolute extrusion mode
G28 ; home all axes
 M117 Purge extruder
 G92 E0 ; reset extruder
 G1 Z1.0 F3000 ; move z up little to prevent scratching of surface
 G1 X2 Y20 Z0.3 F5000.0 ; move to start-line position
 G1 X2 Y200.0 Z0.3 F1500.0 E15 ; draw 1st line
 G1 X2 Y200.0 Z0.4 F5000.0 ; move to side a little
 G1 X2 Y20 Z0.4 F1500.0 E30 ; draw 2nd line
 G92 E0 ; reset extruder
 G1 Z1.0 F3000 ; move z up little to prevent scratching of surface
G92 E0
G92 E0
G1 F1500 E-5
;LAYER_COUNT:102
;LAYER:0
M107
G0 F6000 X241.553 Y54.956 Z0.28
;TYPE:SKIRT
G1 F1500 E0
G1 F1200 X241.69 Y54.803 E0.01641
G1 X242.006 Y54.498 E0.0515
G1 X242.33 Y54.226 E0.08531
G1 X242.663 Y53.984 E0.1182
G1 X243.026 Y53.759 E0.15232
G1 X243.394 Y53.562 E0.18568
G1 X243.778 Y53.391 E0.21926
G1 X244.169 Y53.249 E0.2525
G1 X244.592 Y53.128 E0.28766
G1 X244.992 Y53.042 E0.32035
G1 X245.414 Y52.984 E0.35439
G1 X245.832 Y52.954 E0.38787
G1 X246.252 Y52.954 E0.42143
G1 X246.67 Y52.984 E0.45492
G1 X247.092 Y53.042 E0.48895
G1 X247.492 Y53.128 E0.52165
G1 X247.915 Y53.249 E0.5568
G1 X248.306 Y53.391 E0.59004
G1 X248.69 Y53.562 E0.62363
G1 X249.058 Y53.759 E0.65698
G1 X249.421 Y53.984 E0.69111
G1 X249.754 Y54.226 E0.724
G1 X250.078 Y54.498 E0.7578
G1 X250.394 Y54.803 E0.79289
G1 X250.66 Y55.099 E0.82469
G1 X250.928 Y55.442 E0.85947
G1 X251.153 Y55.775 E0.89159
G1 X251.377 Y56.163 E0.92738
G1 X251.557 Y56.533 E0.96026
G1 X251.714 Y56.919 E0.99356
G1 X251.846 Y57.324 E1.02759
G1 X251.948 Y57.739 E1.06174
G1 X252.021 Y58.146 E1.09478
G1 X252.064 Y58.558 E1.12788
G1 X252.079 Y58.987 E1.16218
G1 X252.064 Y59.42 E1.1968
G1 X252.021 Y59.829 E1.22966
G1 X251.947 Y60.244 E1.26334
G1 X251.851 Y60.634 E1.29544
G1 X251.715 Y61.051 E1.33048
G1 X251.553 Y61.451 E1.36497
G1 X251.375 Y61.817 E1.39749
G1 X251.157 Y62.194 E1.43229
G1 X250.926 Y62.537 E1.46533
G1 X250.667 Y62.868 E1.49891
G1 X250.392 Y63.173 E1.53173
G1 X250.194 Y63.365 E1.55376
G1 X250.194 Y58.916 E1.90926
G1 X250.154 Y58.355 E1.9542
G1 X250.035 Y57.805 E1.99916
G1 X249.839 Y57.278 E2.04409
G1 X249.571 Y56.784 E2.089
G1 X249.235 Y56.332 E2.134
G1 X248.839 Y55.933 E2.17892
G1 X248.39 Y55.594 E2.22387
G1 X247.897 Y55.322 E2.26886
G1 X247.371 Y55.123 E2.3138
G1 X246.822 Y55 E2.35875
G1 X246.234 Y54.956 E2.40587
G1 X241.553 Y54.956 E2.7799
G0 F6000 X241.022 Y54.756
G1 F1200 X241.31 Y54.435 E2.81436
G1 X241.651 Y54.107 E2.85217
G1 X242.001 Y53.813 E2.88869
G1 X242.372 Y53.543 E2.92535
G1 X242.758 Y53.303 E2.96167
G1 X243.162 Y53.087 E2.99828
G1 X243.576 Y52.903 E3.03448
G1 X244.013 Y52.744 E3.07164
G1 X244.464 Y52.615 E3.10912
G1 X244.893 Y52.523 E3.14418
G1 X245.362 Y52.458 E3.18201
G1 X245.809 Y52.426 E3.21782
G1 X246.275 Y52.426 E3.25505
G1 X246.722 Y52.458 E3.29086
G1 X247.191 Y52.523 E3.32869
G1 X247.62 Y52.615 E3.36375
G1 X248.071 Y52.744 E3.40123
G1 X248.508 Y52.903 E3.43839
G1 X248.922 Y53.087 E3.47459
G1 X249.326 Y53.303 E3.5112
G1 X249.712 Y53.543 E3.54752
G1 X250.083 Y53.813 E3.58418
G1 X250.433 Y54.107 E3.6207
G1 X250.774 Y54.435 E3.65851
G1 X251.062 Y54.756 E3.69297
G1 X251.357 Y55.133 E3.73122
G1 X251.602 Y55.497 E3.76628
G1 X251.843 Y55.914 E3.80476
G1 X252.036 Y56.31 E3.83996
G1 X252.211 Y56.741 E3.87713
G1 X252.356 Y57.185 E3.91446
G1 X252.462 Y57.615 E3.94984
G1 X252.547 Y58.094 E3.98871
G1 X252.591 Y58.513 E4.02238
G1 X252.608 Y58.988 E4.06036
G1 X252.591 Y59.45 E4.0973
G1 X252.545 Y59.894 E4.13297
G1 X252.46 Y60.368 E4.17144
G1 X252.356 Y60.79 E4.20617
G1 X252.215 Y61.224 E4.24264
G1 X252.037 Y61.665 E4.28064
G1 X251.842 Y62.066 E4.31626
G1 X251.607 Y62.471 E4.35368
G1 X251.355 Y62.846 E4.38978
G1 X251.076 Y63.203 E4.42598
G1 X250.764 Y63.549 E4.46321
G1 X250.438 Y63.864 E4.49943
G1 X250.079 Y64.166 E4.53692
G1 X249.715 Y64.43 E4.57285
G1 X249.666 Y64.461 E4.57748
G1 X249.666 Y58.916 E5.02055
G1 X249.626 Y58.394 E5.06238
G1 X249.507 Y57.884 E5.10423
G1 X249.312 Y57.398 E5.14607
G1 X249.045 Y56.948 E5.18788
G1 X248.713 Y56.543 E5.22973
G1 X248.323 Y56.193 E5.2716
G1 X247.885 Y55.907 E5.3134
G1 X247.408 Y55.691 E5.35523
G1 X246.904 Y55.55 E5.39705
G1 X246.234 Y55.484 E5.45085
G1 X240.491 Y55.484 E5.90974
G1 X240.727 Y55.133 E5.94353
G1 X241.022 Y54.756 E5.98178
G0 F6000 X240.614 Y54.421
G1 F1200 X240.938 Y54.061 E6.02048
G1 X241.294 Y53.716 E6.0601
G1 X241.671 Y53.4 E6.0994
G1 X242.072 Y53.108 E6.13904
G1 X242.509 Y52.837 E6.18013
G1 X242.929 Y52.612 E6.2182
G1 X243.375 Y52.414 E6.25719
G1 X243.841 Y52.245 E6.2968
G1 X244.343 Y52.101 E6.33853
G1 X244.805 Y52.002 E6.37628
G1 X245.297 Y51.934 E6.41597
G1 X245.799 Y51.898 E6.45618
G1 X246.285 Y51.898 E6.49502
G1 X246.787 Y51.934 E6.53523
G1 X247.279 Y52.002 E6.57492
G1 X247.741 Y52.101 E6.61267
G1 X248.243 Y52.245 E6.6544
G1 X248.709 Y52.414 E6.69401
G1 X249.155 Y52.612 E6.733
G1 X249.575 Y52.837 E6.77107
G1 X250.012 Y53.108 E6.81216
G1 X250.413 Y53.4 E6.8518
G1 X250.79 Y53.716 E6.8911
G1 X251.146 Y54.061 E6.93071
G1 X251.47 Y54.421 E6.96941
G1 X251.778 Y54.815 E7.00937
G1 X252.054 Y55.224 E7.0488
G1 X252.306 Y55.66 E7.08904
G1 X252.519 Y56.097 E7.12788
G1 X252.708 Y56.562 E7.16799
G1 X252.86 Y57.029 E7.20723
G1 X252.981 Y57.52 E7.24764
G1 X253.07 Y58.015 E7.28783
G1 X253.118 Y58.483 E7.32542
G1 X253.136 Y58.988 E7.3658
G1 X253.118 Y59.493 E7.40617
G1 X253.07 Y59.961 E7.44376
G1 X252.979 Y60.467 E7.48484
G1 X252.863 Y60.938 E7.5236
G1 X252.712 Y61.402 E7.56259
G1 X252.52 Y61.875 E7.60338
G1 X252.304 Y62.32 E7.64291
G1 X252.052 Y62.755 E7.68308
G1 X251.779 Y63.161 E7.72217
G1 X251.484 Y63.539 E7.76048
G1 X251.143 Y63.917 E7.80116
G1 X250.795 Y64.254 E7.83987
G1 X250.408 Y64.579 E7.88025
G1 X250.003 Y64.873 E7.92024
G1 X249.591 Y65.13 E7.95904
G1 X249.158 Y65.361 E7.99825
G1 X249.138 Y65.369 E7.99997
G1 X249.138 Y58.916 E8.5156
G1 X249.098 Y58.436 E8.55408
G1 X248.979 Y57.969 E8.59259
G1 X248.785 Y57.529 E8.63101
G1 X248.521 Y57.126 E8.66951
G1 X248.194 Y56.773 E8.70796
G1 X247.812 Y56.478 E8.74652
G1 X247.388 Y56.251 E8.78495
G1 X246.932 Y56.097 E8.82341
G1 X246.234 Y56.012 E8.8796
G1 X239.607 Y56.012 E9.40912
G1 X239.778 Y55.66 E9.44039
G1 X240.03 Y55.224 E9.48063
G1 X240.306 Y54.815 E9.52005
G1 X240.614 Y54.421 E9.56001
G0 F6000 X240.212 Y54.077
G1 F1200 X240.551 Y53.701 E9.60047
G1 X240.939 Y53.326 E9.64358
G1 X241.356 Y52.976 E9.68708
G1 X241.781 Y52.667 E9.72907
G1 X242.223 Y52.392 E9.77067
G1 X242.702 Y52.136 E9.81406
G1 X243.198 Y51.916 E9.85742
G1 X243.672 Y51.743 E9.89774
G1 X244.201 Y51.592 E9.9417
G1 X244.718 Y51.481 E9.98395
G1 X245.247 Y51.408 E10.02662
G1 X245.776 Y51.37 E10.069
G1 X246.308 Y51.37 E10.1115
G1 X246.837 Y51.408 E10.15388
G1 X247.366 Y51.481 E10.19655
G1 X247.883 Y51.592 E10.2388
G1 X248.412 Y51.743 E10.28276
G1 X248.886 Y51.916 E10.32308
G1 X249.382 Y52.136 E10.36644
G1 X249.861 Y52.392 E10.40983
G1 X250.303 Y52.667 E10.45143
G1 X250.728 Y52.976 E10.49342
G1 X251.145 Y53.326 E10.53692
G1 X251.533 Y53.701 E10.58003
G1 X251.872 Y54.077 E10.62048
G1 X252.212 Y54.513 E10.66466
G1 X252.496 Y54.933 E10.70518
G1 X252.776 Y55.418 E10.74992
G1 X253.001 Y55.881 E10.79106
G1 X253.207 Y56.387 E10.83471
G1 X253.37 Y56.888 E10.87681
G1 X253.497 Y57.404 E10.91927
G1 X253.592 Y57.938 E10.96261
G1 X253.645 Y58.438 E11.00278
G1 X253.664 Y58.988 E11.04676
G1 X253.645 Y59.537 E11.09065
G1 X253.592 Y60.038 E11.13091
G1 X253.496 Y60.579 E11.17481
G1 X253.374 Y61.074 E11.21555
G1 X253.207 Y61.588 E11.25873
G1 X253.005 Y62.086 E11.30167
G1 X252.771 Y62.569 E11.34456
G1 X252.506 Y63.025 E11.3867
G1 X252.203 Y63.476 E11.43011
G1 X251.886 Y63.882 E11.47127
G1 X251.529 Y64.277 E11.51381
G1 X251.144 Y64.65 E11.55665
G1 X250.738 Y64.992 E11.59906
G1 X250.296 Y65.312 E11.64266
G1 X249.853 Y65.589 E11.68441
G1 X249.391 Y65.834 E11.7262
G1 X248.88 Y66.063 E11.77094
G1 X248.61 Y66.161 E11.79389
G1 X248.61 Y58.916 E12.3728
G1 X248.57 Y58.482 E12.40762
G1 X248.452 Y58.063 E12.44241
G1 X248.259 Y57.673 E12.47718
G1 X247.998 Y57.324 E12.512
G1 X247.678 Y57.029 E12.54677
G1 X247.309 Y56.797 E12.5816
G1 X246.904 Y56.636 E12.61643
G1 X246.477 Y56.552 E12.6512
G1 X246.234 Y56.54 E12.67064
G1 X238.828 Y56.54 E13.26241
G1 X238.877 Y56.387 E13.27525
G1 X239.083 Y55.881 E13.3189
G1 X239.308 Y55.418 E13.36003
G1 X239.588 Y54.933 E13.40478
G1 X239.872 Y54.513 E13.44529
G1 X240.212 Y54.077 E13.48947
G0 F6000 X239.804 Y53.742
G1 F1200 X240.178 Y53.326 E13.53417
G1 X240.59 Y52.928 E13.57994
G1 X241.024 Y52.564 E13.6252
G1 X241.481 Y52.232 E13.67034
G1 X241.967 Y51.93 E13.71606
G1 X242.469 Y51.661 E13.76157
G1 X242.992 Y51.429 E13.80728
G1 X243.505 Y51.243 E13.85089
G1 X244.091 Y51.075 E13.8996
G1 X244.62 Y50.962 E13.94282
G1 X245.195 Y50.882 E13.98921
G1 X245.753 Y50.842 E14.03391
G1 X246.331 Y50.842 E14.08009
G1 X246.889 Y50.882 E14.12479
G1 X247.464 Y50.962 E14.17118
G1 X247.993 Y51.075 E14.2144
G1 X248.579 Y51.243 E14.26311
G1 X249.092 Y51.429 E14.30672
G1 X249.615 Y51.661 E14.35243
G1 X250.117 Y51.93 E14.39794
G1 X250.603 Y52.232 E14.44366
G1 X251.06 Y52.564 E14.4888
G1 X251.494 Y52.928 E14.53406
G1 X251.906 Y53.326 E14.57983
G1 X252.28 Y53.742 E14.62453
G1 X252.641 Y54.205 E14.67144
G1 X252.945 Y54.655 E14.71483
G1 X253.242 Y55.169 E14.76227
G1 X253.488 Y55.675 E14.80722
G1 X253.7 Y56.196 E14.85217
G1 X253.879 Y56.745 E14.89831
G1 X254.014 Y57.294 E14.94348
G1 X254.115 Y57.858 E14.98927
G1 X254.172 Y58.41 E15.03361
G1 X254.193 Y58.986 E15.07966
G1 X254.172 Y59.567 E15.12612
G1 X254.115 Y60.117 E15.1703
G1 X254.012 Y60.692 E15.21698
G1 X253.883 Y61.218 E15.26025
G1 X253.704 Y61.766 E15.30632
G1 X253.484 Y62.309 E15.35313
G1 X253.241 Y62.81 E15.39762
G1 X252.952 Y63.309 E15.4437
G1 X252.632 Y63.784 E15.48946
G1 X252.287 Y64.225 E15.5342
G1 X251.908 Y64.645 E15.5794
G1 X251.492 Y65.048 E15.62568
G1 X251.067 Y65.405 E15.67003
G1 X250.594 Y65.749 E15.71677
G1 X250.123 Y66.043 E15.76113
G1 X249.607 Y66.317 E15.80782
G1 X249.096 Y66.545 E15.85253
G1 X248.57 Y66.736 E15.89724
G1 X248.082 Y66.877 E15.93783
G1 X248.082 Y58.916 E16.57395
G1 X248.042 Y58.534 E16.60464
G1 X247.924 Y58.169 E16.63529
G1 X247.733 Y57.836 E16.66596
G1 X247.478 Y57.549 E16.69664
G1 X247.168 Y57.322 E16.72734
G1 X246.819 Y57.163 E16.75798
G1 X246.444 Y57.08 E16.78867
G1 X246.234 Y57.068 E16.80548
G1 X238.126 Y57.068 E17.45334
G1 X238.205 Y56.745 E17.47991
G1 X238.384 Y56.196 E17.52605
G1 X238.596 Y55.675 E17.571
G1 X238.842 Y55.169 E17.61595
G1 X239.139 Y54.655 E17.66339
G1 X239.443 Y54.205 E17.70678
G1 X239.804 Y53.742 E17.75369
G0 F6000 X239.403 Y53.399
G1 F1200 X239.798 Y52.959 E17.80094
G1 X240.227 Y52.544 E17.84863
G1 X240.702 Y52.146 E17.89815
G1 X241.191 Y51.79 E17.94648
G1 X241.706 Y51.47 E17.99493
G1 X242.23 Y51.19 E18.0424
G1 X242.797 Y50.938 E18.09198
G1 X243.345 Y50.739 E18.13857
G1 X243.953 Y50.565 E18.1891
G1 X244.535 Y50.44 E18.23666
G1 X245.13 Y50.358 E18.28465
G1 X245.744 Y50.314 E18.33384
G1 X246.34 Y50.314 E18.38146
G1 X246.954 Y50.358 E18.43065
G1 X247.549 Y50.44 E18.47864
G1 X248.131 Y50.565 E18.52621
G1 X248.739 Y50.739 E18.57674
G1 X249.287 Y50.938 E18.62333
G1 X249.854 Y51.19 E18.6729
G1 X250.378 Y51.47 E18.72038
G1 X250.893 Y51.79 E18.76882
G1 X251.382 Y52.146 E18.81716
G1 X251.857 Y52.544 E18.86667
G1 X252.286 Y52.959 E18.91436
G1 X252.681 Y53.399 E18.96161
G1 X253.07 Y53.896 E19.01204
G1 X253.391 Y54.371 E19.05785
G1 X253.711 Y54.926 E19.10904
G1 X253.969 Y55.456 E19.15614
G1 X254.197 Y56.017 E19.20453
G1 X254.383 Y56.589 E19.25259
G1 X254.534 Y57.199 E19.3028
G1 X254.637 Y57.779 E19.34987
G1 X254.7 Y58.379 E19.39808
G1 X254.721 Y58.988 E19.44677
G1 X254.7 Y59.596 E19.49538
G1 X254.637 Y60.197 E19.54366
G1 X254.532 Y60.787 E19.59155
G1 X254.388 Y61.37 E19.63953
G1 X254.2 Y61.949 E19.68817
G1 X253.965 Y62.528 E19.7381
G1 X253.706 Y63.061 E19.78545
G1 X253.402 Y63.587 E19.834
G1 X253.061 Y64.092 E19.88269
G1 X252.695 Y64.561 E19.93022
G1 X252.28 Y65.02 E19.97967
G1 X251.856 Y65.431 E20.02685
G1 X251.383 Y65.829 E20.07625
G1 X250.899 Y66.181 E20.12407
G1 X250.387 Y66.5 E20.17227
G1 X249.834 Y66.794 E20.22231
G1 X249.292 Y67.036 E20.26974
G1 X248.739 Y67.237 E20.31676
G1 X248.135 Y67.411 E20.36698
G1 X247.554 Y67.534 E20.41443
G1 X247.554 Y58.916 E21.10305
G1 X247.514 Y58.594 E21.12897
G1 X247.397 Y58.292 E21.15485
G1 X247.21 Y58.027 E21.18077
G1 X246.963 Y57.816 E21.20673
G1 X246.673 Y57.671 E21.23263
G1 X246.234 Y57.596 E21.26822
G1 X237.479 Y57.596 E21.96778
G1 X237.55 Y57.199 E22.00001
G1 X237.701 Y56.589 E22.05022
G1 X237.887 Y56.017 E22.09828
G1 X238.115 Y55.456 E22.14667
G1 X238.373 Y54.926 E22.19377
G1 X238.693 Y54.371 E22.24496
G1 X239.014 Y53.896 E22.29077
G1 X239.403 Y53.399 E22.3412
G0 F6000 X238.995 Y53.064
G1 F1200 X239.419 Y52.592 E22.39189
G1 X239.879 Y52.148 E22.44298
G1 X240.379 Y51.728 E22.49515
G1 X240.89 Y51.356 E22.54566
G1 X241.439 Y51.015 E22.5973
G1 X242.009 Y50.71 E22.64896
G1 X242.596 Y50.45 E22.70025
G1 X243.19 Y50.233 E22.75079
G1 X243.814 Y50.055 E22.80263
G1 X244.447 Y49.919 E22.85437
G1 X245.078 Y49.832 E22.90526
G1 X245.721 Y49.786 E22.95677
G1 X246.363 Y49.786 E23.00807
G1 X247.006 Y49.832 E23.05958
G1 X247.637 Y49.919 E23.11048
G1 X248.27 Y50.055 E23.16221
G1 X248.894 Y50.233 E23.21406
G1 X249.488 Y50.45 E23.26459
G1 X250.075 Y50.71 E23.31589
G1 X250.645 Y51.015 E23.36755
G1 X251.194 Y51.356 E23.41919
G1 X251.705 Y51.728 E23.46969
G1 X252.205 Y52.148 E23.52187
G1 X252.665 Y52.592 E23.57295
G1 X253.089 Y53.064 E23.62365
G1 X253.492 Y53.578 E23.67584
G1 X253.842 Y54.098 E23.72593
G1 X254.18 Y54.683 E23.77991
G1 X254.448 Y55.233 E23.8288
G1 X254.694 Y55.838 E23.88098
G1 X254.894 Y56.453 E23.93266
G1 X255.046 Y57.071 E23.98351
G1 X255.161 Y57.713 E24.03563
G1 X255.226 Y58.335 E24.0856
G1 X255.249 Y58.988 E24.13781
G1 X255.226 Y59.64 E24.18994
G1 X255.161 Y60.263 E24.23999
G1 X255.045 Y60.912 E24.29267
G1 X254.897 Y61.513 E24.34212
G1 X254.694 Y62.135 E24.3944
G1 X254.45 Y62.739 E24.44645
G1 X254.175 Y63.304 E24.49666
G1 X253.847 Y63.871 E24.549
G1 X253.49 Y64.401 E24.60006
G1 X253.097 Y64.904 E24.65107
G1 X252.667 Y65.381 E24.70238
G1 X252.205 Y65.828 E24.75375
G1 X251.712 Y66.242 E24.80519
G1 X251.193 Y66.619 E24.85645
G1 X250.639 Y66.965 E24.90864
G1 X250.079 Y67.263 E24.95933
G1 X249.479 Y67.531 E25.01183
G1 X248.903 Y67.74 E25.06079
G1 X248.276 Y67.92 E25.11292
G1 X247.631 Y68.057 E25.16561
G1 X247.026 Y68.141 E25.21441
G1 X247.026 Y58.916 E25.95153
G1 X246.986 Y58.668 E25.9716
G1 X246.871 Y58.445 E25.99165
G1 X246.692 Y58.27 E26.01165
G1 X246.467 Y58.159 E26.0317
G1 X246.234 Y58.124 E26.05052
G1 X236.88 Y58.124 E26.79795
G1 X236.923 Y57.713 E26.83097
G1 X237.038 Y57.071 E26.88308
G1 X237.19 Y56.453 E26.93394
G1 X237.39 Y55.838 E26.98561
G1 X237.636 Y55.233 E27.0378
G1 X237.904 Y54.683 E27.08668
G1 X238.242 Y54.098 E27.14067
G1 X238.592 Y53.578 E27.19075
G1 X238.995 Y53.064 E27.24294
G0 F6000 X238.593 Y52.72
G1 F1200 X239.042 Y52.221 E27.29658
G1 X239.523 Y51.756 E27.35004
G1 X240.055 Y51.31 E27.40551
G1 X240.599 Y50.914 E27.45927
G1 X241.171 Y50.559 E27.51306
G1 X241.776 Y50.236 E27.56786
G1 X242.394 Y49.962 E27.62188
G1 X243.017 Y49.734 E27.67489
G1 X243.704 Y49.538 E27.73198
G1 X244.348 Y49.4 E27.7846
G1 X245.026 Y49.306 E27.83929
G1 X245.698 Y49.258 E27.89313
G1 X246.386 Y49.258 E27.9481
G1 X247.058 Y49.306 E28.00193
G1 X247.736 Y49.4 E28.05663
G1 X248.38 Y49.538 E28.10925
G1 X249.067 Y49.734 E28.16634
G1 X249.69 Y49.962 E28.21935
G1 X250.308 Y50.236 E28.27336
G1 X250.913 Y50.559 E28.32816
G1 X251.485 Y50.914 E28.38196
G1 X252.029 Y51.31 E28.43572
G1 X252.561 Y51.756 E28.49119
G1 X253.042 Y52.221 E28.54465
G1 X253.491 Y52.72 E28.59829
G1 X253.921 Y53.27 E28.65407
G1 X254.292 Y53.82 E28.70708
G1 X254.645 Y54.431 E28.76347
G1 X254.93 Y55.017 E28.81553
G1 X255.193 Y55.665 E28.87141
G1 X255.404 Y56.313 E28.92587
G1 X255.563 Y56.959 E28.97903
G1 X255.683 Y57.629 E29.03341
G1 X255.754 Y58.31 E29.08812
G1 X255.778 Y58.988 E29.14233
G1 X255.754 Y59.665 E29.19646
