;FLAVOR:Marlin
;TIME:22613
;Filament used: 19.8893m
;Layer height: 0.16
;MINX:64.868
;MINY:92.145
;MINZ:0.28
;MAXX:234.691
;MAXY:193.287
;MAXZ:19.84
;Generated with Cura_SteamEngine 4.12.1
M140 S90
M105
M190 S90
M104 S220
M105
M109 S220
M82 ;absolute extrusion mode
G28 ; home all axes
 M117 Purge extruder
 G92 E0 ; reset extruder
 G1 Z1.0 F3000 ; move z up little to prevent scratching of surface
 G1 X2 Y20 Z0.3 F5000.0 ; move to start-line position
 G1 X2 Y200.0 Z0.3 F1500.0 E15 ; draw 1st line
 G1 X2 Y200.0 Z0.4 F5000.0 ; move to side a little
 G1 X2 Y20 Z0.4 F1500.0 E30 ; draw 2nd line
 G92 E0 ; reset extruder
 G1 Z1.0 F3000 ; move z up little to prevent scratching of surface
G92 E0
G92 E0
G1 F1500 E-5
;LAYER_COUNT:102
;LAYER:0
M107
G0 F6000 X146.045 Y98.723 Z0.28
;TYPE:SKIRT
G1 F1500 E0
G1 F1200 X146.145 Y98.612 E0.01194
G1 X146.452 Y98.315 E0.04607
G1 X146.769 Y98.049 E0.07913
G1 X147.128 Y97.789 E0.11455
G1 X147.47 Y97.575 E0.14679
G1 X147.842 Y97.377 E0.18046
G1 X148.225 Y97.206 E0.21398
G1 X148.626 Y97.061 E0.24805
G1 X149.023 Y96.946 E0.28107
G1 X149.435 Y96.859 E0.31472
G1 X149.869 Y96.798 E0.34974
G1 X150.28 Y96.769 E0.38266
G1 X150.7 Y96.769 E0.41622
G1 X151.11 Y96.798 E0.44907
G1 X151.544 Y96.859 E0.48408
G1 X151.956 Y96.946 E0.51773
G1 X152.359 Y97.062 E0.55124
G1 X152.745 Y97.203 E0.58408
G1 X153.141 Y97.379 E0.6187
G1 X153.501 Y97.57 E0.65127
G1 X153.866 Y97.799 E0.6857
G1 X154.205 Y98.044 E0.71912
G1 X154.527 Y98.315 E0.75275
G1 X154.834 Y98.612 E0.78688
G1 X154.934 Y98.723 E0.79881
G1 X146.045 Y98.723 E1.50908
G0 F6000 X145.773 Y98.237
G1 F1200 X146.096 Y97.924 E1.54502
G1 X146.447 Y97.63 E1.58161
G1 X146.82 Y97.359 E1.61845
G1 X147.211 Y97.114 E1.65532
G1 X147.604 Y96.905 E1.69088
G1 X148.031 Y96.715 E1.72823
G1 X148.462 Y96.559 E1.76485
G1 X148.895 Y96.434 E1.80086
G1 X149.351 Y96.337 E1.83811
G1 X149.818 Y96.272 E1.87579
G1 X150.256 Y96.241 E1.91088
G1 X150.723 Y96.241 E1.94819
G1 X151.162 Y96.272 E1.98336
G1 X151.628 Y96.337 E2.02095
G1 X152.084 Y96.434 E2.0582
G1 X152.528 Y96.562 E2.09513
G1 X152.947 Y96.714 E2.13074
G1 X153.367 Y96.901 E2.16748
G1 X153.77 Y97.115 E2.20394
G1 X154.154 Y97.356 E2.24016
G1 X154.535 Y97.633 E2.2778
G1 X154.883 Y97.924 E2.31405
G1 X155.206 Y98.237 E2.34999
G1 X155.521 Y98.586 E2.38755
G1 X155.811 Y98.957 E2.42518
G1 X156.009 Y99.251 E2.4535
G1 X144.97 Y99.251 E3.33556
G1 X145.168 Y98.957 E3.36389
G1 X145.458 Y98.586 E3.40151
G1 X145.773 Y98.237 E3.43908
G0 F6000 X145.387 Y97.876
G1 F1200 X145.749 Y97.526 E3.47931
G1 X146.118 Y97.217 E3.51777
G1 X146.532 Y96.916 E3.55867
G1 X146.946 Y96.657 E3.59769
G1 X147.366 Y96.434 E3.63569
G1 X147.844 Y96.221 E3.6775
G1 X148.288 Y96.06 E3.71524
G1 X148.773 Y95.919 E3.7556
G1 X149.255 Y95.818 E3.79495
G1 X149.751 Y95.748 E3.83497
G1 X150.247 Y95.713 E3.8747
G1 X150.733 Y95.713 E3.91354
G1 X151.228 Y95.748 E3.95319
G1 X151.724 Y95.818 E3.99321
G1 X152.206 Y95.919 E4.03256
G1 X152.688 Y96.059 E4.07267
G1 X153.146 Y96.225 E4.11159
G1 X153.599 Y96.427 E4.15123
G1 X154.04 Y96.661 E4.19112
G1 X154.449 Y96.917 E4.22967
G1 X154.858 Y97.214 E4.27006
G1 X155.23 Y97.526 E4.30886
G1 X155.592 Y97.876 E4.34909
G1 X155.923 Y98.243 E4.38858
G1 X156.232 Y98.639 E4.42872
G1 X156.507 Y99.046 E4.46796
G1 X156.754 Y99.474 E4.50745
G1 X156.902 Y99.779 E4.53454
G1 X144.077 Y99.779 E5.55931
G1 X144.225 Y99.474 E5.5864
G1 X144.472 Y99.046 E5.62588
G1 X144.747 Y98.639 E5.66513
G1 X145.056 Y98.243 E5.70527
G1 X145.387 Y97.876 E5.74476
G0 F6000 X145.015 Y97.5
G1 F1200 X145.385 Y97.142 E5.78589
G1 X145.787 Y96.805 E5.82781
G1 X146.234 Y96.48 E5.87197
G1 X146.687 Y96.196 E5.91469
G1 X147.144 Y95.954 E5.95601
G1 X147.633 Y95.736 E5.99879
G1 X148.128 Y95.556 E6.04088
G1 X148.639 Y95.409 E6.08336
G1 X149.176 Y95.295 E6.12723
G1 X149.697 Y95.222 E6.16927
G1 X150.224 Y95.185 E6.21148
G1 X150.756 Y95.185 E6.25399
G1 X151.282 Y95.222 E6.29612
G1 X151.803 Y95.295 E6.33816
G1 X152.34 Y95.409 E6.38202
G1 X152.853 Y95.557 E6.42469
G1 X153.348 Y95.737 E6.46677
G1 X153.831 Y95.952 E6.50902
G1 X154.287 Y96.194 E6.55027
G1 X154.753 Y96.486 E6.59421
G1 X155.189 Y96.802 E6.63723
G1 X155.594 Y97.142 E6.67949
G1 X155.964 Y97.5 E6.72062
G1 X156.332 Y97.908 E6.76453
G1 X156.66 Y98.328 E6.80711
G1 X156.947 Y98.753 E6.84809
G1 X157.223 Y99.231 E6.89219
G1 X157.458 Y99.713 E6.93504
G1 X157.648 Y100.183 E6.97554
G1 X157.688 Y100.307 E6.98596
G1 X143.291 Y100.307 E8.13634
G1 X143.331 Y100.183 E8.14675
G1 X143.521 Y99.713 E8.18725
G1 X143.756 Y99.231 E8.2301
G1 X144.032 Y98.753 E8.27421
G1 X144.319 Y98.328 E8.31518
G1 X144.647 Y97.908 E8.35776
G1 X145.015 Y97.5 E8.40167
G0 F6000 X144.629 Y97.14
G1 F1200 X145.03 Y96.752 E8.44625
G1 X145.479 Y96.375 E8.4931
G1 X145.936 Y96.043 E8.53823
G1 X146.418 Y95.742 E8.58364
G1 X146.911 Y95.48 E8.62825
G1 X147.445 Y95.242 E8.67496
G1 X147.964 Y95.054 E8.71907
G1 X148.508 Y94.897 E8.76431
G1 X149.08 Y94.775 E8.81105
G1 X149.645 Y94.696 E8.85663
G1 X150.201 Y94.657 E8.90117
G1 X150.779 Y94.657 E8.94735
G1 X151.334 Y94.696 E8.99181
G1 X151.899 Y94.775 E9.03739
G1 X152.471 Y94.897 E9.08413
G1 X153.004 Y95.051 E9.12846
G1 X153.541 Y95.246 E9.17411
G1 X154.069 Y95.48 E9.22025
G1 X154.556 Y95.739 E9.26433
G1 X155.048 Y96.047 E9.31071
G1 X155.5 Y96.375 E9.35533
G1 X155.949 Y96.752 E9.40218
G1 X156.35 Y97.14 E9.44677
G1 X156.729 Y97.559 E9.49191
G1 X157.094 Y98.027 E9.53933
G1 X157.401 Y98.482 E9.58319
G1 X157.69 Y98.983 E9.62941
G1 X157.934 Y99.484 E9.67393
G1 X158.145 Y100.006 E9.71892
G1 X158.325 Y100.561 E9.76554
G1 X158.394 Y100.835 E9.78812
G1 X142.585 Y100.835 E11.05133
G1 X142.654 Y100.561 E11.0739
G1 X142.834 Y100.006 E11.12052
G1 X143.045 Y99.484 E11.16551
G1 X143.289 Y98.983 E11.21004
G1 X143.578 Y98.482 E11.25625
G1 X143.885 Y98.027 E11.30011
G1 X144.25 Y97.559 E11.34754
G1 X144.629 Y97.14 E11.39268
G0 F6000 X144.25 Y96.772
G1 F1200 X144.689 Y96.348 E11.44145
G1 X145.143 Y95.967 E11.48881
G1 X145.638 Y95.607 E11.53771
G1 X146.152 Y95.285 E11.58618
G1 X146.679 Y95.005 E11.63386
G1 X147.248 Y94.752 E11.68362
G1 X147.804 Y94.55 E11.73089
G1 X148.389 Y94.381 E11.77954
G1 X148.981 Y94.256 E11.82789
G1 X149.58 Y94.172 E11.87622
G1 X150.192 Y94.129 E11.92524
G1 X150.788 Y94.129 E11.97286
G1 X151.399 Y94.172 E12.02181
G1 X151.998 Y94.256 E12.07014
G1 X152.59 Y94.381 E12.11848
G1 X153.183 Y94.553 E12.16782
G1 X153.736 Y94.754 E12.21483
G1 X154.29 Y95 E12.26327
G1 X154.825 Y95.284 E12.31167
G1 X155.336 Y95.604 E12.35984
G1 X155.843 Y95.972 E12.4099
G1 X156.29 Y96.348 E12.45657
G1 X156.729 Y96.772 E12.50534
G1 X157.137 Y97.224 E12.554
G1 X157.523 Y97.719 E12.60415
G1 X157.846 Y98.198 E12.65032
G1 X158.153 Y98.729 E12.69933
G1 X158.418 Y99.273 E12.74768
G1 X158.643 Y99.828 E12.79553
G1 X158.837 Y100.428 E12.84592
G1 X158.977 Y100.987 E12.89196
G1 X159.043 Y101.363 E12.92246
G1 X141.936 Y101.363 E14.28938
G1 X142.002 Y100.987 E14.31989
G1 X142.142 Y100.428 E14.36593
G1 X142.336 Y99.828 E14.41632
G1 X142.561 Y99.273 E14.46417
G1 X142.826 Y98.729 E14.51252
G1 X143.133 Y98.198 E14.56153
G1 X143.456 Y97.719 E14.6077
G1 X143.842 Y97.224 E14.65785
G1 X144.25 Y96.772 E14.70651
G0 F6000 X143.871 Y96.403
G1 F1200 X144.326 Y95.964 E14.75703
G1 X144.824 Y95.546 E14.80898
G1 X145.35 Y95.164 E14.86092
G1 X145.888 Y94.827 E14.91165
G1 X146.453 Y94.527 E14.96276
G1 X147.035 Y94.268 E15.01367
G1 X147.64 Y94.049 E15.06508
G1 X148.258 Y93.87 E15.11649
G1 X148.9 Y93.734 E15.16892
G1 X149.528 Y93.646 E15.21959
G1 X150.169 Y93.601 E15.27094
G1 X150.811 Y93.601 E15.32224
G1 X151.451 Y93.646 E15.3735
G1 X152.079 Y93.734 E15.42417
G1 X152.721 Y93.87 E15.47661
G1 X153.347 Y94.051 E15.52868
G1 X153.93 Y94.263 E15.57825
G1 X154.533 Y94.531 E15.63097
G1 X155.079 Y94.821 E15.68037
G1 X155.634 Y95.168 E15.73267
G1 X156.16 Y95.55 E15.78462
G1 X156.653 Y95.964 E15.83606
G1 X157.108 Y96.403 E15.88658
G1 X157.547 Y96.889 E15.93891
G1 X157.938 Y97.392 E15.98981
G1 X158.298 Y97.925 E16.04121
G1 X158.62 Y98.482 E16.09262
G1 X158.903 Y99.062 E16.14418
G1 X159.139 Y99.645 E16.19444
G1 X159.34 Y100.263 E16.24637
G1 X159.493 Y100.872 E16.29654
G1 X159.607 Y101.521 E16.34919
G1 X159.646 Y101.891 E16.37892
G1 X141.333 Y101.891 E17.84221
G1 X141.372 Y101.52 E17.87201
G1 X141.486 Y100.872 E17.92459
G1 X141.639 Y100.263 E17.97476
G1 X141.84 Y99.645 E18.02669
G1 X142.076 Y99.062 E18.07694
G1 X142.359 Y98.482 E18.12851
G1 X142.681 Y97.925 E18.17992
G1 X143.041 Y97.392 E18.23131
G1 X143.432 Y96.889 E18.28222
G1 X143.871 Y96.403 E18.33455
G0 F6000 X143.483 Y96.045
G1 F1200 X143.98 Y95.564 E18.38981
G1 X144.493 Y95.134 E18.4433
G1 X145.057 Y94.725 E18.49897
G1 X145.629 Y94.367 E18.55289
G1 X146.219 Y94.054 E18.60625
G1 X146.848 Y93.773 E18.6613
G1 X147.464 Y93.55 E18.71365
G1 X148.137 Y93.356 E18.76961
G1 X148.804 Y93.214 E18.8241
G1 X149.476 Y93.12 E18.87832
G1 X150.146 Y93.073 E18.93199
G1 X150.834 Y93.073 E18.98696
G1 X151.503 Y93.12 E19.04055
G1 X152.175 Y93.214 E19.09477
G1 X152.842 Y93.356 E19.14926
G1 X153.513 Y93.549 E19.20505
G1 X154.137 Y93.776 E19.25811
G1 X154.754 Y94.051 E19.31208
G1 X155.348 Y94.366 E19.36581
G1 X155.929 Y94.729 E19.42055
G1 X156.486 Y95.134 E19.47557
G1 X156.999 Y95.564 E19.52906
G1 X157.496 Y96.045 E19.58433
G1 X157.951 Y96.549 E19.63858
G1 X158.368 Y97.084 E19.69278
G1 X158.744 Y97.641 E19.74648
G1 X159.093 Y98.246 E19.80229
G1 X159.38 Y98.835 E19.85464
G1 X159.639 Y99.475 E19.90981
G1 X159.849 Y100.123 E19.96424
G1 X160.011 Y100.77 E20.01753
G1 X160.13 Y101.443 E20.07214
G1 X160.201 Y102.126 E20.12701
G1 X160.211 Y102.419 E20.15044
G1 X140.768 Y102.419 E21.70401
G1 X140.778 Y102.128 E21.72728
G1 X140.849 Y101.442 E21.78238
G1 X140.968 Y100.77 E21.83692
G1 X141.13 Y100.123 E21.89021
G1 X141.34 Y99.475 E21.94464
G1 X141.599 Y98.835 E21.99981
G1 X141.886 Y98.246 E22.05216
G1 X142.235 Y97.641 E22.10797
G1 X142.611 Y97.084 E22.16167
G1 X143.028 Y96.549 E22.21587
G1 X143.483 Y96.045 E22.27012
G1 F1500 E17.27012
G0 F6000 X85.217 Y102.018
G0 X85.217 Y102.133
G1 F1500 E22.27012
G1 F1200 X85.227 Y102.419 E22.29299
G1 X75 Y102.419 E23.11017
G1 X74.862 Y102.458 E23.12163
G1 X74.764 Y102.564 E23.13316
G1 X74.736 Y102.683 E23.14293
G1 X74.736 Y112.509 E23.92807
G1 X74.492 Y112.492 E23.94761
G1 X73.82 Y112.398 E24.00183
G1 X73.154 Y112.256 E24.05624
G1 X72.478 Y112.062 E24.11244
G1 X71.862 Y111.838 E24.16481
G1 X71.236 Y111.559 E24.21958
G1 X70.644 Y111.244 E24.27316
G1 X70.065 Y110.882 E24.32772
G1 X69.509 Y110.479 E24.38259
G1 X68.994 Y110.046 E24.43635
G1 X68.492 Y109.56 E24.49218
G1 X68.05 Y109.07 E24.54491
G1 X67.634 Y108.539 E24.59881
G1 X67.245 Y107.963 E24.65435
G1 X66.906 Y107.374 E24.70865
G1 X66.615 Y106.776 E24.76179
G1 X66.352 Y106.128 E24.81767
G1 X66.144 Y105.484 E24.87175
G1 X65.984 Y104.841 E24.92469
G1 X65.864 Y104.162 E24.97979
G1 X65.794 Y103.486 E25.03409
G1 X65.77 Y102.808 E25.0883
G1 X65.795 Y102.118 E25.14347
G1 X65.865 Y101.448 E25.1973
G1 X65.985 Y100.77 E25.25231
G1 X66.147 Y100.123 E25.30561
G1 X66.352 Y99.489 E25.35885
G1 X66.617 Y98.836 E25.41516
G1 X66.905 Y98.246 E25.46762
G1 X67.254 Y97.641 E25.52343
G1 X67.621 Y97.096 E25.57593
G1 X68.058 Y96.538 E25.63256
G1 X68.492 Y96.054 E25.68451
G1 X68.988 Y95.575 E25.7396
G1 X69.515 Y95.134 E25.79451
G1 X70.051 Y94.744 E25.84748
G1 X70.647 Y94.37 E25.9037
G1 X71.233 Y94.061 E25.95664
G1 X71.863 Y93.779 E26.01179
G1 X72.478 Y93.556 E26.06406
G1 X73.167 Y93.359 E26.12132
G1 X73.821 Y93.219 E26.17476
G1 X74.485 Y93.125 E26.22835
G1 X75.157 Y93.079 E26.28217
G1 X75.854 Y93.079 E26.33786
G1 X76.527 Y93.125 E26.39176
G1 X77.19 Y93.219 E26.44527
G1 X77.852 Y93.36 E26.49935
G1 X78.507 Y93.547 E26.55378
G1 X79.161 Y93.786 E26.60942
G1 X79.772 Y94.058 E26.66286
G1 X80.374 Y94.378 E26.71733
G1 X80.955 Y94.74 E26.77203
G1 X81.496 Y95.134 E26.82551
G1 X82.023 Y95.575 E26.88042
G1 X82.519 Y96.054 E26.93551
G1 X82.953 Y96.538 E26.98746
G1 X83.39 Y97.096 E27.04409
G1 X83.757 Y97.641 E27.09659
G1 X84.109 Y98.251 E27.15287
G1 X84.396 Y98.84 E27.20522
G1 X84.655 Y99.48 E27.26039
G1 X84.862 Y100.118 E27.31398
G1 X85.028 Y100.78 E27.36852
G1 X85.146 Y101.448 E27.42272
G1 X85.217 Y102.133 E27.47775
G0 F6000 X84.661 Y101.891
G1 F1200 X75 Y101.891 E28.2497
G1 X74.752 Y101.931 E28.26977
G1 X74.529 Y102.046 E28.28982
G1 X74.354 Y102.225 E28.30982
G1 X74.243 Y102.45 E28.32987
G1 X74.208 Y102.683 E28.3487
G1 X74.208 Y111.919 E29.08669
G1 X73.916 Y111.878 E29.11025
G1 X73.271 Y111.741 E29.16294
G1 X72.657 Y111.565 E29.21398
G1 X72.05 Y111.344 E29.26559
G1 X71.469 Y111.085 E29.31642
G1 X70.906 Y110.785 E29.3674
G1 X70.366 Y110.448 E29.41826
G1 X69.825 Y110.055 E29.47169
G1 X69.35 Y109.656 E29.52126
G1 X68.88 Y109.202 E29.57347
G1 X68.452 Y108.727 E29.62456
G1 X68.056 Y108.221 E29.6759
G1 X67.693 Y107.684 E29.72769
G1 X67.38 Y107.14 E29.77784
G1 X67.097 Y106.559 E29.82948
G1 X66.852 Y105.956 E29.88149
G1 X66.651 Y105.332 E29.93387
G1 X66.501 Y104.733 E29.98321
G1 X66.388 Y104.091 E30.0353
G1 X66.322 Y103.461 E30.08591
G1 X66.299 Y102.808 E30.13812
G1 X66.323 Y102.144 E30.19121
G1 X66.387 Y101.529 E30.24062
G1 X66.501 Y100.882 E30.29312
G1 X66.651 Y100.285 E30.3423
G1 X66.852 Y99.661 E30.39468
G1 X67.097 Y99.058 E30.44669
G1 X67.378 Y98.482 E30.4979
G1 X67.702 Y97.921 E30.54967
G1 X68.051 Y97.403 E30.59957
G1 X68.462 Y96.879 E30.65279
G1 X68.875 Y96.418 E30.70224
G1 X69.343 Y95.966 E30.75423
G1 X69.846 Y95.546 E30.80659
G1 X70.349 Y95.18 E30.8563
G1 X70.907 Y94.83 E30.90893
G1 X71.473 Y94.531 E30.96008
G1 X72.062 Y94.268 E31.01162
G1 X72.648 Y94.056 E31.06141
G1 X73.277 Y93.876 E31.11369
G1 X73.918 Y93.739 E31.16607
G1 X74.54 Y93.651 E31.21626
G1 X75.178 Y93.607 E31.26736
G1 X75.832 Y93.607 E31.31962
G1 X76.472 Y93.651 E31.37088
G1 X77.093 Y93.739 E31.42099
G1 X77.729 Y93.875 E31.47296
G1 X78.35 Y94.052 E31.52456
G1 X78.952 Y94.272 E31.57577
G1 X79.551 Y94.538 E31.62814
G1 X80.112 Y94.837 E31.67894
G1 X80.655 Y95.175 E31.73004
G1 X81.165 Y95.546 E31.78044
G1 X81.668 Y95.966 E31.8328
G1 X82.136 Y96.418 E31.88479
G1 X82.549 Y96.879 E31.93424
G1 X82.96 Y97.403 E31.98746
G1 X83.309 Y97.921 E32.03736
G1 X83.638 Y98.491 E32.08995
G1 X83.919 Y99.067 E32.14116
G1 X84.153 Y99.645 E32.19099
G1 X84.354 Y100.263 E32.24291
G1 X84.512 Y100.895 E32.29497
G1 X84.623 Y101.526 E32.34616
G1 X84.661 Y101.891 E32.37548
G0 F6000 X84.058 Y101.363
G1 F1200 X75 Y101.363 E33.09926
G1 X74.678 Y101.403 E33.12518
G1 X74.376 Y101.52 E33.15106
G1 X74.111 Y101.707 E33.17698
G1 X73.9 Y101.954 E33.20293
G1 X73.755 Y102.244 E33.22884
G1 X73.68 Y102.683 E33.26443
G1 X73.68 Y111.288 E33.952
G1 X73.412 Y111.232 E33.97388
G1 X72.808 Y111.058 E34.0241
G1 X72.249 Y110.855 E34.07163
G1 X71.702 Y110.611 E34.11948
G1 X71.176 Y110.331 E34.1671
G1 X70.653 Y110.005 E34.21634
G1 X70.163 Y109.649 E34.26474
G1 X69.691 Y109.252 E34.31402
G1 X69.26 Y108.835 E34.36194
G1 X68.858 Y108.389 E34.40991
G1 X68.491 Y107.92 E34.4575
G1 X68.142 Y107.403 E34.50734
G1 X67.844 Y106.887 E34.55495
G1 X67.575 Y106.335 E34.60402
G1 X67.349 Y105.779 E34.65198
G1 X67.163 Y105.2 E34.70057
G1 X67.016 Y104.614 E34.74884
G1 X66.91 Y104.013 E34.79761
G1 X66.848 Y103.419 E34.84533
G1 X66.827 Y102.808 E34.89418
G1 X66.848 Y102.199 E34.94287
G1 X66.91 Y101.604 E34.99067
G1 X67.016 Y101.004 E35.03935
G1 X67.163 Y100.417 E35.08771
G1 X67.349 Y99.838 E35.1363
G1 X67.578 Y99.276 E35.18479
G1 X67.842 Y98.735 E35.23289
G1 X68.145 Y98.209 E35.2814
G1 X68.482 Y97.709 E35.32957
G1 X68.861 Y97.224 E35.37876
G1 X69.263 Y96.778 E35.42673
G1 X69.69 Y96.365 E35.4742
G1 X70.171 Y95.962 E35.52434
G1 X70.641 Y95.62 E35.57079
G1 X71.168 Y95.29 E35.62047
G1 X71.697 Y95.01 E35.6683
G1 X72.262 Y94.758 E35.71773
G1 X72.811 Y94.559 E35.76439
G1 X73.419 Y94.385 E35.81492
G1 X74.001 Y94.261 E35.86247
G1 X74.594 Y94.177 E35.91033
G1 X75.201 Y94.135 E35.95894
G1 X75.81 Y94.135 E36.00761
G1 X76.417 Y94.177 E36.05622
G1 X77.009 Y94.261 E36.104
G1 X77.605 Y94.388 E36.15269
G1 X78.178 Y94.551 E36.20029
G1 X78.762 Y94.765 E36.24999
G1 X79.313 Y95.009 E36.29814
G1 X79.849 Y95.295 E36.34669
G1 X80.354 Y95.609 E36.3942
G1 X80.846 Y95.967 E36.44282
G1 X81.321 Y96.365 E36.49234
G1 X81.748 Y96.778 E36.53981
G1 X82.15 Y97.224 E36.58778
